SnyprDragun/STT-for-manipulators/forbidden_joint_configs_1000.csv
q1,q2,q3,q4,q5,q6,q7
0.5021576664517408,-1.76,-1.9073625713916516,-0.5163774900705934,0.08649936622379249,2.6466618788302694,0.7879977482959104
0.5021576110022494,-1.76,-1.9073626279764344,-0.5163774849056332,0.08649929522035557,2.646661842029498,0.7879976813967335
0.5091607501256324,-1.753196525785677,-1.9049409413455785,-0.5053852061060169,0.08521667189922431,2.6514719954357604,0.7877450228027832
0.5140505061568813,-1.7461750249139167,-1.902533778515776,-0.49889093039494614,0.08446200942046583,2.654243798009024,0.7877784709572156
0.5180860505447793,-1.7385886533464028,-1.9000447092554233,-0.49372226445006956,0.08382286924915719,2.6563606728255387,0.7878847053222332
0.5214902240553658,-1.7306785871045858,-1.8975703002715054,-0.4894129723473547,0.08318571597060022,2.6580243998431197,0.7879717248267638
0.5247102948843877,-1.7225354417418581,-1.895303424644846,-0.4852362242531002,0.08209209848980024,2.659480832017708,0.7877167170149502
0.5274732669198569,-1.7142688240174442,-1.8929714102445925,-0.4817465641781063,0.08119183329651512,2.660686222728614,0.7876186559729258
0.5298467050865552,-1.7058469384769397,-1.8905882090115964,-0.47878109691370097,0.08042169039166991,2.6616857504762375,0.7876244700470227
0.5318911300162898,-1.6972893032824308,-1.888174738513497,-0.4762483774087019,0.0797380411858466,2.662504818742889,0.787694930874018
0.41552760434531205,-1.76,-2.0574421538434646,-0.4883429627521558,0.09429307043923663,2.668136196097185,0.7850981439566631
0.41552612189939764,-1.7599995442386955,-2.057442821386525,-0.4883428281448397,0.09429204581439102,2.6681354797128,0.7850972061788704
0.41743072741148923,-1.7503408245208565,-2.054685379517324,-0.48271652674691584,0.09356033719604388,2.6690470141866847,0.7853378700185029
0.4197946607417771,-1.7417056999189684,-2.0522142216544643,-0.47921219723931235,0.09282774614215596,2.669363496106646,0.785459889912846
0.4219706730274886,-1.7327404726647009,-2.049707478662715,-0.4762144311172092,0.09210438954458837,2.6695332524354356,0.7855823524622857
0.4238845527619282,-1.7235845376913528,-2.0471922267438485,-0.4736147813310315,0.0914297786695726,2.669624593064773,0.7857265795856092
0.4255753803044226,-1.7142696838808786,-2.044673797277783,-0.47133378936931336,0.0907933049599415,2.6696564754728525,0.7858837943084241
0.4270870856974353,-1.7048198024724126,-2.0421485331996503,-0.4692980592411359,0.09019260448120116,2.669649589677052,0.7860565037880901
0.4284570596476073,-1.695254673255379,-2.0396089133334097,-0.46744580063264657,0.08962964061709695,2.669623042838142,0.7862538361088693
0.4297038039722452,-1.6855871346716431,-2.037058980833393,-0.46574770484219014,0.08908608540022045,2.6695734310257233,0.7864684901741936
0.27913730268277004,-1.76,-2.2012466132433506,-0.4917884461359316,0.10267155813300334,2.669936137642445,0.7832245604780117
0.2802513864779888,-1.7553485290091049,-2.1999908051793797,-0.4881420491517266,0.1021422862698069,2.670362535542031,0.7832504858048015
0.283264189677584,-1.7464704535611861,-2.1975792763763136,-0.48294100090196124,0.10097052679514823,2.6706413272023384,0.7831004322547025
0.2861379636088795,-1.7374474694371491,-2.1950850931470316,-0.478304153185351,0.09995878108085793,2.670868238025077,0.7831263251565879
0.28871081446540114,-1.7282597547616985,-2.1926096312296006,-0.47421035122980904,0.0989337514945765,2.6709095867956933,0.783186407821372
0.2908062573106085,-1.7186394264286735,-2.1902439242411003,-0.47094776055367893,0.09775038840017776,2.6706359862130156,0.7830761963402384
0.29249520407865087,-1.708586661090222,-2.187965833751539,-0.46834049852840004,0.09645132043056398,2.6701747255552,0.7828079767443914
0.2938927143354036,-1.6982659974122556,-2.185748346459919,-0.46618280754850455,0.09509617884492372,2.6696337755163433,0.7824481806790188
0.29507804773956736,-1.6877469995966898,-2.1835731762669885,-0.4643611378308938,0.0937041904434302,2.669057932887619,0.7820256972285611
0.296098150325587,-1.6770610776655224,-2.181430936696414,-0.4628080633638268,0.09227870700022744,2.6684670457737716,0.7815507210372518
0.11655633311146273,-1.76,-2.337456305244206,-0.492074536344192,0.10341863075167695,2.6677274510868076,0.7789830494723112
0.11897417360323592,-1.7530691597748964,-2.3356905238554933,-0.48653320195059524,0.10234574596344982,2.6683504865673555,0.7787602747025526
0.1219687022666867,-1.7439158036917977,-2.3333349191727937,-0.4810834096629375,0.10131640406469539,2.6689927354313254,0.7786241677940999
0.12458616825499468,-1.7344757753864268,-2.331055722544359,-0.47651400724930976,0.10025835922140237,2.6693175993556078,0.7784497354746497
0.12678975624849004,-1.7245860811735227,-2.3288938554423106,-0.47269566414114383,0.09903283879851704,2.6692879119059074,0.778109761324713
0.1287962427576524,-1.7143913860228528,-2.3266196348690467,-0.4691546509133565,0.09795692482653245,2.669326200804487,0.7779705473270673
0.13051677833725542,-1.70386627904512,-2.3244286345212553,-0.46614058579643397,0.09675120926282568,2.6691840983087785,0.7776915133270456
0.13196956378162367,-1.693004601533483,-2.3223476460954786,-0.4636078710605442,0.09530328676904777,2.6688300960765208,0.7771764237406796
0.1333092010505497,-1.6820685487419096,-2.3200903615860797,-0.46124890035324295,0.09424604729745209,2.6687009732861955,0.7770365718142773
0.13439507834798278,-1.6708122721390604,-2.317880184137744,-0.4593268710583446,0.09290323645541142,2.668353598129647,0.7766188147070657
-0.07047683750080819,-1.76,-2.4446881676604355,-0.48490446921482105,0.09878471137285443,2.6645986399131854,0.774653737261856
-0.06773544057551655,-1.7515069018784668,-2.4426323345414276,-0.4792038466222434,0.09783347865448887,2.6657863005282025,0.7745301684573637
-0.06518338161827072,-1.742110434419224,-2.4404329248093606,-0.4743113214972667,0.09677864902653324,2.6665523797123822,0.7743097158947226
-0.06300670205618436,-1.7322101153644809,-2.438250143943645,-0.47004657664276644,0.09591399882109239,2.667143458735391,0.774305027015084
-0.060958501556069904,-1.7221564755578151,-2.4360880916485708,-0.4661840148235058,0.09605632441324011,2.668372532340721,0.7742169064615141
-0.05847805235392048,-1.712421785274882,-2.4339420663233855,-0.4615145424977381,0.09622034571691465,2.670019396579412,0.774137050682564
-0.05567135435719778,-1.7030183420949718,-2.431873040413386,-0.45596679441148935,0.09632284227125414,2.672040669085542,0.7740162470657634
-0.05192288961036057,-1.6944829100742969,-2.4297461812026118,-0.4485169697893195,0.09662381944478048,2.6752396252194965,0.7740114027907126
-0.04701287941394315,-1.687149108689886,-2.427620734728092,-0.43862120500371166,0.097068923542439,2.679893891151864,0.7741175874848156
0.06169743633721535,-1.76,-2.493505932100212,-0.3473644139680745,0.16889235750479697,3.1792750461919623,0.7771596330311961
-0.24715151227409535,-1.759309041421446,-2.5642306468667706,-0.4632968929664779,0.13162861205384718,2.7361558895274882,0.776168737845962
-0.24778970908954467,-1.746876518000944,-2.562791561910626,-0.4627234819187498,0.12987767175865272,2.726986469174161,0.7758371937969142
-0.24807052811963481,-1.7345467220712434,-2.5612896570251076,-0.4618176420918615,0.1279965408353291,2.7190665847476336,0.7752947166699989
-0.2483367745040388,-1.7221401004580863,-2.559629460846605,-0.4609037816905125,0.1268185695552268,2.7118010660931877,0.7755984483625185
-0.2090546975813396,-1.76,-2.560467390451649,-0.38802545535237615,0.13584473365070182,2.8231553583469617,0.777074073212263
-0.19066002665546833,-1.76,-2.5809450892538752,-0.38696345358982875,0.15598696868863318,2.9456419783116297,0.7784194718511146
-0.17749546862922452,-1.76,-2.588015083974323,-0.3787722732404367,0.16600991105412055,3.024663287288113,0.7782899969837314
-0.16616899773986968,-1.76,-2.5911476325618445,-0.3668341790612784,0.17199884624646294,3.084289676295106,0.7776760867806494
-0.15586812364970695,-1.76,-2.592691574751227,-0.3523887999088417,0.1752192286349171,3.1316080289194588,0.7772381487574176
-0.14616813812936422,-1.76,-2.5936285041928153,-0.3359827563116375,0.17680666222055458,3.1699843596110173,0.7766156674285248
-0.43648944530220685,-1.732000491701085,-2.653513362419094,-0.463210765546752,0.1358522211854937,2.7375275922107893,0.7756656464580426
-0.43746626093904417,-1.7201478179560201,-2.65214161757387,-0.46252811523290094,0.13462971116683922,2.7276789847096166,0.7760159511318219
-0.43782458783574196,-1.7083000545092186,-2.65051308493056,-0.4613919175692631,0.13373710499789057,2.71981601407109,0.7765486322964408
-0.4379931139799581,-1.696598568295524,-2.648948974929766,-0.4601129833820392,0.13277647269467605,2.7131830440187783,0.7769341894401439
-0.4380417764954253,-1.6849437432075922,-2.647472552027976,-0.4587789771213601,0.1317067938927005,2.7074849864823243,0.7771431909595923
-0.43800885486454244,-1.6732493125526768,-2.6461235849071914,-0.4574411108356013,0.1304474680196324,2.702490678597452,0.7771055337844738
-0.43796538269567586,-1.661390519961956,-2.644930996906881,-0.4562264714936358,0.12889888134527258,2.697853990232422,0.7767592897801555
-0.4378858431517497,-1.6495571046869508,-2.6436392256960928,-0.4549682962217465,0.12749018445989566,2.6937980139789723,0.7765722085369953
-0.43770331542905105,-1.6379194288628935,-2.642206161523555,-0.45355459892759564,0.12643447413617703,2.69059522111224,0.776675793378963
-0.43757047912470115,-1.6260717594162535,-2.6407112441078247,-0.4522999137824319,0.12547418366216756,2.687693204715146,0.7768202049909276
-0.6152265704997535,-1.6915084479784932,-2.6976781905001728,-0.46273789269385185,0.12545220636915347,2.6754828934387853,0.7737096382564486
-0.6158530353232609,-1.6837371179545646,-2.697007071509913,-0.4601995224485043,0.12458511305734857,2.674790971666045,0.7736759377447462
-0.6152899063446973,-1.6742043182552604,-2.695950972546336,-0.45775688103475415,0.12348445892524038,2.6739585392970415,0.7735113077862376
-0.6146739052252924,-1.664383700123797,-2.6948753813287,-0.45563876320278046,0.1223634724889401,2.6731247727876757,0.7733196590913375
-0.6141242662720834,-1.654333538888435,-2.693816955473819,-0.45378893541973975,0.12122037005282392,2.6723010335540387,0.7730963683470882
-0.6136466319810819,-1.6440729973253294,-2.6927814603717533,-0.45217641336703446,0.12004789432785867,2.6714881743799825,0.7728362978732854
-0.613235267071575,-1.6336170914348138,-2.6917720119573483,-0.4507770092966792,0.11883834510026103,2.6706861034582414,0.7725336165906879
-0.6128839729432932,-1.6229791295477014,-2.6907917476561565,-0.449569934357344,0.11758406055872261,2.6698946577253606,0.7721820768251456
-0.6125871553065666,-1.6121711489396229,-2.6898438399342988,-0.44853705833283347,0.1162775758326108,2.6691136702556015,0.7717752715288902
-0.6123399025408414,-1.6012040478782816,-2.6889314622782066,-0.44766260613729203,0.11491160405234334,2.668342853869288,0.7713067221288794
-0.7586357935049394,-1.6576516648228583,-2.732193096710589,-0.4575463466707491,0.11558933450594597,2.6652730549167596,0.7675458620127866
-0.7597190951745879,-1.6519512406929653,-2.7319211686062697,-0.45502059614447093,0.11520653219958372,2.665671809199507,0.7674914560461058
-0.759540489504748,-1.6433831508955932,-2.7310464124223395,-0.45275345038048315,0.11448694917506454,2.665922795732508,0.7674700094612956
-0.7590864807804149,-1.6344282116086237,-2.7300905219258502,-0.4508751721998506,0.11370275416385803,2.6660317817419803,0.7674224685846109
-0.7586392923708094,-1.625245377067517,-2.7291391114824552,-0.4492748618938651,0.1128785130741034,2.666042472074596,0.7673438402743684
-0.7582458723633845,-1.61587265231361,-2.7282037239276766,-0.44789910469668903,0.11202453380084913,2.665980687820436,0.7672382267793373
-0.7579089195459264,-1.6063327551287048,-2.727282446264316,-0.4467130286608571,0.11114932972119498,2.6658662424347406,0.7671120250041756
-0.7576237389151893,-1.5966437583303958,-2.7263714117018254,-0.4456890312841007,0.11026005824514129,2.6657151573976834,0.766971324935292
-0.7573849024823484,-1.586821184102641,-2.725467073657366,-0.44480400671979337,0.1093624306346265,2.665540210266814,0.7668211327347136
-0.7571873826773897,-1.576878662396157,-2.7245666540011504,-0.4440383105461913,0.10846082904986624,2.665351373247443,0.7666652953134064
-0.8761358152761508,-1.6224845095018752,-2.7579566675445553,-0.45886350392058395,0.10736320081437994,2.6624172245001843,0.7644558263629168
-0.8775464178279649,-1.618393992296525,-2.7579037976451493,-0.4571090291860771,0.1071210152436919,2.662928198347703,0.7644759607259732
-0.8776169855504251,-1.6110222914442391,-2.757197155706192,-0.45440743291236624,0.1066747482292648,2.6635542729316017,0.7645349103372785
-0.8772548248897567,-1.603234112271874,-2.756358262740569,-0.45215466781794533,0.10614974578964888,2.6640403563920723,0.7645855853849407
-0.876839744322112,-1.595155566085843,-2.7554966756146237,-0.45027400278146273,0.10556773555813742,2.664400364890442,0.7646172139573367
-0.8764687410579249,-1.586837366301806,-2.7546472457416558,-0.44870734142295327,0.10493202786106073,2.6646442367534373,0.7646184957933373
-0.8761578722336307,-1.5783151648847844,-2.753819692587023,-0.4474067536378657,0.10424600582575852,2.6647859944187338,0.7645848206954843
-0.8759036454225957,-1.5696188541185583,-2.7530149317778156,-0.4463292266690209,0.10351577221235751,2.6648432080904563,0.7645171259071974
-0.8756989761229299,-1.560773874052604,-2.7522307778939146,-0.44543651762652137,0.1027486962786628,2.6648340282530096,0.7644191297494902
-0.8755368719197615,-1.5518018008224947,-2.751464138299052,-0.4446956717416397,0.10195205032298858,2.6647750556649443,0.7642954257240576
0.7269151809246663,-1.6862511859863387,-2.437600590370178,-0.48727766687197666,0.03616149919917224,2.6637769978072763,0.7671370406828193
0.7302626648570844,-1.6799238676220056,-2.43577783435544,-0.48298703414981603,0.03570933601944974,2.6648133979503354,0.7670899244214604
0.7327541531767682,-1.6726827295986753,-2.4340110425459027,-0.47810683041118096,0.03519097736847829,2.6659384908974495,0.7670289616616579
0.7349150928664837,-1.6650229473598626,-2.4321448305117546,-0.4740095347805878,0.03489256671170587,2.666861436287127,0.7671591572691133
0.7367558286102348,-1.6568715249127193,-2.4303242258959843,-0.470590933440302,0.034533000375874826,2.667455869976919,0.7672123309409598
0.738115953651688,-1.6481227271527645,-2.428584339375329,-0.4670751672989668,0.033978708753996945,2.6679836501210175,0.7671403930610144
0.7394073406778002,-1.6393937621143333,-2.4268385475819207,-0.46432011515315214,0.033490102551769846,2.6683076520025875,0.7671282742917349
0.740506353344965,-1.6303919317774322,-2.4250590810638575,-0.46207188012644457,0.03305762434457533,2.668497769665853,0.7671750625342002
0.7417328416584433,-1.6214110622883036,-2.4233060122362957,-0.45996182714519057,0.03262433893634811,2.6686153614539365,0.7671630896466269
0.7426501001951056,-1.6120600718392308,-2.421545592228902,-0.4580388364576159,0.03220488912199249,2.668679771364682,0.7671725595987701
0.6193247764440212,-1.7339848308175991,-2.4728931993307373,-0.4659833385813536,0.03553735674181042,2.6631751635714043,0.7660781164564491
0.6198177938433072,-1.7258765473160707,-2.4717072420848534,-0.4632242950018557,0.03469487180610889,2.6638100659810444,0.7656395228336427
0.6211952433930095,-1.716260387171481,-2.4698760644871816,-0.4605357217404521,0.034192254723506565,2.6645023939359356,0.7655822573090427
0.6224552792232881,-1.706260088620315,-2.4680473414090445,-0.45821385288777655,0.03363318621162174,2.665027725269358,0.7654777570736265
0.6235491992197044,-1.695985451652674,-2.466250233175909,-0.45623092629585826,0.03301663146916277,2.6654029929957654,0.7653193652765948
0.6245940602066342,-1.6858226407960903,-2.464217465445012,-0.4542868978391537,0.03288200827939067,2.665984198123003,0.7656138715172409
0.6255241554183594,-1.6753658910712863,-2.462091194519811,-0.45252952103447985,0.03287142588912862,2.6665698390871695,0.7660355200591811
0.6262030945868152,-1.6644132580957403,-2.460230683423739,-0.45132998071801855,0.032369952828371296,2.666614919426485,0.7659956258206064
0.6267651375135227,-1.6533194795873511,-2.458389591666882,-0.4503286139740748,0.03184736121749731,2.666598746017595,0.7659350935811524
0.6272380101659991,-1.6421691491372141,-2.456638225248632,-0.4495595048261941,0.03125485560408418,2.666421431952437,0.7657814739508971
0.30778336360133113,-1.5242967597889143,-2.57045873422318,-0.8976796023197354,0.05303924696720358,2.501312874692109,0.7592853863090243
0.2931829106653913,-1.4916158241887916,-2.5650431738533395,-0.9331852448723303,0.052159933425090496,2.48094868592305,0.7581429940516401
0.2799304467345993,-1.4609443905097714,-2.5595195547703775,-0.964964824489288,0.05136232074009596,2.4621948746523783,0.7570959569125086
0.2682172979761111,-1.4315584724461243,-2.5547586985825688,-0.9937610481755523,0.05006600379041879,2.4448311758710526,0.7558292688518718
0.2573824780629416,-1.403479690437524,-2.549887505524144,-1.0200938801581876,0.049177132698951624,2.4287751274111633,0.7549590705786547
0.24738352127769764,-1.3764341792897803,-2.545090128375119,-1.044261179992039,0.04813495521860552,2.4135829648823983,0.753915596872212
0.2380985086124726,-1.3503092155301188,-2.540332216020716,-1.0665354749583427,0.0474980628057981,2.3993481099860516,0.7532589869420316
0.2291107030592172,-1.3251615586640038,-2.5351004889362097,-1.0872278224209444,0.0470563982300617,2.386126256068382,0.7527518865580265
0.2208031046982655,-1.300688093715305,-2.5300890169822003,-1.1062820987370816,0.04632762544139854,2.373418661949571,0.7519808651672537
0.21300978920064229,-1.2768404516640535,-2.525156532035431,-1.1239269105062535,0.045527564360785415,2.361296333567041,0.7511405690173326
-0.015163710954374996,-1.261920150955046,-2.6432345679599156,-1.3382253535467308,0.03586272033275832,2.241168086343659,0.7473145800530414
-0.022374474870286546,-1.2362506236212396,-2.637563919162156,-1.3574371544622694,0.035471184485037374,2.227672134975726,0.7466806382954982
-0.029385327058239454,-1.2109915568929972,-2.63179878705864,-1.37567438280055,0.035134307787143416,2.2146315114797743,0.7460767728111644
-0.036193400132868356,-1.1861150630910802,-2.6259688585542427,-1.3929701738110856,0.03486246865073215,2.202009483747843,0.7455171392049336
-0.04278631676225467,-1.161581861846705,-2.62011680249461,-1.4093644092948856,0.03471819424678628,2.18977576142263,0.7450651516496298
-0.0491483314076389,-1.1373339331763868,-2.6142991338475783,-1.4249427480296264,0.03471843539135987,2.1780360960580487,0.7446943136401412
-0.0553325862414391,-1.1133827481610856,-2.6084644851826533,-1.4397148553254364,0.034909675208967386,2.1667426965074905,0.7444800324994985
-0.061398144942161545,-1.0897645153988484,-2.6025395211000237,-1.4536487190075489,0.03499836527203403,2.155713296971014,0.7441753046252706
-0.06729192655836645,-1.0664476647972356,-2.5965962137894003,-1.466726273424721,0.03491784403633411,2.1448914423757834,0.7436895182747376
-0.07303885708708144,-1.0434032650983582,-2.5906419232840583,-1.479044444722987,0.03489242871973129,2.134415916499006,0.7432389231705393
-0.24112362972853896,-1.1407402206303516,-2.7371661146260755,-1.5011958559017737,0.02790712541908892,2.136165519232316,0.7450665864598471
-0.24645586746159265,-1.1147430660983266,-2.7320846917406323,-1.5184041506900774,0.02788236173917403,2.1231115987803353,0.7446826896826493
-0.25173047048935787,-1.0890411208858002,-2.7268837959219923,-1.5348439069718105,0.02793901411700024,2.110433107633061,0.7443696270471774
-0.2567283573105344,-1.063523604907659,-2.7218280374789225,-1.5505454750782206,0.028141921964796018,2.0981209207397855,0.7441809646831791
-0.2616321962576316,-1.0382834226183293,-2.7166998344044764,-1.565457587950624,0.0282036534334454,2.0860575706008793,0.7438127856479342
-0.2664063070596527,-1.0132725243450504,-2.711569100734218,-1.5796438509169946,0.028303409432062582,2.074300703968412,0.7434618152741038
-0.2711270005750384,-0.9885124306932211,-2.7063618689119497,-1.5931142248439056,0.02840290928018117,2.0628364912479196,0.7431158330930955
-0.2756794057980359,-0.9639533640059877,-2.701225435483368,-1.6058734513474922,0.028577425912106075,2.0516483538938735,0.7428434335914215
-0.2801218117459445,-0.9396187684990465,-2.69607898152582,-1.6179150173843402,0.02864649971504823,2.040698507211431,0.7424377569856422
-0.2844453721142645,-0.9154840986921534,-2.6909710309800228,-1.629285342058642,0.028753417146716812,2.0300308786131764,0.7420567766074132
-0.4443591951379365,-1.114303990060025,-2.8226665666317268,-1.4980474694561086,0.025676754298551728,2.1294508087898216,0.7453744827770141
-0.4484407783048789,-1.0878971586697528,-2.818790444092477,-1.5151975688236845,0.02554209686276163,2.1162711443005926,0.7449560249431643
-0.4524580107174986,-1.0618153223510793,-2.814829663130018,-1.5315454073561503,0.02526856388852129,2.103425519024757,0.7443716074907417
-0.4563642186038653,-1.0360157807395347,-2.8108616921949765,-1.5471380455781614,0.02504331067358621,2.090912640164262,0.7438216097800335
-0.460108156653784,-1.0105098290513983,-2.806935200811835,-1.5619235773980988,0.024733100557383765,2.0786337313178582,0.7432073499615708
-0.463828092619958,-0.9852277589644622,-2.802951978423787,-1.5760906511802868,0.024708678210289995,2.0667843959655694,0.7428390974599084
-0.46740011638275775,-0.9602102410216411,-2.799034075152044,-1.5895220840160245,0.02476011965098278,2.0552522405147298,0.7425492299450753
-0.47087831820911447,-0.9354411263433545,-2.7951247862600725,-1.6022598634245422,0.02484257466910222,2.0440249551042466,0.742276169765946
-0.47425385824781374,-0.9109264356218734,-2.791227697369208,-1.6142866269696672,0.02481930408577371,2.0330504491743144,0.741875294630792
-0.4776067047855836,-0.8866445016409938,-2.787303019478924,-1.6257002875857278,0.024923759360438166,2.022454814597726,0.7416076488999305
-0.6291044308697379,-1.1918986558846416,-2.877083744743114,-1.3261479627582937,0.017461581854059292,2.2156407142657994,0.7417349894655547
-0.6327319938803305,-1.1648534220782567,-2.874281879037607,-1.3450408593179999,0.01671676185782533,2.2015075709387255,0.7408475761526679
-0.6362565606349211,-1.1382941897452916,-2.871437127620535,-1.362967386415095,0.016187900787873997,2.1878889883606685,0.7401384720334848
-0.6397704567218929,-1.1121770333206529,-2.8684728201234133,-1.3800565522650798,0.015950786444696247,2.174853526461994,0.7397309367243611
-0.6430849544403036,-1.086501841247257,-2.8655820996215624,-1.396173289078182,0.01552378716160104,2.162099506067429,0.7390875430301332
-0.6462948247828753,-1.0612316676141818,-2.862683136612846,-1.4114454456594046,0.015154049239146566,2.1497688926828062,0.7384879033970977
-0.6494043309280787,-1.0363479870268897,-2.8597844267704486,-1.425902659909132,0.014836427913561332,2.1378474599376087,0.7379291106433921
-0.6524158584379038,-1.011835241696598,-2.8568933214187533,-1.439571445057725,0.014565819204489724,2.126322358618058,0.7374079340947622
-0.6554277030165095,-0.9876824302446474,-2.8539236060136597,-1.4525296801167882,0.014554073633483443,2.115294465628316,0.7371017361711432
-0.6583694929571795,-0.9638822675998838,-2.8509509442301653,-1.4647435031749063,0.014582741598768463,2.104643489851793,0.7368235037794442
-0.7879416217355742,-1.4606908992144794,-2.8425431574909075,-0.8857549562058881,-0.014010341366850547,2.474628069773672,0.7271634034703213
-0.7952517532812491,-1.4244886738601161,-2.8401674189243327,-0.9203344830965325,-0.015471006746920313,2.4526032955629997,0.7256780822915833
-0.8014698860735583,-1.3905018593512932,-2.838335996904209,-0.9511469836392946,-0.01735530123583437,2.432071361018779,0.7238086713132199
-0.8071439331080544,-1.3583010757829312,-2.836424391913327,-0.9791574863459921,-0.018862002033108127,2.4132095808807046,0.722348279105847
-0.8124868356031235,-1.3276516619604122,-2.834231207025408,-1.004773514908219,-0.019974271059504542,2.3958141763507963,0.7212663166222014
-0.8175294388458001,-1.2982781822668583,-2.8318731268337305,-1.0283710138078928,-0.020786806355989156,2.379632013903157,0.7204574023039642
-0.8223866901522238,-1.2700846703211996,-2.8292480659498596,-1.0501037951166383,-0.02145094285988648,2.3644309028215535,0.7197227783153178
-0.8270613333183712,-1.2428962672735815,-2.82644853107005,-1.0702259091140416,-0.02202259958638316,2.350154799172888,0.7190553296017239
-0.8313753994978946,-1.2165754227962442,-2.823795280017802,-1.0888209826694586,-0.022465432742939134,2.3365791620108882,0.7185007542828643
-0.8354699799119855,-1.191078342936005,-2.8211168680548857,-1.1060251456381431,-0.022866370138567932,2.3237253110353175,0.7179447577504754
-0.8699967009933713,-1.6563683980697774,-2.8590474865573605,-0.5136567399310537,0.0029471244765144566,2.6448040064472935,0.7201719227419227
-0.8677384195654333,-1.653700990556222,-2.8585068726476273,-0.5020132623676793,0.0023021823257538877,2.6497521446463903,0.7196478376037391
-0.8656841988485791,-1.6490629999139286,-2.8579167541293833,-0.4924610781982843,0.001608565349091999,2.653522008950413,0.7190851136154576
-0.8640921513578533,-1.6429742404267464,-2.8569839396833587,-0.4848655120388292,0.0015380489051776565,2.6564586490120687,0.7191293711908737
-0.8627586757583761,-1.6359772410246383,-2.8560162833607636,-0.47834613109254365,0.0015461791695223432,2.658860958970607,0.7192502759500917
-0.8616117191613417,-1.6283079173379567,-2.855005277198336,-0.4726641805601925,0.0016389671809972225,2.6608725322461457,0.7194540080008125
-0.8606151060253611,-1.620104447429335,-2.8539357459023154,-0.46763843711301756,0.0018378177324383039,2.662608857437109,0.7197611448469495
-0.8597470193211406,-1.611463975968486,-2.852784677161978,-0.4631458979104151,0.002178811836764583,2.6641662791875556,0.720206169212559
-0.858996919246954,-1.6020418714327247,-2.8519800406568283,-0.4594811586525681,0.0019375408864953782,2.665035413686703,0.7200982138343306
-0.8583660737244468,-1.5922741054782745,-2.851173755754954,-0.45636742021889715,0.0017215482680911149,2.665688433636174,0.7200132482950942
-0.9751073104458607,-1.6415643660051937,-2.883813637097775,-0.4659224779119949,0.005791097014455575,2.6649513624892363,0.7198672413738559
-0.9761904971511349,-1.6361471129398812,-2.883530467687695,-0.46286952112337004,0.005666000695573116,2.66556593163557,0.7197755946304895
-0.976002886876896,-1.6284273197842558,-2.8829786696560333,-0.45951507122112556,0.005546860226122373,2.666298572318469,0.7197607350252967
-0.9755552364610082,-1.6202529199429814,-2.8823255119570415,-0.45658123579792514,0.005433708859774806,2.66688634077698,0.7197653186391202
-0.9751157342247105,-1.611727989593398,-2.8816598860116622,-0.45402809105511927,0.005311037801949887,2.667328500275948,0.7197638122820156
-0.974724687982191,-1.602908391838717,-2.8810097973096958,-0.45181328690443934,0.005158968076041957,2.667631344859904,0.7197347962467278
-0.9743818840735778,-1.593836871670887,-2.880382349944285,-0.4498979333860619,0.0049712088117644234,2.6678106833588835,0.7196715195980007
-0.97408360156607,-1.5845440338660166,-2.879775944552045,-0.4482454044200465,0.004751815302909514,2.667887833087009,0.7195774527971092
-0.9738267234976851,-1.575053921567586,-2.879186086034751,-0.4468221944768289,0.004508587154435208,2.6678844942709095,0.7194597794167169
-0.9736082058037632,-1.5653873524425477,-2.8786080569752444,-0.44559829359509795,0.004249288801015464,2.667820054700665,0.7193257249557062
0.883538471609911,-1.7144229843717371,-2.458455649288423,-0.48803103929652325,0.012007539288877881,2.6648632355034483,0.7195563257470318
0.886767238456429,-1.7075088685701414,-2.456396271709059,-0.4829879681300046,0.01194027154310176,2.6662212338757376,0.7197876461890175
0.8894382898752694,-1.6995355602261852,-2.454389664779848,-0.47749836403162615,0.011683181433964409,2.66748624724425,0.7198578449151026
0.8917533574835325,-1.6912767414899772,-2.4524247773362386,-0.47276531238789016,0.011440702576660175,2.668426020492446,0.7199426279287124
0.8936565976020476,-1.682351273587848,-2.4505694992468334,-0.46893964364445234,0.010996644423709965,2.668901362421608,0.7198356764435041
0.8952208207317311,-1.6728900941532776,-2.448796339097809,-0.4657793130899313,0.010411768616848612,2.6690849255468625,0.71959049754646
0.8965365127220781,-1.663081486906408,-2.4470784219420003,-0.46311201122214957,0.009751645084278459,2.6690935833857306,0.7192681447776597
0.8976592194763078,-1.6529986581387812,-2.4454012212624714,-0.4608345497795178,0.009037998173816616,2.6689823993936037,0.7188896005193922
0.8986214900480146,-1.6426802297950438,-2.4437583706615773,-0.45888082899418214,0.00827738157025586,2.6687818731854254,0.7184612657830596
0.8994450930888107,-1.6321519525401587,-2.442147653751854,-0.4572046325698483,0.007469941422336423,2.668511165565567,0.7179832147937184
0.6356280556947463,-1.525401048822869,-2.5664417227145537,-0.8992069157273259,0.0229893766206055,2.5047562441482767,0.7100057399230881
0.6210069117161442,-1.492716674753407,-2.5609644223491976,-0.9347905661898763,0.022057803223667308,2.4845859917854707,0.7088604150454426
0.607722004226712,-1.4620390564923045,-2.555363080233857,-0.9666604947856318,0.021223302324369732,2.4660237502262006,0.7078137574279846
0.5959727417853131,-1.4326458485697755,-2.550519739861102,-0.9955447030781993,0.019919407529188544,2.4488421385154884,0.7065482638438442
0.585103986426612,-1.4045596984774378,-2.545569467917302,-1.0219593733470889,0.019032318849680777,2.432955236679912,0.7056785606761674
0.5750720286115669,-1.3775058118967078,-2.5406936132947027,-1.0462042696787741,0.017995840917288397,2.417920868921488,0.7046360025442814
0.5654939610346551,-1.3515349449708118,-2.535428273832254,-1.0686031063505501,0.017582898554156717,2.4039714031337818,0.7041602314771301
0.5563533035675498,-1.3264483122295885,-2.529930945491854,-1.0894000521910536,0.017206416022803876,2.390953494971795,0.7036997998925805
0.5480050469559081,-1.301968450922569,-2.524839539477921,-1.1085295141446767,0.01649208646980266,2.3783863724314065,0.7029278357497464
0.5401564466272856,-1.2781187116105674,-2.5198082057849462,-1.1262583860676865,0.015749352536876673,2.366422906253879,0.7021235119209981
0.3051835895841916,-1.1810426904577869,-2.6324465926697767,-1.5099869581787346,0.003757792671219917,2.155209675593692,0.6969447336399202
0.29827758072426236,-1.1557721098596376,-2.6257648036579333,-1.5273734541559942,0.003908296541560913,2.1425184770225987,0.6966047654582629
0.29163795239404616,-1.1306872037863422,-2.6191329771653673,-1.5439466670365125,0.004062295754448083,2.130108069303099,0.6962432456361793
0.285073079565711,-1.105859592773688,-2.612364020207206,-1.559760473182768,0.004309102495839928,2.1180404772557404,0.6959563331582761
0.27878985607540957,-1.0811480336144965,-2.6057142992576168,-1.574848132347049,0.004698094023600646,2.1063112448588854,0.6957835396003814
0.2725766466391806,-1.0566950094751755,-2.5989167532997444,-1.589143408597798,0.004800541417706852,2.094784274252627,0.6953015438350267
0.2665603250554897,-1.0324295950045512,-2.5921463530112185,-1.602648028417046,0.0048233258070553035,2.0834209955174976,0.6947510045693259
0.2605878522872661,-1.0083355605555229,-2.585284143726993,-1.6155068459421669,0.005020550833745633,2.072386723554099,0.6943220761976513
0.25475849505554055,-0.984410787938993,-2.578433846761574,-1.6276526502423385,0.005209009939405927,2.0616191049853927,0.6938704988346519
0.24905079511070016,-0.9606463872418196,-2.5715848419085194,-1.639113982178057,0.005446155987895964,2.0511266077438592,0.6934511072911296
0.06802601474855775,-1.0054792993242523,-2.720318114609801,-1.8147392798167465,-0.013539223321465189,1.9713512721947937,0.6918260930334788
0.06303157385679013,-0.9782795569346108,-2.7135779774992637,-1.8305868878371272,-0.013327000740704182,1.9578053301350695,0.6911575096845484
0.058149521951466505,-0.9511116491362477,-2.706796103272597,-1.8457992705286494,-0.013062749076005053,1.9444353919263273,0.6905104436834486
0.053379510141138994,-0.9239695932908946,-2.699980752849031,-1.8603755835404334,-0.012744190803750924,1.9312402243767344,0.6898889680137262
0.0488128165746645,-0.8967954891989357,-2.6932577200563643,-1.8743512186811853,-0.012164570219375868,1.9182852949751406,0.6894929450417259
0.044273293328900516,-0.8696779856661324,-2.6864296363479165,-1.8876691472748965,-0.011668767660620898,1.9054455553461176,0.6890080087071012
0.039862294509960844,-0.842580455856197,-2.679626449391432,-1.9003485337614276,-0.011088602046321824,1.8927604895112895,0.688558980836644
0.03548313392853463,-0.8155224110253224,-2.672746792412168,-1.9123972886129417,-0.010588251525733432,1.880239670728316,0.6880152429740016
0.031205445815360618,-0.7884946399972526,-2.665885241646205,-1.9237906292134501,-0.010107503516387253,1.8678422690043122,0.6874406692029758
0.027043043306658954,-0.7614813542478602,-2.6590705892894384,-1.934548134848885,-0.009596337803075224,1.855601511941513,0.6868792100700971
-0.1392725610088265,-0.905584013314723,-2.8601715087125914,-1.9629384603784978,-0.02976839638810411,1.8730892685925185,0.6910877043156722
-0.14226900709848628,-0.8766901328545937,-2.8551700277184744,-1.9789130108567334,-0.029351810349355953,1.8585536242675065,0.6906028714879106
-0.14518084227031774,-0.8477849462629817,-2.8501409146286405,-1.9942892807436345,-0.028907453900047984,1.84413767611312,0.690124292917806
-0.14799876746978968,-0.8188639976732758,-2.84509716576459,-2.0090676473119666,-0.02843230237524729,1.8298472222122093,0.6896551705054823
-0.1507187969164228,-0.7899257194080536,-2.8400523313316377,-2.0232464289263383,-0.027924994594402737,1.8156841849656908,0.6891989627312953
-0.15345866810059078,-0.7610168108743787,-2.8348915278679367,-2.036781519540275,-0.02753561933944659,1.8015512112692573,0.6886335544108987
-0.15608241251796548,-0.7320996684669501,-2.829764911921592,-2.049705043025054,-0.02711032653687829,1.7875392142836761,0.6880852683493659
-0.1585489892679534,-0.7031677142615163,-2.824728965605189,-2.062016135277573,-0.026605623347414755,1.7736702740143382,0.6875714325890827
-0.1609225856955225,-0.6742258612507915,-2.819736547392396,-2.0737218713799677,-0.026056077358040663,1.7599577979025438,0.6870693951730279
-0.16317200996659167,-0.6453259040650094,-2.8148201006244764,-2.0847454427386523,-0.02549417659966143,1.7462536922083989,0.6865765785541652
-0.484543734558838,-0.8996689507273202,-2.89,-1.955770114212671,-0.10130216073914834,1.8551839620188175,0.6778548820256219
-0.48688691671043804,-0.8707788841781771,-2.8856411908605786,-1.971765816288011,-0.10063540639875433,1.8406431319146013,0.6773745102418758
-0.4892869435971926,-0.8419436038832783,-2.8811276161112276,-1.987122571209456,-0.10009592479247649,1.8261396241040007,0.6767828344667384
-0.49156629285418474,-0.813110083768325,-2.8766502161787204,-2.0018915476171486,-0.0994667598650064,1.8118009405712163,0.6762363768446129
-0.4939051262845188,-0.7843145749672972,-2.8720234522248345,-2.016049932339513,-0.09896121689285774,1.7975513233398441,0.6755799666380166
-0.4961642765531133,-0.7555265857328473,-2.8674084717332335,-2.0296064503713622,-0.09843038370492385,1.7834350830309993,0.6749406313814711
-0.4983371427672365,-0.7267496800832093,-2.862815501584708,-2.042557681387677,-0.0978760058870407,1.769454077185423,0.6743185102518936
-0.5001880768853526,-0.6979498110678736,-2.8585096887221773,-2.054890763039281,-0.09703345474329365,1.7556208247301215,0.6739664825126467
-0.5019247540438722,-0.6691666465198457,-2.85428618152352,-2.0666166434971625,-0.09612519509286745,1.7419331632472879,0.6736660488136961
-0.5036032795547837,-0.6404412025094589,-2.850076041125752,-2.0777017842385237,-0.09532300613296531,1.7283527935972496,0.6732947295864439
-0.7978616542795078,-0.9563686493942012,-2.89,-1.7934584589410372,-0.16911632506491636,1.9197382267035858,0.6640462185964582
-0.800176823645863,-0.9287991451002181,-2.886232419063399,-1.8093021606995772,-0.16833882844638806,1.9060912284783031,0.6636575468015967
-0.8025291198812947,-0.9013725257930053,-2.8823380498662514,-1.8244930130085417,-0.16770714678607748,1.8925867519878488,0.663149789414545
-0.8047932464847496,-0.8740676729739224,-2.87847400397433,-1.8390582308338932,-0.16700002383365434,1.879287004447774,0.6626867467682874
-0.8069800865309579,-0.8468679560051985,-2.8746290911663728,-1.8530093498275289,-0.16627425941319585,1.8662045091661768,0.6622395935285427
-0.8092507302847318,-0.8198246685285457,-2.870629696308387,-1.8663242022719984,-0.16572837192121137,1.8532798612799275,0.661644062010132
-0.8114458064652182,-0.792888391899699,-2.8666648056570545,-1.8790294800198881,-0.1651652807445969,1.840566717411774,0.6610683993557134
-0.8135577743605354,-0.7660639347842032,-2.8627465541974955,-1.8911243617819327,-0.16458370813401818,1.8280705808059676,0.6605160824284412
-0.8155808381158537,-0.739354085538026,-2.858889537625379,-1.9026094472529627,-0.16398276512607896,1.8157950275007084,0.6599909139175795
-0.8174567432476469,-0.712730607912872,-2.8551852175401518,-1.9135188209390843,-0.1632262574351365,1.8038242584746174,0.6596249794507139
-1.0073932437948776,-1.1023073994037254,-2.89,-1.4777317401173908,-0.17752334987247315,2.0829928514842786,0.670335818863179
-1.010303366817575,-1.075813354195227,-2.886746521625478,-1.4947649144586277,-0.17699396224405337,2.069519505908008,0.6700315172748117
-1.0131077598087674,-1.0496557404358566,-2.8834849189436937,-1.5109774878492674,-0.17674381710979328,2.056292538732728,0.6694728993758895
-1.015820297806935,-1.023810731005117,-2.8802385122941954,-1.5264262624181748,-0.17654001340830364,2.0433912584269573,0.6688653479402776
-1.0184487161249425,-0.998261521167395,-2.877006963323927,-1.5411431173489916,-0.176297384612747,2.0308470504009515,0.6682952664519697
-1.0209988879046112,-0.9729985000429968,-2.8737954733689968,-1.5551478622412855,-0.17602219963128948,2.0186495262973474,0.6677591624960036
-1.023468693360988,-0.948012072393304,-2.8706162226802423,-1.5684583507293628,-0.17566029330288488,2.006805617777521,0.6673083781103154
-1.0258495883761374,-0.9232775519778954,-2.8675012616777145,-1.5811186715351762,-0.17516219220522905,1.995344196995198,0.666999192709168
-1.0281523773967407,-0.898809460303846,-2.8644343168328112,-1.5931128573169842,-0.1746211916750861,1.9842279914471226,0.6667595448415473
-1.0304192980336704,-0.8746153420048982,-2.861369296200479,-1.604430307288822,-0.17401549957751983,1.9734518007795807,0.6665681180349238
-1.1283166242539655,-1.4685877942885315,-2.8210874278483367,-0.8707927709633386,-0.16550099607820976,2.4434893032369005,0.6706252696160744
-1.1356251963525814,-1.4326483178336713,-2.8182654130110154,-0.9048427992108645,-0.1667401315274627,2.4202741842279587,0.6692816447649603
-1.1418972420793696,-1.398905507157488,-2.815928541008484,-0.9352422372404662,-0.16823332205910776,2.3988224703058267,0.6676523230952229
-1.147595350087595,-1.3669372236943582,-2.8135829344491783,-0.9628415532680205,-0.1693126793064011,2.3791252486133296,0.6664114669961864
-1.1528715446888755,-1.336487782946441,-2.8111200686770097,-0.9880628570967314,-0.1702548977222587,2.3608755129371737,0.6652757026516626
-1.157837203683385,-1.3072877216232193,-2.808537781018541,-1.0113223639451936,-0.17078136509914055,2.3439624850699246,0.6645208350873342
-1.1625679460539005,-1.2792384391992988,-2.8057892290714492,-1.032767093978447,-0.171093231221407,2.328137897038457,0.6639102893420663
-1.167232070831476,-1.252228149578154,-2.8026824401385713,-1.0526098282489158,-0.1713341483453671,2.313268734041458,0.6633247830801996
-1.1713568451771919,-1.2260621429813,-2.7999784537399317,-1.0708382191342876,-0.171823673491776,2.298976409846964,0.6625191286153457
-1.1754188310914586,-1.2007103864880933,-2.797042339543281,-1.0878055958577069,-0.17196825000202787,2.2855787560751195,0.6619691118506409
-1.1600367222330312,-1.6476329381887502,-2.829413660585106,-0.5107563658536333,-0.1180283060086547,2.638489176300127,0.6604336565129095
-1.1576736986956115,-1.6451845773708573,-2.8285219253577587,-0.49989839629560345,-0.11732472469857759,2.643902439618802,0.6604599304460488
-1.1557391281449565,-1.6405964841125704,-2.827808737007581,-0.4908491383242451,-0.11711643264817372,2.647957363865099,0.660091503712354
-1.1540360221611317,-1.6348617872358093,-2.826925730163644,-0.48324070597302576,-0.11669748778830819,2.6513364472532115,0.6599591414174037
-1.1525353794674473,-1.6284187886370223,-2.825948114015442,-0.47662158042817754,-0.11610134286760605,2.654296362526148,0.6599863149724355
-1.1512081552474231,-1.6212921547842116,-2.824990545929015,-0.4709337913858643,-0.11551656317990565,2.6567668555577497,0.6599804887501609
-1.1500761641112154,-1.6133654428768998,-2.824117787832357,-0.4661308225063603,-0.11508758692608205,2.65866742069461,0.6598332615278616
-1.1491183654996955,-1.6047738742323268,-2.8233147656158186,-0.4620553222615422,-0.11478963034069706,2.6601084048036814,0.659576451189743
-1.148299201768851,-1.5956696818053309,-2.82256404647318,-0.4585849715432382,-0.11458402310879001,2.6611983226351947,0.659240799437563
-1.1475933216977525,-1.5861315572495405,-2.821867280292224,-0.4556315775974957,-0.11446864914425874,2.662000737325052,0.6588209681489429
1.0471714101391576,-1.7591901267845742,-2.374990744696677,-0.4893293858624031,-0.05617510789467905,2.666193183911493,0.6494498324786192
1.0508138427385039,-1.7509771418010889,-2.37274026512263,-0.4836935426429793,-0.05634678788580962,2.667255251830887,0.6492353315723711
1.0536700161399397,-1.7417913523741977,-2.370444597246746,-0.4785530248393543,-0.056487028360937594,2.668235842356809,0.649098037578294
1.056127294675674,-1.7323243751933417,-2.3682325867124394,-0.4742445360257483,-0.05666981591655719,2.6688676964228035,0.6489186123730586
1.0581998363024518,-1.7223965026707873,-2.3661355473317043,-0.4706590523398361,-0.05703669144597105,2.669117069212599,0.6485656148236871
1.0600891799057142,-1.7121806359100258,-2.363917647714013,-0.46733533189788123,-0.057134454651604945,2.6694159811344127,0.6484259512241152
1.0617172183521772,-1.7016176139520183,-2.361776048350254,-0.46449941336758366,-0.05738197136762155,2.669516158852398,0.6481458400125787
1.0630986394413586,-1.6907145580807188,-2.3597382724804503,-0.46212069679008433,-0.057858074914260885,2.6693867426658877,0.6476335707345284
1.0643726244005938,-1.6797462551072018,-2.3575239615970096,-0.45989457566143016,-0.05793606190090315,2.6694482052155513,0.6474992012895128
1.065407432471384,-1.6684475544750776,-2.355350639938869,-0.4580944162416362,-0.05825709230160772,2.6692708528802225,0.6470910628035393
0.5986604313577539,-1.3522092961004568,-2.459102543329978,-1.351195311040569,-0.03407926468746663,2.2694974065454576,0.6286947128414113
0.5890048067998749,-1.3285961314397516,-2.451327372233896,-1.3708152197378174,-0.03409994128565183,2.2568118846473317,0.6282688113206438
0.5797186042832891,-1.3053163713334885,-2.443491292567845,-1.3893633956418079,-0.03433573517899387,2.2444251788714316,0.6276035636166991
0.5706452164195286,-1.282324807295573,-2.435521447633565,-1.4070817338431294,-0.034224995525018766,2.2326236640306205,0.6272071405272489
0.5615063861181354,-1.2598855282722192,-2.427053742642197,-1.4239254013778855,-0.034060844474782165,2.221327252434577,0.6268377281673874
0.5528175041021689,-1.2375709858525088,-2.4187441671626195,-1.4398272598335224,-0.033938661029961514,2.2102355944223704,0.6264312892878268
0.5442931981911237,-1.2155421808172995,-2.4102991941905416,-1.4548975070720584,-0.03370944079511457,2.1995143906788037,0.6260751327953867
0.5360525078916399,-1.1936948638793583,-2.401869564959158,-1.4691637972900735,-0.03335269302255374,2.1891767827311086,0.6258272130244013
0.5277970107525406,-1.1722218877982271,-2.393122254160219,-1.4826476527883807,-0.03304335800325764,2.179184079168251,0.6254980060783604
0.5197579666057343,-1.1509594065322852,-2.3843424845573873,-1.4953001250161255,-0.032799213677097955,2.1693745560480804,0.6250794104872183
0.3337667150079766,-1.110257405989923,-2.525810799135094,-1.826947644623104,-0.0472855763263438,1.998115317784259,0.6194062125082676
0.3257564628087863,-1.0848310149039682,-2.5153128504465356,-1.8430059442784008,-0.04661208477427364,1.9850062355893994,0.6187654443876224
0.3179178954787533,-1.0592946764404356,-2.504749808869398,-1.8584417765721684,-0.04562914987499432,1.9721223996310435,0.6183492256642807
0.31001425293499,-1.0338133320115046,-2.4938966079363087,-1.8732072285419825,-0.04454527860802649,1.9593465748693024,0.6179859383865977
0.3021337700116628,-1.0083018859408956,-2.482840421518895,-1.8873122790367085,-0.04344997950011912,1.9466743374635829,0.6175636245413617
0.29440237327088603,-0.9826867621735617,-2.4716987128946877,-1.9007263629133881,-0.04227553865189856,1.9340404724263285,0.617150775599925
0.28658202092341206,-0.9570694380426475,-2.4602954879485477,-1.913512365897064,-0.0410237199834292,1.9215861297967407,0.6167849676903676
0.27879964465602525,-0.931387953652974,-2.4487099364925946,-1.9256084359763999,-0.03998453183190768,1.9091664598591558,0.6161548769264309
0.27123561883856323,-0.9055032860530309,-2.437189896487532,-1.93702700113237,-0.03864574195038863,1.8968201026869844,0.6157926624544884
0.2636102769144669,-0.8796097957003799,-2.425436774413856,-1.9477220483803055,-0.0374544481918377,1.8844374430225757,0.6152127815833561
0.1228218672515253,-0.9564716204189229,-2.6479356674351293,-2.1351257845741434,-0.07062458695791216,1.8105121542396159,0.6104213423412915
0.11664843147486739,-0.9268532756954168,-2.636545346646784,-2.1516616270257374,-0.06931350526089802,1.7940468503457332,0.609397178197168
0.11056949315716381,-0.8969555442471723,-2.624909800661829,-2.167572655315772,-0.0678876837728993,1.7774789193462444,0.6083768213089183
0.10459493324000219,-0.8667653156788168,-2.6130461963730824,-2.182840067598659,-0.06634767877915984,1.7607919093140372,0.6073588025240086
0.09873370651918488,-0.8362668000192276,-2.600974925941538,-2.197446908917947,-0.06469504061123632,1.7439663252153164,0.6063413560901195
0.09321838244367493,-0.8052929479780992,-2.588968051861193,-2.2114408591845005,-0.06251233815287652,1.727145239078288,0.6057488508598077
0.08785075739553815,-0.7739778798612763,-2.5768241804733827,-2.2247349100141918,-0.060230944206825066,1.7101465329598302,0.6051536028511745
0.08264533988364615,-0.7423105095005572,-2.56458034124489,-2.2373101327821736,-0.057855255359993175,1.6929515507525341,0.6045557001349868
0.07761918914948279,-0.710283921409557,-2.55227922611336,-2.249145192212817,-0.055390569956614275,1.6755423668832425,0.6039562384828866
0.07251704458390888,-0.6780764025492614,-2.5396704380608304,-2.2601445962885354,-0.05321860276385084,1.6577232501156007,0.6029339229758006
-0.10110787614861393,-0.8758402347194838,-2.846632525967302,-2.3014131325863927,-0.1230989253771683,1.6947171634608884,0.6011235974562241
-0.10430702601712456,-0.8434299872980019,-2.8382918617357147,-2.319539760043351,-0.12139580855294928,1.6755241159890724,0.6002724140295959
-0.10780583104067115,-0.8108632458380882,-2.829325620970211,-2.3369857728467753,-0.12022019900464177,1.6558455538398007,0.5989758835612672
-0.11080087838768822,-0.777834303669978,-2.820437883167295,-2.3538887242454343,-0.11869667065906034,1.6359672534518397,0.5978204698900974
-0.11346610039763774,-0.744426818769058,-2.811506952705622,-2.3701634414105275,-0.11702677101985239,1.6158220801891143,0.5966266016779325
-0.1156788025575366,-0.7105666549106597,-2.8027124018157177,-2.3858349424658427,-0.11492939958915863,1.595467000708016,0.5956649447700343
-0.11756199511897335,-0.6763571534455669,-2.7939045584485793,-2.4008045712783495,-0.11276725168523984,1.574713707528987,0.5946109263555357
-0.11938175642196483,-0.6419020579876415,-2.7848585690682297,-2.415025664994087,-0.11085154835070621,1.5534887016132695,0.59316222088955
-0.12097053058980117,-0.6070977599469033,-2.775784717251086,-2.4285420145050436,-0.10883868958994232,1.5319136676477463,0.5917037727686962
-0.12222767482252925,-0.5717773868492984,-2.7669187420828876,-2.4414715157338325,-0.10634872780608688,1.5103489029377906,0.5906381521473577
-0.595749390041222,-0.864716007276053,-2.89,-2.2930625686237978,-0.3368455543868241,1.6446092283713722,0.5840842354263251
-0.5975356912025911,-0.8325078195819705,-2.882880618588647,-2.3114550038406816,-0.33437684811349033,1.6255292069247658,0.5831897219930571
-0.5985928241670908,-0.7998319533254177,-2.876162133184756,-2.329367190353746,-0.3313428311998841,1.6065670247194672,0.5826066706550599
-0.5996874924815682,-0.7669567707583208,-2.8691425355204685,-2.346640718655764,-0.3285059708357975,1.5871601100646557,0.5817711255099588
-0.6000018160243972,-0.7335953017601795,-2.8625998319351145,-2.3634189406577435,-0.32520245283183924,1.5678720321058595,0.5812198926714738
-0.6001574164565826,-0.6999424669900939,-2.856017805441338,-2.3795821603456373,-0.3218419870117877,1.5483398014656053,0.5806645854939646
-0.6003762467382708,-0.6660973705909482,-2.849123967540888,-2.3950775879437862,-0.3188648667368126,1.528364670161851,0.579572611936171
-0.6003361689240775,-0.6319367880138302,-2.842368067536784,-2.4099381474713253,-0.3156460649622879,1.5082628650531376,0.5787335887156915
-0.6001859513259807,-0.5975580011492972,-2.8355535694358447,-2.424088118157445,-0.31250952281554356,1.4877774147463974,0.5777030540120364
-0.5998184318462713,-0.5629156223153665,-2.82887002426208,-2.4375481813606954,-0.3092593052316435,1.4671001985183392,0.5768031141638694
-0.9866965567190702,-0.8705412655086391,-2.89,-2.107590200272525,-0.5327366543340514,1.6702556065669711,0.5584894897956341
-0.9874725424638804,-0.8403921579981225,-2.885101422204177,-2.124757185074142,-0.5294341821476276,1.6542606889429463,0.5580975897359127
-0.9881491464680833,-0.8101355729453769,-2.88020227124085,-2.141366872481886,-0.5261164999720935,1.6383399276806214,0.5577101869840533
-0.9888443759389826,-0.7798222447659422,-2.8752010697529555,-2.1573734446191173,-0.5228758431864687,1.6223714857384446,0.5572823035552368
-0.9896986574803116,-0.7495049507875401,-2.869952026082932,-2.1727421789484644,-0.519864383910639,1.6062413799700337,0.556717718894477
-0.9901655008544608,-0.7190590938861531,-2.8650206754391574,-2.1875053663049178,-0.5166089123725697,1.590247909292228,0.5562942233051968
-0.9906005043542143,-0.6885495831848066,-2.8600384676410657,-2.2016670625834407,-0.5135257414370571,1.5742348027286053,0.5557808400091221
-0.990842821111274,-0.6579530278364376,-2.8551979217568864,-2.215223462182616,-0.5104670151485337,1.5583102099360155,0.5552805197808693
-0.9908869050717783,-0.6272945345465744,-2.850510339646731,-2.228136841090419,-0.5074401784509004,1.5423992847615495,0.5547595246720934
-0.99070805467583,-0.5965877821401724,-2.8460213878169203,-2.2403961680916127,-0.5044384286464636,1.5265176349923373,0.5542296030030652
-1.2157666537402738,-0.9684437978456281,-2.89,-1.7692290623527507,-0.5987061498294941,1.7971959733912704,0.5616342444820375
-1.2169683653019288,-0.9412089732890097,-2.8864700816919977,-1.7854474505391995,-0.5961450892166842,1.783369463730258,0.5612250477121141
-1.2180896775733887,-0.9141080610799702,-2.88298155096387,-1.8010268268815364,-0.593618270029033,1.7697509553379178,0.5608069768827559
-1.2191483657792388,-0.8871403493641561,-2.879528418902438,-1.815974576534959,-0.5911074893112981,1.7563588539369992,0.5604071848885647
-1.2199794325519426,-0.8602698883699323,-2.8763021928591277,-1.8302976079435336,-0.5884232764874728,1.7432409517203582,0.5602121509670478
-1.2209292983347169,-0.8335911573865004,-2.87290372329041,-1.8439557968555835,-0.5860410993139257,1.7301842198496764,0.5597736828398233
-1.2218227550240142,-0.8070520699730797,-2.869551529190873,-1.8569896889085047,-0.5836899802356723,1.7173481055110802,0.5593557326762879
-1.2227327262677132,-0.7806666947504153,-2.8661658705492585,-1.8694042198230858,-0.5814852027923822,1.7047271794491008,0.5588388948911202
-1.223599819579137,-0.7544196864969526,-2.8628330592719116,-1.8812044402170134,-0.5793190252971762,1.6923252729029206,0.5583407254737713
-1.2242328950804153,-0.7282763984702407,-2.8597876852794863,-1.892388165465109,-0.576944271053844,1.6802413428192797,0.5581436068338691
-1.3907876231693268,-1.2183726118311626,-2.814514362687258,-1.271540808859782,-0.6159642452625164,2.060505501563921,0.5847373874667042
-1.3938018538846038,-1.191635107790475,-2.810958429719908,-1.2906459348323802,-0.6141059422736818,2.0455302032690605,0.5842703828649165
-1.3966312170158315,-1.165382875692785,-2.807464161621138,-1.3087373285452462,-0.6125197411028281,2.0309935225525346,0.583560773344585
-1.3994804587326448,-1.1395937402564684,-2.8038537234238636,-1.3259240417582467,-0.6108221599930826,2.017001190209419,0.5830493135313274
-1.4022055220423364,-1.1142226424168915,-2.800305678509607,-1.3422197657484003,-0.6090827707304222,2.0035055106957014,0.582610962361888
-1.4047632140472168,-1.0892716031928409,-2.796839443505438,-1.3576156620839028,-0.6075201669544442,1.990393118080768,0.5820047523373811
-1.407236777017959,-1.0647002844375828,-2.7933974947636906,-1.3721906664153276,-0.6059536409684279,1.9777260390173466,0.5814402345086097
-1.4096282662319748,-1.0405012457146992,-2.789986726344259,-1.3859653530964582,-0.6043900361114887,1.9654918110387134,0.5809152835440256
-1.4120158430065082,-1.0166448357771216,-2.7865728096538738,-1.3990223747647763,-0.6025896360558703,1.9538451328636164,0.5806206972350856
-1.4143446307967664,-0.9931420725956441,-2.7831793992980973,-1.4113210426909488,-0.600817980392107,1.9426037353792598,0.5803438127727375
-1.3490792670206855,-1.6773917916862318,-2.8405334048085473,-0.49989259221794735,-0.3874504493486741,2.6135726174173497,0.5794971963315396
-1.3468670005944932,-1.6743477368198543,-2.8398774423286515,-0.48830473170613853,-0.3858077446721744,2.620134219594109,0.5790707824514829
-1.344922713067933,-1.6691214155020946,-2.8390215595071067,-0.47914412237846543,-0.3841836639171579,2.6251699666349317,0.578790281615428
-1.3433330666247525,-1.6626133028006547,-2.838111477084836,-0.4716573521535853,-0.38257928994343365,2.62917655842983,0.5785911928581138
-1.3419529384911328,-1.655076338263712,-2.8373265143156607,-0.4652762670792978,-0.3814352661903078,2.6323410625061414,0.5781480696325035
-1.340768812497679,-1.6470491664662514,-2.8363092087627426,-0.4598190238254989,-0.37972520062622095,2.6352559086495027,0.5781178815645363
-1.3397280785602579,-1.6383180252538845,-2.835350208459783,-0.45509843812557177,-0.37817702152272925,2.637675894751561,0.5779689506335497
-1.3388021160981172,-1.6290160411948043,-2.8344468509138254,-0.4509993239142303,-0.3767698122865088,2.6396948834920155,0.5776861125296939
-1.338045163687859,-1.6193161035984047,-2.833341176192617,-0.4474952184376679,-0.3749731391740709,2.64146914524242,0.5777807610268916
-1.3374096608657804,-1.608997023081963,-2.832316943913309,-0.44467970497388803,-0.37343511285029235,2.6428052782489533,0.5777228122667449
1.271849307744714,-1.76,-2.4694858680094773,-0.4897849027889374,-0.23573949613744105,2.6607567983872524,0.5693447527498026
1.2752913819584075,-1.7518946814870335,-2.4673021927557364,-0.48302672795308615,-0.23478604726932095,2.662321099162266,0.5692231116480909
1.2782246811424989,-1.7430059333712962,-2.4650620877996103,-0.47724051898854253,-0.23383812525885073,2.6634260294946475,0.5690565829826381
1.280723318634337,-1.733525421058154,-2.4628351289642154,-0.4722364433540695,-0.2327536028157812,2.6642796780719773,0.5690532732463647
1.2824697678788521,-1.7233723630509141,-2.4606590774337365,-0.46900511827985203,-0.23434100749537218,2.666222519848215,0.5689917409748866
1.2844762352658299,-1.713507578585225,-2.458535027834805,-0.4651479731296952,-0.2360411196536519,2.6685919496549224,0.5688890333531432
1.2867959085243783,-1.7039468041074077,-2.4564719747072785,-0.46049289244989855,-0.2377625087019564,2.6713954162205265,0.5687558413235324
1.289816990111035,-1.6951865052173571,-2.4543607495376634,-0.45427529032297026,-0.23955572214345647,2.6755367079650116,0.5687973463668765
1.29366635846053,-1.6873876078223204,-2.4523072387870815,-0.44625291846675647,-0.24137495323246544,2.680967664099605,0.5688651832810504
1.3616885489480837,-1.76,-2.586303676617434,-0.39355198869448826,-0.27802460428177644,3.2066154744171906,0.5683465050927259
0.9765709599877516,-1.3335082662908337,-2.68738880592137,-1.6854794237430624,-0.36176595131809125,3.704039128454636,0.5400511681738225
0.9693070378211414,-1.3107098332310767,-2.6818248935462567,-1.7080836181317802,-0.36806745941913444,3.718813680360825,0.53958166639099
0.9622535711092319,-1.2882501070524606,-2.676172026629256,-1.729612663425959,-0.37419899991172795,3.733330181976792,0.5391929484372624
0.9553321850455585,-1.266215873598017,-2.6703117671085392,-1.7500624030425111,-0.3800873829083969,3.747742831997697,0.5389683187975024
0.9468783273387781,-1.240421824559423,-2.6640549651515237,-1.7729421695866683,-0.38669730957114806,3.75,0.538495119394059
0.9383199027971165,-1.2142660445114213,-2.657721864321513,-1.7952050717546355,-0.3936947258577806,3.75,0.5377145322338248
0.9297474187359328,-1.1885865873195092,-2.6509794408122924,-1.8163583181970164,-0.4002947052753234,3.75,0.537214180729943
0.9214989217454219,-1.1631516013253487,-2.644256453653487,-1.8364404704869435,-0.406427089885938,3.75,0.5368891050333542
0.9134978518943565,-1.1379866841421675,-2.637611735775136,-1.8554274731329243,-0.4127235035280649,3.75,0.5362522776883408
0.9056307539609206,-1.1131332862901904,-2.63085454151034,-1.8733819633757771,-0.4188539689240082,3.75,0.5356215339844539
0.7550773995564394,-1.1039454349810518,-2.738951965224303,-2.3123861879398713,-0.467177808281814,3.75,0.5300112105866089
0.7458190972318969,-1.074758322754623,-2.730329307327229,-2.3351494167774343,-0.47481615103819985,3.75,0.5291076410978872
0.7367539708057269,-1.0453759463758774,-2.721555028374139,-2.357168782029686,-0.48220337364624355,3.75,0.5283254619407447
0.7276160816622493,-1.0158966942296956,-2.7124632953123617,-2.378429907026952,-0.48957877799586424,3.75,0.5276970050333913
0.7184960487943878,-0.986273724934969,-2.703188787546339,-2.3989081364979725,-0.4971152369744841,3.75,0.5268311036100307
0.7094463257853437,-0.956449294749835,-2.693707892360924,-2.4186362702711266,-0.5045170616707617,3.75,0.526027285354076
0.7003384069249281,-0.9264380190549278,-2.683987811203575,-2.4375933805086754,-0.5121151332691775,3.75,0.5251547614789808
0.6911786337395798,-0.8962406755702981,-2.673993819623191,-2.455800259694469,-0.5196259328912018,3.75,0.5243144125014153
0.6823184316921029,-0.8656323300608432,-2.663996907092101,-2.4732694442683973,-0.5269272327788698,3.75,0.5237111684019429
0.6732553816474424,-0.8348468020405684,-2.6536723994477502,-2.489981993376855,-0.5343650269723503,3.75,0.5230444723505047
0.5691054097837934,-0.9882165024156395,-2.8705806431437657,-2.7412229484419512,-0.5051252406831332,3.704634890700773,0.5224989399618281
0.5602139552491447,-0.9571312917169538,-2.8623723635752807,-2.766597476850666,-0.5128036307541323,3.7167473423104402,0.5218017203540473
0.5515067700812767,-0.9254831081017927,-2.854016269865839,-2.7913849196412612,-0.5209491155209467,3.728911591405986,0.5209731755616028
0.5430717177865182,-0.8935843225800755,-2.8455116985024658,-2.8156012196416245,-0.5292026519680513,3.742232034311218,0.5203528592474186
0.5336382098510546,-0.859126177373642,-2.8360371133596325,-2.8393730835453415,-0.5386734656425546,3.74991816245883,0.5192060746893608
0.523482436419643,-0.8208562978526879,-2.825446265180787,-2.862833572208795,-0.5489936145132336,3.7499924516426355,0.5179826177172202
0.5127779457277335,-0.7817510306761438,-2.8143467888423097,-2.8855638028288526,-0.5606463208293019,3.7499469736762103,0.516137674477506
0.502455711981416,-0.7413569042785068,-2.802936348238507,-2.9076523624918726,-0.5724596661847915,3.7499897614440254,0.5148066545704391
0.4920092720558423,-0.6997504836370433,-2.7910953672144445,-2.929033386046902,-0.5851182446397758,3.7499897567095037,0.5134207692149134
0.482195626438784,-0.656423402225957,-2.778850995214278,-2.9498805270161603,-0.5971799011404235,3.75,0.512659335747702
0.051611973674562384,-0.9921728570768346,-2.89,-3.020647939880747,0.00473084877368897,3.543917301288067,0.5232621462126268
0.04566649819412099,-0.9545948588327494,-2.87973391156316,-3.0528026878252983,0.00035762280249490195,3.557677118228616,0.5228564683034441
0.05227442360757261,-0.8129362452023623,-2.848020395046481,-3.07,0.032654749710911056,3.295137587384293,0.5498701866891115
0.042020042424111066,-0.6932821937034381,-2.8157293871080067,-3.07,0.046106485855033914,3.032456832850111,0.5537518968539658
0.031324172342564495,-0.6072665023466339,-2.7879540466451784,-3.07,0.04372787504420786,2.851039958354295,0.550616547316931
0.02301982415394323,-0.5339419616714411,-2.7598399461427525,-3.07,0.03473324378419855,2.703150638006333,0.5451770771580913
0.017695750229294597,-0.46709952697540125,-2.7294589754567276,-3.07,0.023618439647676143,2.5749514462541243,0.5390699808959657
0.015566045820496465,-0.40381584023409206,-2.6961640836544927,-3.07,0.013184564492489259,2.4600718017060634,0.532984869889945
0.016633799389373618,-0.3423987147172213,-2.6599924391262033,-3.0699891929384484,0.0052585900329441375,2.3549493789744647,0.5252470682814325
0.021813336345110464,-0.28160531130859695,-2.622250023863675,-3.07,0.001477697803011071,2.2574706415131156,0.5175238659746098
-1.2427515073895397,-0.8590624238025536,-2.89,-2.702847030977893,-0.5060945212581168,2.033867752127774,0.5045251095163759
-1.2441780774624718,-0.817249899167948,-2.8753242822839065,-2.7280695830065835,-0.5026388033918878,2.014558960435005,0.5028509681732468
-1.2451658622590371,-0.7742076845216106,-2.8593742417967514,-2.7528299471721205,-0.49872363410600107,1.9942082332168605,0.5010706816376518
-1.245531038563971,-0.7298483408452916,-2.842105830442676,-2.7770836284800304,-0.49415458628240866,1.9727509051970376,0.4993126280380877
-1.245385689733657,-0.6842140730987512,-2.8232055884658585,-2.800700743797155,-0.4892261066641186,1.949760358573624,0.497013287451186
-1.2439700235432984,-0.637165463540107,-2.8030590729325957,-2.8235806322936496,-0.4829657363791983,1.9252679433360937,0.4952356205074941
-1.2418274487290117,-0.5888155433219379,-2.7810504760526196,-2.8456510090559224,-0.4763292357475801,1.8988782697064295,0.49269874149715237
-1.2381247599189424,-0.539162254751698,-2.757731830160472,-2.8666873479710264,-0.46821859022855944,1.8704025665932529,0.49038514907943725
-1.2329320895210338,-0.4883776268663699,-2.733002493684507,-2.886543995438807,-0.45893811820765873,1.8395447474316355,0.4878810370406498
-1.226332132919007,-0.4368273415027246,-2.7068972347219904,-2.9049316041079183,-0.44843231736408884,1.8057695482967515,0.4848972406206674
-1.5135138725276918,-0.7577323703268053,-2.89,-2.4511239655000807,-0.6043027738639806,1.994292316485625,0.4743677480984315
-1.5141799530020525,-0.7206864735399802,-2.8816118147190273,-2.4718688327848195,-0.6018248238665863,1.9790944527827652,0.4735674639162744
-1.5137514354864028,-0.6830600362572561,-2.8736466367810922,-2.4920562770387185,-0.598899213901732,1.9637504222918545,0.4729101037989058
-1.513106367397109,-0.6449668773832294,-2.8654596705274136,-2.511643298006015,-0.5960924159890354,1.9480533993353741,0.4719078241583317
-1.5121099228169044,-0.6063856229428677,-2.8571832740421548,-2.5306265741467833,-0.5931537792090203,1.9320559863438005,0.47097236415050625
-1.5111551888616654,-0.5674275334979807,-2.8484743273523425,-2.5489264626992973,-0.5903668490814524,1.9154936063680108,0.4698366957903928
-1.5095400299072972,-0.5280055972019764,-2.839925296574391,-2.566534298222259,-0.5874398886654157,1.898538790757808,0.46865940215296276
-1.507507927063752,-0.48816749978671703,-2.831382484860509,-2.583425238789458,-0.5844502639263013,1.881121723995266,0.4674023083852394
-1.5051221670658215,-0.44796757323304365,-2.822857034175126,-2.599558506406391,-0.5812900945344991,1.8632667791940325,0.46623999730486665
-1.5024229628407157,-0.40740834977487295,-2.814299369930263,-2.614957586573699,-0.5783186949851644,1.8449902074200235,0.46474286359979067
-1.6130443776951857,-0.8366074403143703,-2.89,-2.079987366593781,-0.6683278945199788,2.0865569620036957,0.45509129716703284
-1.6141129462805703,-0.8056212438040398,-2.88535544046421,-2.098175641091943,-0.6665796630213496,2.0756081045368355,0.45466725020423254
-1.6153824581709777,-0.7746867243294568,-2.880425989056165,-2.115737176141862,-0.6651148347842748,2.0646261622868356,0.45396518717457446
-1.6164644724063209,-0.74372139617388,-2.8755959597196172,-2.132682236313684,-0.6635304260204898,2.053785779830075,0.45336668996630647
-1.6173854955181322,-0.7127606181002404,-2.8708280826299735,-2.148967153272797,-0.6618848361685077,2.042943683412465,0.4528161488736589
-1.6182047561122013,-0.6818034182088208,-2.866087367649616,-2.164614466449952,-0.6602233786842948,2.03216233290752,0.45227929514653786
-1.6189167481502826,-0.6508603778315681,-2.8613919540086665,-2.1796192061159783,-0.6585452296126435,2.0214420469687258,0.4517609101949984
-1.6193807444544743,-0.6198991583363436,-2.856902343709505,-2.1940000504174013,-0.6567169049607866,2.0109055077386895,0.4513977263567174
-1.6198689012050587,-0.589015456522642,-2.8523527987365473,-2.2077169112053734,-0.6550078429438467,2.0003362974167076,0.45093404773072765
-1.6202481064947012,-0.5581794433895205,-2.8478874378634402,-2.2207720700854154,-0.6533016920628169,1.9898420817515465,0.4504833345659569
-1.6639092652172518,-1.071460688805223,-2.8686675045442134,-1.574199904248814,-0.7084782777509371,2.2663401069464304,0.4434701751823393
-1.6665256625104519,-1.0436530246667501,-2.864933993661664,-1.5937029775182794,-0.7080054155751602,2.2567231123235696,0.44274700925698474
-1.669059343121236,-1.0161713352257506,-2.861209302864886,-1.6123614127369341,-0.7074717382343979,2.247366028449961,0.44207221533426855
-1.6715363996110018,-0.9890147999777138,-2.8574706905545337,-1.630192252610909,-0.7069076516760625,2.238244552484443,0.44142918430049277
-1.6739178139308508,-0.9621522417772157,-2.8537792227465575,-1.6472269798417563,-0.7062891880023163,2.229374847125245,0.4408297606528438
-1.6762239447804859,-0.9355880641137455,-2.85011028077094,-1.6634792097793945,-0.7056424785249787,2.2207368553169147,0.44025912207191414
-1.6784570149409377,-0.9093107463046846,-2.846474770665599,-1.6789718792753467,-0.7049175999784085,2.212352702423292,0.43976908887238886
-1.6806732585414672,-0.8833052156941644,-2.842844811224557,-1.693758888666336,-0.7040590037567654,2.2042927572970537,0.4394301208028151
-1.6827943813021569,-0.85758812291529,-2.8392755351146253,-1.7077905403560296,-0.7032692895749929,2.1964542899962676,0.4390167358678926
-1.684858150101978,-0.8321433615460656,-2.8357445273122543,-1.7211135795034163,-0.7024775082307176,2.1888393941166693,0.43861626648020996
-1.5611333437358812,-1.690606736314624,-2.849078406718956,-0.5096250777720485,-0.40510910049189275,2.63412647798245,0.43381361635401106
-1.558653632082639,-1.6868623256210349,-2.848164324010271,-0.49721334459026706,-0.4032042237887682,2.6381844156949437,0.4335702861356237
-1.5565129304071263,-1.681567523371528,-2.8471068591804807,-0.4869000332334314,-0.4010221817608257,2.641422706219667,0.43357884254135537
-1.5547483591753424,-1.6750783291538205,-2.845982536551946,-0.47822252128914916,-0.39879232367668194,2.6439552234216266,0.4336251134167907
-1.554451298013807,-1.6641435942005205,-2.8445807322581946,-0.47649307219823295,-0.40071886152127356,2.6447171274623584,0.4341189967620432
-1.5539999051467637,-1.6535144023604456,-2.843408999773084,-0.4740994913187514,-0.40279172055239404,2.6456352065248114,0.4342117284546769
-1.5533664927816127,-1.6432659372154272,-2.8423812309988885,-0.4708936522223386,-0.4049373041345999,2.6467253761305134,0.43404569853684966
-1.5526527785683752,-1.6334331176236994,-2.8412759348687304,-0.46700241128109043,-0.4069900150765389,2.648365843700789,0.43406754936054515
-1.5517734824766871,-1.6240620879029137,-2.840222491131665,-0.4622525584380019,-0.408911263882367,2.650303126927309,0.4340256105363216
-1.550831967769284,-1.615134499401647,-2.839135431933042,-0.4566194019290055,-0.41105517347297826,2.6529415953184627,0.43410848529375073
1.4879979978404283,-1.76,-2.44973238735323,-0.4961845748412163,-0.17980255852132931,2.6625869603575465,0.4200696909614891
1.4918519662017282,-1.7522451247334239,-2.447494923286077,-0.4887104728703403,-0.17915096268967318,2.664389127516421,0.419937718790195
1.4951224978387434,-1.7436181120826164,-2.4451834429311377,-0.4823382681493309,-0.17850902986314787,2.6656748597505033,0.41976583762455005
1.4978913350504448,-1.7343452465817728,-2.442899659476364,-0.47685442262236793,-0.17773364869547367,2.6666569736504697,0.4197620946121134
1.4993300802632135,-1.7237834322536563,-2.4406664241159532,-0.47435628951125997,-0.1790879673667426,2.6681894882140686,0.4196550458269741
1.5010429878072458,-1.7133965676185312,-2.4384575791460144,-0.4714021890183497,-0.18052421865130158,2.6701198702239908,0.41954890419555607
1.503003465924113,-1.70326952241329,-2.436305927724115,-0.46773487782032314,-0.18196382748089035,2.672419122351079,0.4194238064370013
1.5052719544932613,-1.6933931516563456,-2.4342220249857696,-0.46342798421372394,-0.18340960905873227,2.6749502742307087,0.41921309728449485
1.50797876557626,-1.6839252145266697,-2.432127460469004,-0.45805974600871163,-0.1851972062326079,2.678396816319185,0.41889845237203194
1.5114160329877966,-1.6752911760172546,-2.430047881911666,-0.45112091022293743,-0.18682089670640006,2.6830371393128005,0.418794046316645
1.0816692262764662,-1.2648318317764373,-2.4651761387701216,-1.5361427444726492,-0.16004025970268754,2.2110608075117706,0.39479644440169215
1.0727690178722302,-1.2410299724841107,-2.456257469292463,-1.5541707558717137,-0.15929264027641893,2.199633324648871,0.3946867319266288
1.064034577354253,-1.217442433511819,-2.447158315542425,-1.571382285895248,-0.15895645900467553,2.1885018023740925,0.39418941158332743
1.0552735693513662,-1.1941839076981489,-2.4377436242606123,-1.5878038482766474,-0.15833323339201957,2.177632418110861,0.39390363077751017
1.0468210760059455,-1.170968932274754,-2.4283728008262178,-1.6034361780903739,-0.15773080418387814,2.1669615850938926,0.39357097166622373
1.0383658297325729,-1.1480210970036262,-2.4187224507314586,-1.618320356863715,-0.15726380295239703,2.156590145941556,0.3930855136166192
1.0299472841476562,-1.1252708219918088,-2.4088838214783146,-1.6324826824388254,-0.1566254516173416,2.146480775426453,0.39272363180780956
1.0217648221823286,-1.1025882902419406,-2.39904971051308,-1.6458652322215575,-0.15612618301983452,2.136499535486589,0.39221667302326724
1.013686283402304,-1.080024588965464,-2.3891213526648087,-1.6585474727669631,-0.15554555905589013,2.126791243630105,0.39176375805772645
1.0056125526726,-1.0576208851394118,-2.3790204976702456,-1.6705722484549277,-0.15485531912200667,2.1173885142304836,0.39138085035068615
0.9377628332160602,-1.0936046015742944,-2.4688441550034095,-2.00827342174297,-0.15865324075887882,1.971862033545743,0.38598685779582453
0.9283590205315674,-1.0676398474555133,-2.4549411007965527,-2.0247942808948305,-0.1570245485094053,1.9585003679132897,0.38534951281845203
0.9190140638494575,-1.0414852371384296,-2.440703646237001,-2.040654606112014,-0.15543968131830782,1.9451217555354452,0.38460657580526003
0.9097307044414141,-1.015120373468586,-2.4261812152018165,-2.0558466377593145,-0.15358796267578667,1.9317371715703746,0.38403173170785954
0.9003073223409715,-0.9886856547596863,-2.411166112803265,-2.070301422022411,-0.15198100137250678,1.9181528004468629,0.38310669713319606
0.8908554263969233,-0.9620523827117746,-2.3958038638023518,-2.084078920945353,-0.1502622777222636,1.9045245465109957,0.3821836938073967
0.8814356114161374,-0.9351446213802032,-2.3801500781628597,-2.097161931461857,-0.14843768830985743,1.8908202045507754,0.3812555857647474
0.871977749752446,-0.9079368887269952,-2.36423307618212,-2.1095945182252573,-0.14615302525315946,1.8772036030793393,0.38067523274484616
0.8625100998764383,-0.8804440892883424,-2.3480060397775984,-2.121277770033573,-0.14390948126027497,1.863412137209456,0.3799866167311627
0.8532320891604578,-0.852495489371232,-2.3316843957165814,-2.132191445705984,-0.14137356201490586,1.8494620459246693,0.37950672582632405
0.8767936393097187,-1.0616382808389242,-2.5263870436654394,-2.355353607067283,-0.17590836249966976,1.8181522557685226,0.3741004883715378
0.8664307602330907,-1.0329795381862186,-2.507262849547746,-2.374018628470915,-0.17195314097373196,1.8003277855346806,0.37334620843677335
0.856018842584378,-1.0039088696862062,-2.4872664854766033,-2.3919704124802994,-0.16776332426718485,1.7819475839165366,0.37247554085102824
0.8453973157156232,-0.9745375253323086,-2.4662453701657077,-2.4091205466669074,-0.16354439351649525,1.7628459233319373,0.3712456570362203
0.8346044376680236,-0.9447467915808709,-2.444277778957457,-2.425498441857278,-0.15895137207663274,1.7431123838897518,0.3699741346564449
0.8237183120210081,-0.9144137548393034,-2.4214499463364536,-2.441086764099112,-0.15366915573794704,1.7227719213435324,0.3689476022191454
0.8125923122819617,-0.8837125103326126,-2.3975563299468625,-2.455725274628074,-0.14821495216625089,1.7015013312300766,0.3676086480615747
0.801104835916857,-0.8523169805252823,-2.3726178564546077,-2.4697061540212517,-0.14226106526029544,1.6800398866597572,0.36648223084308623
0.7894262830822312,-0.8207180974654529,-2.3466575533852576,-2.4824129436289986,-0.1360403160949758,1.6569502685829436,0.36494195834612037
0.777601229634387,-0.7886103505535252,-2.319834531199014,-2.493997177379597,-0.1292004034516659,1.6326881815619698,0.3634731461212647
0.908085289773484,-1.2113381437510677,-2.7038303251336884,-2.5858791815488296,-0.24827304120759536,1.7722464686898984,0.36881676637196126
0.8972598483790398,-1.1848976498127695,-2.6855391626109624,-2.6090117942481674,-0.24288669185466777,1.7516329477174568,0.36763923248495595
0.8862775277764479,-1.158152719814572,-2.666053001353041,-2.631646099922793,-0.23644845872205056,1.7303292618431112,0.3667864011935382
0.8745622325583153,-1.131423730996414,-2.64503762339889,-2.653690117609883,-0.22959039416695962,1.7079728935840848,0.3655926091505405
0.8623096057415311,-1.1046471746427486,-2.6225486799885314,-2.6751016029626413,-0.22184307421251537,1.6845943811133701,0.3643600071710614
0.849554266876234,-1.0778904260931157,-2.598594090066091,-2.6957528362245164,-0.21282872048217857,1.659934059931534,0.36319032433871246
0.8361730628968396,-1.0512743611953073,-2.5730774668558953,-2.7155894321591427,-0.20265691024177565,1.6338971144593264,0.36199636378696937
0.8221680374984619,-1.024895184294191,-2.545998240491294,-2.7345278913799946,-0.19118725896086583,1.6063692489337926,0.36081541646158566
0.8073064048692912,-0.9986960181562292,-2.5170692445003238,-2.752706850440853,-0.17879733210627427,1.5776133958865954,0.359482318573899
0.7915472186311349,-0.9731800752380777,-2.4864822197567715,-2.769789065532986,-0.16518605206921017,1.5469662895046965,0.35790052548015844
1.156786640798823,-1.6076370463315073,-2.89,-2.607568972431253,-0.47690282620167845,1.7784439677858785,0.3681227182618107
1.1510462567791966,-1.5911709582536815,-2.880781259065314,-2.6332104954734596,-0.472680574556217,1.762781102427579,0.3674987587948517
1.1448713654345504,-1.5748753238709048,-2.871137078752106,-2.658720884601654,-0.4679132530858501,1.747222232720972,0.36696434858389987
1.138111024214703,-1.5589030421698329,-2.861012749796481,-2.684002648140189,-0.46267002266488994,1.7314600323893847,0.3664307070162103
1.1307824460432467,-1.543161225334528,-2.8505213543481296,-2.7091228887040755,-0.45652972306487677,1.715783972808095,0.36613108313992804
1.122962441970217,-1.5277692251549773,-2.8394273999669553,-2.734015180529605,-0.449939508327718,1.699879338606183,0.36583629823694414
1.1146008840613864,-1.5127833307224463,-2.8277063049461884,-2.758667050185073,-0.4428460658116259,1.683722275890957,0.36554595003905827
1.105625049448933,-1.4983044127403504,-2.8153386617405043,-2.7830329189365037,-0.43520176377758246,1.6672058673853574,0.3652198136896773
1.095637679066379,-1.4845794135945862,-2.8023943058128338,-2.8070430329325746,-0.4271799815258957,1.6501276968446181,0.3646257531731132
1.0847736422729786,-1.4716215111668676,-2.7888538661889495,-2.8307083037972602,-0.41855985544778834,1.6325620493208957,0.36390867044204905
2.2911675631993145,-1.76,-2.498252365327899,-2.536971941567124,-0.7100013848564912,2.2527405318841245,0.4041368251383634
2.2785876642447653,-1.7500318131455952,-2.484573223396609,-2.5612870030316057,-0.7086801649855837,2.2471552994968462,0.4036134443295199
2.265114026923434,-1.7412117451583355,-2.470558284604477,-2.5851699070442544,-0.7072969308403579,2.241552201382427,0.40306587500741453
2.2514363230565086,-1.7330770141236758,-2.455961298489749,-2.608669632190752,-0.7058139326196464,2.2361351693068183,0.4025300777986829
2.237524221292994,-1.725691797300135,-2.440787106836607,-2.6317948450274447,-0.7042991437086928,2.2309443231319714,0.4019485233376145
2.2232846673901743,-1.7191720845602931,-2.425120781126812,-2.654545068899584,-0.7026561738950423,2.226081222573225,0.4014000058343187
2.2088244407388236,-1.7134906015393006,-2.4088834382566318,-2.676908906907555,-0.700931703992473,2.221498103880616,0.40084499272794094
2.1942282542699183,-1.708640230663963,-2.392094548074844,-2.698889298093414,-0.6989956275293276,2.217360042162808,0.4004152309314082
2.179415260716915,-1.7047494714086342,-2.3747797550725798,-2.720472560711667,-0.6969059291950084,2.2135955459790333,0.4000530783367256
2.1643220298633405,-1.7019721433662722,-2.357004152165491,-2.7416291132377952,-0.6947120199528285,2.210194055585924,0.3996989047006579
2.8899999999999486,-1.76,-2.223206278199427,-2.287765959777365,-0.5283294496075831,2.6075801451774017,0.39765679858665776
2.89,-1.76,-2.208221095500573,-2.297416944454619,-0.5263258344685217,2.6115022029527997,0.39743092058389884
2.89,-1.7599999999999998,-2.1923374203650243,-2.3074834799506174,-0.5238569179159825,2.615189010648491,0.39732895607316254
2.89,-1.76,-2.1760315712270124,-2.317479054442237,-0.5211767174381347,2.618412760878185,0.397302727027131
2.89,-1.76,-2.159347150343342,-2.3272642278039988,-0.519282152349254,2.620824557571924,0.39677506845115523
2.89,-1.76,-2.1421697426792674,-2.337084649696767,-0.5168174245855569,2.623414875876125,0.3966873353119113
2.8847916353195084,-1.758575571480722,-2.1254068669734307,-2.3501132803943814,-0.5178800644757819,2.622711281407965,0.3966110179052314
2.8745095145487647,-1.7541263713179576,-2.1091781969582573,-2.367338887668447,-0.519152392934044,2.6207366343199054,0.3964612990992499
2.8644083598615366,-1.7504696368832984,-2.092567872719904,-2.384001051408009,-0.5204458500800601,2.6190945418014984,0.39627876959912123
2.854656057277001,-1.7473896564442446,-2.0755387512847623,-2.4000729494057818,-0.521653092466578,2.6177251129635937,0.3961632170575504
2.89,-1.76,-2.0904045988011015,-2.2464505308569005,-0.48695228778254346,2.639637759402923,0.3953931419029316
2.89,-1.76,-2.081396163433363,-2.2478343076069867,-0.4856343601761114,2.6401551729167143,0.3952544621970908
2.89,-1.76,-2.0677480447675065,-2.253030610832564,-0.48260979088001627,2.6404719807954775,0.3951912301825883
2.89,-1.76,-2.0536310583490094,-2.258918152541283,-0.47963362046995295,2.640639983401348,0.39504082930644097
2.89,-1.76,-2.039375426868939,-2.264916091170304,-0.4766920104174555,2.6408019505505806,0.39486575619794356
2.89,-1.76,-2.0249461211428876,-2.270909782784003,-0.47377737962250605,2.6409868960573757,0.39467198867554654
2.89,-1.76,-2.010334933416896,-2.2768666588652566,-0.47088721091084756,2.641198235899791,0.3944614857342277
2.89,-1.76,-1.995541485929634,-2.2827735671582063,-0.46802024851551466,2.641433817678719,0.39423534805084637
2.89,-1.76,-1.9805676856169006,-2.2886219996696804,-0.4651755141739743,2.6416906340342736,0.3939945433506671
2.89,-1.76,-1.9654162277668057,-2.294404577753325,-0.46235204290489174,2.6419658829763164,0.3937400235942802
2.89,-1.76,-2.000758760633687,-2.213929716128465,-0.44204447264608776,2.649793597872159,0.39360284764405923
2.89,-1.76,-2.000758737436689,-2.2139297696586575,-0.44204453936954874,2.649793531454739,0.39360277028792884
2.89,-1.76,-1.9868107778705815,-2.215267656451643,-0.4399893861879131,2.649785919412475,0.3932799001851566
2.89,-1.76,-1.9746827678112056,-2.218371900152641,-0.4382472632174804,2.6493873314375653,0.3930130206871816
2.89,-1.76,-1.9625842690470214,-2.2221538245764525,-0.436495421899233,2.64891201265496,0.39275977597551043
2.89,-1.76,-1.9504548118997846,-2.226153915539235,-0.43474513926772673,2.648469040697488,0.3925096162483169
2.89,-1.76,-1.9382552058228237,-2.2302139514886568,-0.43299774816473235,2.64809026111376,0.3922591345912031
2.89,-1.76,-1.9259693985804671,-2.2342772447196255,-0.43125271505137147,2.6477809961018006,0.3920071771452459
2.89,-1.76,-1.913592546189441,-2.2383213362171075,-0.42950945801685914,2.647537984916498,0.39175333380217087
2.89,-1.76,-1.901124168425977,-2.2423354961312096,-0.4277675316167303,2.647355514848039,0.3914974494830192
1.6748244304148,-1.76,-2.3491428418361364,-0.5091362402128375,-0.17865286911109313,2.6770795946967096,0.35798825718460275
1.6787712914345405,-1.753182763160486,-2.3470684150601184,-0.5004822497694559,-0.17803781332925284,2.677165608602498,0.35763529449520365
1.6827189920646672,-1.74495573879688,-2.3446816009117866,-0.4930266178306822,-0.1773517433114504,2.6770739264672954,0.3574002422189367
1.6860231404601247,-1.735939599513708,-2.3422674491560675,-0.48682254480017917,-0.17684214383329977,2.677044242104928,0.35721098298052234
1.6888642116661008,-1.7265723057700533,-2.339989580819998,-0.48166024625942244,-0.17648948192341377,2.6766560716955055,0.35688338243003165
1.6914786649083846,-1.7169123039551144,-2.3376017591715073,-0.47685389612135237,-0.17572790552618123,2.6762107577421315,0.35679017182741674
1.6937019758919098,-1.7067718528310802,-2.33530736150469,-0.47278499701702004,-0.17518983038268757,2.6756142286482216,0.3565284498547243
1.6956098468095988,-1.6962267549735555,-2.3331162448464378,-0.4693094948787856,-0.17488352356489797,2.6748464198211184,0.3560458268592926
1.6973203398254215,-1.6855359623492951,-2.3307613081671787,-0.4661800612238947,-0.17419986047397928,2.6742943021932897,0.3559260307218725
1.6987696321484413,-1.674505748729189,-2.3284475108918143,-0.463518620067554,-0.1737088155964334,2.6735458604514855,0.3555671815752522
1.479687167424819,-1.3116294558329302,-2.535879645336254,-1.325928380392317,-0.16059305439439306,2.212902794676303,0.37014308561806764
1.4714578608467213,-1.286896990770798,-2.5289815675844984,-1.3452021282774531,-0.16037733174626462,2.1994624310927358,0.36959181516411754
1.4633819886129404,-1.2626084414617242,-2.521865363001246,-1.3635092610552069,-0.16017267702467583,2.186509294514219,0.36901111256540897
1.455494621585437,-1.238688850309262,-2.5146239235154737,-1.3808898735338355,-0.1599128719436346,2.174013089119881,0.3684590794566031
1.447808001870035,-1.2151039158462311,-2.507294581273618,-1.397370717147029,-0.15958868585358968,2.1619231356071777,0.36794774234034816
1.4404281148262266,-1.1917490726414788,-2.500049907428163,-1.4129855715154411,-0.15903180550256982,2.150218661460854,0.36765112143778117
1.433175453913425,-1.1687072159719376,-2.4926813248971516,-1.4277961743952234,-0.15842490769813133,2.138962297954835,0.3673644383115258
1.4261217801219712,-1.1459089722282088,-2.4852961854112423,-1.4418035674774905,-0.15780131569228606,2.1280649579562954,0.36707410524298695
1.4192057828277305,-1.1234154918313128,-2.47780709140555,-1.454957903406112,-0.15734838742512788,2.117377674325141,0.3666011743159705
1.4124360029740348,-1.1011693152484114,-2.470276311942415,-1.4673536812890207,-0.15684107915942422,2.1070421617774437,0.36616430938873423
1.3958518432414853,-1.1341078542537837,-2.4947446238677085,-1.8072874236533685,-0.1550364963614804,1.9507198707210953,0.36150259217473274
1.3878480729385354,-1.109096051188467,-2.4839017533064562,-1.823342233552508,-0.15358417167002725,1.937595765899662,0.3610793998481939
1.379693574444224,-1.0842220737189265,-2.4726482695197203,-1.8387265670560362,-0.15225702894915083,1.9245836601551802,0.3605002589242912
1.371551097127208,-1.0593307443072153,-2.4612059591130313,-1.8534805799291023,-0.15064506696268565,1.911771272199773,0.36011996768923127
1.363630607194046,-1.0343094248053868,-2.4497099732172436,-1.8675296830472203,-0.14899390214390382,1.8989713307016378,0.3597039140318
1.3556112624834176,-1.009314749943569,-2.4379237664301185,-1.880953752387625,-0.1472700514890952,1.8863728972649934,0.3593369086680105
1.3476246393391424,-0.9842709221691354,-2.42592625857238,-1.8937022408921604,-0.14576261056035597,1.873838092860934,0.3587067916592052
1.3398033687484328,-0.9590675360674338,-2.413907916101087,-1.9057555595955733,-0.1440809682741966,1.8613108021759377,0.3582385023466904
1.3319535574772794,-0.9338759606526774,-2.401661614197196,-1.9170961993218867,-0.14245932405889267,1.8488565038652705,0.357622021889246
1.3240497458512959,-0.9085869891050798,-2.3892450277197765,-1.9278257420024612,-0.14070533179600328,1.8365647754860486,0.3570585335744226
1.4153701944884256,-1.112603412258593,-2.4613085223078324,-2.1334683030780752,-0.1527394103914836,1.8022168757421486,0.3526846235160922
1.4055373924341816,-1.0868778367375236,-2.4450720878028407,-2.1503012793163525,-0.14994034386265387,1.7864842577598488,0.35197278630659595
1.3956550641917749,-1.0608912330257596,-2.428330147225482,-2.166533992199889,-0.1467889466625395,1.7707339664060024,0.3513995224089374
1.3854777612287876,-1.034811275829616,-2.4109072576645447,-2.1821215525057154,-0.1435707135331223,1.754841366652183,0.35061707377308654
1.3752065011158043,-1.0084986613565718,-2.3929300272449687,-2.197006691417502,-0.14015871786395612,1.738748129212314,0.3498292189207114
1.3647353308102048,-0.9820398170912796,-2.3742960287767962,-2.211134054255134,-0.13673407940950433,1.7223209395987866,0.3488999706306792
1.3539661037036201,-0.9554518646404451,-2.354973208388869,-2.2245167072412544,-0.13322730745582345,1.705616094501306,0.3478239154269742
1.3431298715278892,-0.9285808232238639,-2.3350793318837626,-2.237072904328202,-0.12978156124909254,1.6884711209172556,0.34647740620035766
1.332261168818844,-0.9012685420953969,-2.3147671817384468,-2.2488755484596203,-0.1256773910940894,1.671096101837596,0.34552064219738676
1.3210017740901359,-0.8738488587495732,-2.29375322064989,-2.2598194706598957,-0.12149733701041278,1.6533032591004218,0.3443874296760824
1.5631310410456154,-1.235868626971957,-2.447107157231421,-2.337065217375011,-0.1632762465858919,1.7754453379956392,0.34429265687038596
1.5500276694559851,-1.2138615736281415,-2.426739196905041,-2.356261729629149,-0.15919484576892654,1.7589639671721469,0.3433792426816011
1.536586905462561,-1.1919152986683283,-2.405384166952897,-2.3748596146947936,-0.15476971224422365,1.7422133578108148,0.342444624054409
1.522772787112159,-1.1700518208248203,-2.383005326727463,-2.3928249907393,-0.14996962584859655,1.7251451874139907,0.34148845589828164
1.5085487215071838,-1.1483039709918674,-2.359567523089031,-2.4101206473933297,-0.14476064994780896,1.7077068333667869,0.34051107424272603
1.493882165384383,-1.1267107554522249,-2.3350420816330066,-2.4267041764575996,-0.13910329498142246,1.6898386065705253,0.3395164471692886
1.4787913420699024,-1.1052956192832926,-2.309430840187644,-2.4425126248191114,-0.13290910598652686,1.671430800657145,0.3385440018232764
1.4632139903041526,-1.0841361388292023,-2.2826979507529606,-2.4575014900279357,-0.12619774515560087,1.6524422932575638,0.33754339543993844
1.447230642804063,-1.063203155318099,-2.254893956249035,-2.471615950889685,-0.1188419981080352,1.6328076032043033,0.33660602278234153
1.43050299888059,-1.0429355688513708,-2.2257820718629775,-2.484787747930628,-0.11140773957427003,1.6123570215171381,0.3351581736858565
1.8467563263547986,-1.4995639665760132,-2.405263479774912,-2.3673427638086926,-0.18325747197930328,1.8465102194694765,0.34048238126077957
1.8326156781414844,-1.4863786340055443,-2.386763021639797,-2.3877769362902255,-0.17991037132633003,1.8328802295345632,0.33957483502945757
1.818173631300731,-1.4737486462163578,-2.367462807803923,-2.407747395493988,-0.17628895877925194,1.819278366898932,0.33865047353765176
1.8034284205910873,-1.4617138237499125,-2.347357334207507,-2.427251186678222,-0.17233415923361714,1.8057480518234204,0.3377435008618225
1.7883920852860038,-1.4503388085172668,-2.3264355385772184,-2.446261035820432,-0.16805615530213738,1.79224179362418,0.3368333272278102
1.773091986755974,-1.439665246346854,-2.304683625328028,-2.464740133395817,-0.1634391512358879,1.7787061053279054,0.3359225682598546
1.757495246456161,-1.4297712703663294,-2.2821034930789637,-2.482686733946917,-0.15847270097479638,1.7651925667304023,0.33500778649057983
1.7416093090539302,-1.4207339959478036,-2.2587018652960404,-2.5000721872266154,-0.15313443146587938,1.751702631466471,0.3340811813782427
1.7254476119108388,-1.4126258340825426,-2.234491213013068,-2.51688081706401,-0.14740712581110504,1.7382381418096375,0.33314214342717624
1.7090347634435303,-1.4055239539387032,-2.209492461073309,-2.533090924977607,-0.1412747946945251,1.724808546589137,0.33219089950865344
2.2492575300282036,-1.76,-2.2787599744615705,-2.235768600926025,-0.19028573870483612,2.046234136302303,0.32151206027788504
2.23786900312732,-1.7523464586134014,-2.263844721516104,-2.2553841041611578,-0.18834502875469064,2.036997352463708,0.32120710304085803
2.226388223425285,-1.7455120132929123,-2.2484284467754674,-2.274496210734606,-0.18631290970182643,2.0279373350035153,0.32088752012006166
2.214898398087895,-1.7395058439552826,-2.2324707156648578,-2.293064064254885,-0.18451111504689802,2.018975003894159,0.3202570223630468
2.2035321047480756,-1.7340299343971743,-2.21605026934891,-2.3112438067660444,-0.1822510491649478,2.0105316072324624,0.3199447206824367
2.1923037641191137,-1.7292387109255976,-2.1991138751853683,-2.3289143309968092,-0.17989008479902802,2.002357260387299,0.319613093572618
2.1813376013723014,-1.7250473971497151,-2.181627421638316,-2.346038180077486,-0.17751128040323816,1.994331081217385,0.31920259936071127
2.1704707767214404,-1.7216379644355613,-2.1636673987316075,-2.3626749493066677,-0.17495962026248202,1.986678369466656,0.3188134838453514
2.159771814798487,-1.7189905177514877,-2.145229119845251,-2.378805467590445,-0.17221695589992825,1.9793712606325287,0.31846671938271726
2.1494193521218334,-1.7169346447319231,-2.1262763992114393,-2.3943940455510653,-0.16928378945614514,1.9723683775829648,0.31818081962920924
2.8299046769322533,-1.76,-2.1080933507167914,-1.9623221128353006,-0.21658180778273037,2.331537072467371,0.2935511367294338
2.818663161248909,-1.7511311031070576,-2.0944032803002846,-1.9810619937097935,-0.21626816922820793,2.3245412711487776,0.2932727184429289
2.8078602310162757,-1.7424343980544235,-2.080340354634864,-1.9991390850741513,-0.21595659897627997,2.3176586840851585,0.29294983924800577
2.7974669290596283,-1.7338777404710788,-2.06592663535238,-2.016643346573759,-0.21544487377054597,2.31110589258089,0.2927878045421871
2.78718713186917,-1.7260599769355869,-2.051021954376957,-2.033504951227361,-0.21509863323776063,2.304717483740526,0.29242775029888757
2.7771665257199962,-1.7186388900019867,-2.035731072802078,-2.0498536441653252,-0.21453261526116515,2.298826675002282,0.2922359514083626
2.7675209286509475,-1.7115130869296595,-2.020058699049943,-2.0655405970062595,-0.2139846639399147,2.2930074849923265,0.29200381169743067
2.7581823878290432,-1.7047264464046954,-2.0040159330142373,-2.0806568000409635,-0.2132865616784424,2.2874999662376654,0.29186110098546497
2.749139922584089,-1.698423305552437,-1.9875748492087761,-2.095126702625252,-0.21266410457707063,2.2821526266908516,0.2916299299047854
2.740399333977869,-1.6925180569593774,-1.9707604581395193,-2.1090169131846856,-0.21198426590669164,2.2770742292056076,0.29141862416969794
2.89,-1.76,-2.007256331232412,-1.9911666112736,-0.18801504782514966,2.5869499053394667,0.2909158411798107
2.89,-1.76,-1.9966173069748474,-1.995577773618598,-0.1877023195005874,2.5965558689571244,0.29066831570516427
2.89,-1.76,-1.9833412837564666,-2.00233704892505,-0.18787898463892386,2.6054344317253344,0.28991618670396
2.89,-1.76,-1.9698784617323835,-2.0088472148388274,-0.18793139175494641,2.6129348763923677,0.28927096929105006
2.89,-1.76,-1.9561800622060865,-2.0151073356177527,-0.18787031757905695,2.6193760899732434,0.2887185078815162
2.89,-1.76,-1.942261272837045,-2.021145467030128,-0.18770639921959945,2.624948506705066,0.2882465469064571
2.89,-1.76,-1.9281370596752974,-2.0269876927209114,-0.18745129491404525,2.6297881807134025,0.28784292907081604
2.89,-1.76,-1.9138203392856783,-2.0326540729977713,-0.1871178378771643,2.6339978403539823,0.28749532559297386
2.89,-1.76,-1.8993223775457757,-2.0381598916252055,-0.18671965284534547,2.6376583699040665,0.2871914862547668
2.89,-1.76,-1.8846532142273913,-2.0435171165415884,-0.18627067963058155,2.6408358014382993,0.28691965239594786
2.89,-1.76,-1.9333002540522963,-2.016775648097987,-0.18078218875696725,2.652122455323658,0.2860396071065544
2.89,-1.76,-1.9333002400383725,-2.0167757551208556,-0.18078229413378893,2.652122362359475,0.2860394985633926
2.89,-1.76,-1.920857441171475,-2.019131040638524,-0.18045570606261196,2.653086052908529,0.28583712344061507
2.89,-1.76,-1.9091329620836863,-2.022270970509506,-0.1801526102555115,2.653672505551982,0.2856466504903106
2.89,-1.76,-1.8973892872828557,-2.0257116089858913,-0.179840344620427,2.6541349333646416,0.28546158387383214
2.89,-1.76,-1.885581330989204,-2.0292387148708677,-0.1795224474634466,2.6545356610317437,0.28527908775157956
2.89,-1.76,-1.8736953174350381,-2.03277841176465,-0.17920043883882086,2.6548977298650125,0.2850981966135913
2.89,-1.76,-1.8617277800575942,-2.036305052951863,-0.178874984790052,2.655230733698994,0.2849185424353203
2.89,-1.76,-1.8496793546458847,-2.0398091280558366,-0.1785465128821455,2.655539512677729,0.28473994416045095
2.89,-1.76,-1.8375521886512185,-2.043286424503504,-0.17821536848255196,2.6558271396906012,0.284562288095129
1.844330958365804,-1.76,-2.2207915082294876,-0.5049407395457883,-0.06054145201808801,2.6825476765505325,0.2843133828814681
1.846859957726525,-1.753399050757582,-2.2186494882270402,-0.49833847580184193,-0.06011838204089242,2.6827748700720684,0.28462610748150935
1.8503214858691919,-1.7449997732989977,-2.2163512471640674,-0.49227307862413394,-0.06040318147995915,2.6820269795653138,0.2842674069745407
1.8535238558136924,-1.7361344827107437,-2.2138950105338173,-0.4867593910247878,-0.060446224189253,2.681374168120553,0.2841360841821777
1.8564431856217822,-1.727112418220164,-2.2114007377812586,-0.4817594222203972,-0.060315522565818465,2.6806531894238614,0.2841420336581427
1.8589833681866887,-1.7178285157122375,-2.208959722144334,-0.47745604069709274,-0.06020131181468076,2.6797173984638656,0.28411147743766096
1.8610674903022613,-1.708093594498966,-2.20661299179968,-0.473970568837702,-0.06027128939841289,2.678636064440599,0.2839230608955558
1.8627802631213837,-1.6979749944840847,-2.204339814142569,-0.4711151822936698,-0.060500097235528835,2.67752839592926,0.28360691602571947
1.8642142442205603,-1.6875968955883829,-2.2021210003853713,-0.4687173798684729,-0.06083022026602115,2.6764436636808493,0.28320895922174044
1.8654425758033653,-1.6770161742919232,-2.1999422793071175,-0.4666769999629791,-0.06123423375549254,2.675393282971271,0.2827489371737117
1.7547930635096587,-1.6333293019162407,-2.3011260584601616,-0.8880816912843648,-0.06104716242266962,2.4798200170192146,0.28664783775080876
1.7356096336016404,-1.6060904120197566,-2.2950416888322693,-0.9231356475662164,-0.06232476562834032,2.458688870198696,0.2852911009875291
1.718183434062339,-1.5804084589612986,-2.288562315227722,-0.9548744363671263,-0.06308311347688587,2.439944476220905,0.28446529126698855
1.7026761196921676,-1.5555544502784964,-2.2827026660218253,-0.9835225389455329,-0.06417868359175435,2.422365804557428,0.28334150249024653
1.6883418664032084,-1.5317881176254478,-2.2764944843704003,-1.00973239120253,-0.0650548896068638,2.4061552728712026,0.2823944535908298
1.6750020819683038,-1.508891803389458,-2.2700419089962027,-1.0338778699779152,-0.06581613909002393,2.3910700501564324,0.2815170347890437
1.6625112733331915,-1.4868071840404782,-2.2633177057491456,-1.0561526739288898,-0.06634155739108098,2.376986764222711,0.2808383545495035
1.6506930068560262,-1.4654533306656166,-2.256286339789482,-1.0768150340471878,-0.06668360870433021,2.3637462525102304,0.2802721399732855
1.6395822074168551,-1.4446764678462596,-2.249147184117262,-1.095954040620971,-0.06709513275490181,2.351243119957607,0.27961997618894424
1.6289736169110285,-1.424491472069143,-2.241751011956915,-1.113819982973965,-0.06715824228379987,2.339630472241767,0.27928108516492167
1.5853511527283826,-1.4042001524151766,-2.3097996240920136,-1.5088095895537323,-0.07349022548798897,2.1520311810072497,0.27398385809057035
1.5747804672143206,-1.3840838016336365,-2.299277753967226,-1.526545709801169,-0.07313450365342326,2.140105417559743,0.2734367030479682
1.5644494232808268,-1.364143892850565,-2.2885773668385543,-1.543499543243288,-0.07256172630213156,2.1284888644353743,0.2730330070672458
1.5542239323130178,-1.344520804438493,-2.277568542656755,-1.5596740911564015,-0.07181645337394287,2.1172180856234433,0.2727489452899735
1.544164920533444,-1.325092204851487,-2.2663415119587818,-1.57511149777318,-0.07100209405207397,2.1062608961957365,0.2724874174027963
1.5341330171908611,-1.3059891205910796,-2.2547481594159517,-1.5898446565605027,-0.07029811963802628,2.0956558398934026,0.2720822617089042
1.5243011376904085,-1.2870434368337627,-2.2429901456213988,-1.6037824233138203,-0.06957089496366506,2.085194580938951,0.2716784659635926
1.514535512830921,-1.2683331567389866,-2.2309726373380983,-1.617042919367974,-0.06880965006748975,2.0750476331402408,0.2712496084649815
1.5048764320760506,-1.2498032608602687,-2.218745209105135,-1.6296154713847395,-0.06795215506280687,2.0652185236415455,0.2708729463738708
1.495316888256701,-1.2314428606575731,-2.20632061397156,-1.6415022025151114,-0.06704698048802886,2.055634091038072,0.2705058970545937
1.5960514980532945,-1.3749776338110549,-2.2788881754824133,-1.8287512912573891,-0.07588268860890722,2.001558688276095,0.26673268690091045
1.5845939256427126,-1.3568736319856243,-2.264439945712038,-1.8454124437170265,-0.07464618512271473,1.9898137670568905,0.2661861805185736
1.5732572780850744,-1.338889948875671,-2.2496555475470883,-1.8613748745215113,-0.07325450363032701,1.9781244303804733,0.2656824819728377
1.561800128964586,-1.3212409092114459,-2.2343604449861934,-1.8767221619509902,-0.07194304930380513,1.9666427504554884,0.26502233113495555
1.5504168647082632,-1.3036610772526742,-2.2187361808792776,-1.8914833366917718,-0.07039425373366699,1.955449456448023,0.2645268457137134
1.5392102315310794,-1.2860413587874073,-2.202873373217973,-1.9055887300063576,-0.06856121033476285,1.9443676661031302,0.26417283501096545
1.527929587207868,-1.26871386936007,-2.1865350423862835,-1.919013233883309,-0.06684788830702862,1.933362564993991,0.2636206275215188
1.5166128487544128,-1.251540383228525,-2.169813064399217,-1.931834057834977,-0.06494822802708501,1.9225760890306578,0.2631774297354267
1.5052378408869276,-1.2346073532449082,-2.152660038697028,-1.9439906892096461,-0.0630543589425878,1.9118751107603198,0.2626791896830743
