SnyprDragun/STT-for-manipulators/O1.csv
q1,q2,q3,q4,q5,q6,q7
-0.4437509099093925,0.8368377523374166,-0.25522222078109175,-2.120335244516411,-0.14058661839267328,2.055577088418364,0.803094888414741
-0.44123104674136776,0.8077579180205625,-0.259352167703354,-2.136259195232147,-0.14117052289586626,2.043193955245896,0.8024277142580956
-0.4388023215369557,0.7785755231255769,-0.26351730386017963,-2.1516966834389857,-0.14170827099017028,2.0309346556034074,0.8018177283915899
-0.436450738151757,0.7493234861447474,-0.26771433513018156,-2.1665885539279484,-0.14220381546704516,2.018664204606698,0.8012990603988591
-0.43420192563902066,0.7199811843134997,-0.27191202288020067,-2.180962970599086,-0.14268770807700853,2.0064674082803418,0.8008028210670813
-0.4320518577476445,0.6905572682033168,-0.2761032357502721,-2.1948030732603345,-0.1431958410146185,1.9943192320207848,0.8002996960592429
-0.4299981403808077,0.6610626395021654,-0.28028440879353667,-2.2080919422269742,-0.1436663186990497,1.982174801192213,0.799850670723678
-0.4280494463686623,0.6314852949644019,-0.28444498040861327,-2.2208596769902287,-0.14409184387184698,1.9701558116391693,0.7994163446328546
-0.4261958999034754,0.601857371282253,-0.2885618963415333,-2.233058503252096,-0.14462284721479055,1.9581292190119353,0.7989121038291396
-0.42445161612633364,0.5721759853286367,-0.2926201956420193,-2.244703278726241,-0.14515583983657082,1.946160442651277,0.7984140112476519
-0.4228219897992768,0.5424515757506205,-0.29660589142122035,-2.255786638253524,-0.1456825814587155,1.93425616295447,0.7979272298559033
-0.4213105455962241,0.5126999965301926,-0.30050354463804896,-2.266298466413523,-0.14619342130009147,1.9224149414309604,0.7974567524252595
-0.4199212121576092,0.4829295074160856,-0.30427794051661644,-2.2762511923381776,-0.14681748387312943,1.9106937110361668,0.7968668085833374
-0.41860083246470026,0.4532304721316833,-0.3079736379045576,-2.2855240321692207,-0.14735273231717821,1.898794403606232,0.7964566127433799
-0.41746690628262245,0.42350673809279793,-0.31152690917445247,-2.29426971551754,-0.14769728918472488,1.8872073394313864,0.796204484118769
-0.41644604682807995,0.3938758431587022,-0.31491789051165064,-2.3023606973890556,-0.1480660851462821,1.8755675213565226,0.7959336366496463
-0.4155826084036898,0.36426470851486953,-0.3181195309428554,-2.309915478432141,-0.14836969785944157,1.8641849601590148,0.7957172937756922
-0.4147852462680239,0.33477911473420663,-0.3211723597619732,-2.3168416132868854,-0.1487439723607353,1.8529037763542704,0.7953894677591756
-0.4140697168597531,0.30545741771732937,-0.324046062018391,-2.3231047508984783,-0.14918222168205264,1.841636756055258,0.7949969542639701
-0.4133572321036654,0.27635917036826774,-0.3267443588363778,-2.328704547679547,-0.14991894544349738,1.8304188361317983,0.7943412639543387
-0.41277317312477724,0.24740158448276195,-0.32923907763262517,-2.3337172643394464,-0.15054907699596556,1.8194658336023317,0.7937310324401929
-0.41231072942734903,0.21867313370371408,-0.33149611997809814,-2.3380866714163635,-0.15107272148757028,1.8086843649943651,0.7931893916025197
-0.41195877787699786,0.19018780974050115,-0.3335149759220137,-2.3418442777671107,-0.15152266893146552,1.7981666289709637,0.7927048188523725
-0.41168578280370144,0.16199723731900056,-0.3353037917156316,-2.344962962499451,-0.15193952749965453,1.7878652983970449,0.7922327890085897
-0.4115585037925501,0.13405997288068927,-0.3368234480858185,-2.347523347422044,-0.15219883108186472,1.7780081893690607,0.7919046832310116
-0.41152157041616344,0.10655850050764758,-0.33807267185868145,-2.3493550167470656,-0.15238522407093885,1.768208247328307,0.7916881082980474
-0.4115388651141419,0.07940837764277373,-0.33909035517175085,-2.350589419067289,-0.15255119697594768,1.758789774013889,0.7914721121387069
-0.4115279885789199,0.052708697416980636,-0.33990919330811076,-2.35116918460746,-0.1528220826004628,1.7496420782074027,0.7910739515597288
-0.4115133268900992,0.02646009891159507,-0.34051904521325455,-2.3511208481064636,-0.15314960691864205,1.7408070254100287,0.7906107468774357
-0.4115583378365446,0.0006985000306625136,-0.34086958543433993,-2.3504409320090414,-0.15343707296972955,1.7323292920775824,0.7901765712291101
-0.37796541924081367,0.8094025953348032,-0.22447312404806602,-2.194956623747747,-0.13963394979282118,2.0283483692341395,0.7810693366918026
-0.37581080258632654,0.7792920696526899,-0.22838833478404583,-2.2112843820638752,-0.14003275373582222,2.01551814569345,0.7805923553081745
-0.37372032096107716,0.749094818099696,-0.23232630976189564,-2.227019868699542,-0.14063202178469175,2.0024673965065753,0.7798846981562804
-0.3716558981659607,0.7187415855748387,-0.23634726534382766,-2.2422974113959016,-0.14119235240028494,1.9895446881698384,0.7792583777633831
-0.3697239271340177,0.6882809248815559,-0.2403180625214298,-2.2569902980264445,-0.1420134784752456,1.9764846624060106,0.7783455667937577
-0.3678796485254475,0.6576910318202319,-0.24429120132647522,-2.2711530726970794,-0.1428423043302516,1.9634149105166632,0.7774370757407406
-0.36612960368693154,0.626978670487894,-0.24825615310944996,-2.284773205003477,-0.1436787274636332,1.9503381503015287,0.7765329075918461
-0.3644680340254569,0.5961466251424768,-0.2522156234118829,-2.2978391320490505,-0.14443698580302805,1.9372369268228207,0.77574316504737
-0.3629144031694276,0.5652177053221865,-0.25613855192229856,-2.3103399885688,-0.1451999974837827,1.9241383413853625,0.7749591046208625
-0.3614386164502194,0.5342046775633414,-0.2600151233660209,-2.3222746773202108,-0.14609740864053633,1.9110537592018417,0.7740257923152524
-0.36011080831210346,0.5030369890745638,-0.2638295940444063,-2.33371773614637,-0.14680279822461506,1.89818160402399,0.7732683347590135
-0.35888254608086456,0.47186514644938754,-0.26756298388454686,-2.3444886130603195,-0.14752223335135056,1.8851260087585164,0.7725525048369369
-0.35779881180219786,0.4406327358263359,-0.2711780534774613,-2.354672173440864,-0.14821236311255187,1.872124236093826,0.7718877527081148
-0.3568670562803818,0.40936108217587797,-0.27465016658532193,-2.364277982112004,-0.14882328553301338,1.859226669371519,0.7713359348426594
-0.3559898057237425,0.3781332657055669,-0.27800551260740747,-2.3732044096724985,-0.14962693286567255,1.846239082448635,0.770515450650057
-0.35524638057877195,0.3469149945440847,-0.28120914769995403,-2.3815328844585744,-0.15034233318894608,1.8333557545357604,0.7697809013178185
-0.3546219950757638,0.315754146408637,-0.284240050489954,-2.3892242772842285,-0.15104584576619892,1.82055341701979,0.7690568015361928
-0.354160475790954,0.2846759329753539,-0.2870744762001789,-2.3962749351498798,-0.1515554655484097,1.8078659956620973,0.7685215846402929
-0.353742093748097,0.25375073421152405,-0.2897220351340574,-2.402649522957147,-0.15227076330173306,1.7952092235670662,0.7677902370613808
-0.3534298799656645,0.22297629115770962,-0.2921573256792069,-2.408366496228181,-0.15296327108987612,1.7826862644522985,0.7670698935659161
-0.3532427802373518,0.19239632641962917,-0.29436007840003414,-2.4134063058436346,-0.1535498899652355,1.7702968476759593,0.7664182402513312
-0.3531692476259685,0.1620336715109065,-0.29632143921433746,-2.4177978588530094,-0.15405969829526145,1.7581386830625032,0.7658286261570857
-0.3531816810204827,0.13194060799419857,-0.29804186560281426,-2.421518053784279,-0.15453386587730025,1.7461814548598273,0.7652482392820723
-0.3532718027938748,0.10216122004445613,-0.2995167929400968,-2.4245560913754685,-0.15496266441040207,1.7344409092924793,0.7646934662575756
-0.3533870105764997,0.07273492065290152,-0.3007507258830275,-2.4269159502549127,-0.15548611645515373,1.7229328906464,0.7640604278244292
-0.35359133884503824,0.04371050099409883,-0.3017160689192433,-2.4285735021780863,-0.15590757001746045,1.7116682660601505,0.7635103583753148
-0.3538160354662486,0.01510387523557977,-0.30244878792131,-2.4295722610519492,-0.15633672239765806,1.7007463491511172,0.7629247630754703
-0.35419489435884133,-0.01312911763916796,-0.3028986284032948,-2.429962471612269,-0.15645529017049342,1.69036167098666,0.7625906599841522
-0.35464582610788264,-0.040827764604194294,-0.30307423811294254,-2.429653549187304,-0.15643320529086815,1.6802798408836876,0.762389086932505
-0.3550686602343149,-0.06800074636078308,-0.3030424996570316,-2.42867588151465,-0.15645186837330427,1.6705957999982088,0.7620897300931525
-0.317358982012492,0.7898176546667601,-0.1803175484159732,-2.2532624225373716,-0.13980541349363457,1.994354559942967,0.7600032890236271
-0.315579511020316,0.7589865395202433,-0.18360577989956442,-2.269798698119027,-0.1405919015736217,1.9804530660873134,0.7589936602054039
-0.31386414303243027,0.7279264202692918,-0.18697486138789657,-2.285914638696036,-0.14115179122029725,1.9666662417267204,0.7582467412192914
-0.3122268613852622,0.6967012335626132,-0.19036907506786174,-2.3015071775467755,-0.1417224186771534,1.9528518319393766,0.7575016555904055
-0.31067288932228243,0.6653004105235372,-0.19377994583443706,-2.3165812161913983,-0.14230400676025287,1.9390010945224003,0.7567582967119048
-0.3092072040523687,0.6337271223016515,-0.19719615058650664,-2.331127471526991,-0.14289636177041035,1.9251135657244212,0.7560168307095072
-0.30783432235053415,0.6019871800955153,-0.20060550637858804,-2.345135366545633,-0.14349957711785657,1.9111885519741398,0.7552765457587302
-0.3065705582036764,0.5701064637795675,-0.20397688917016446,-2.3585671960128742,-0.14414060676309812,1.8971605281927577,0.7545482208213913
-0.3053801574073061,0.5380812492357309,-0.20734571632043772,-2.3714333938258543,-0.1447681613888508,1.8830928464341905,0.7538308324287569
-0.30429572080005046,0.505928589962404,-0.2106598225198546,-2.3837207907237454,-0.14540144666710925,1.8689766652922513,0.7531146861869532
-0.30334565886261367,0.4736350559326068,-0.2138993319236702,-2.3954580137647055,-0.14596353510710602,1.8549184058186443,0.7525114713404277
-0.3024442439228886,0.44131850619584484,-0.21705926367200495,-2.406492325742961,-0.1467427193351107,1.8406049327140566,0.7516093518725782
-0.30168157301665804,0.4088768415240074,-0.22013583078200558,-2.4169791076958993,-0.1474315013784396,1.826400523384367,0.7508089827758346
-0.3010289452377663,0.3763910493154725,-0.2230937081677495,-2.4268327115184363,-0.14811908989086192,1.812192166350109,0.7500158074466946
-0.3004888596604922,0.3438851641269655,-0.22592132541930426,-2.436043753659228,-0.14879989034912247,1.7979836988685514,0.7492355439063243
-0.3000488514964835,0.31139575435761685,-0.22860279780370768,-2.444596212169942,-0.1495290877431273,1.783775164143595,0.7484229403198577
-0.29971520553638725,0.27895662455327686,-0.23112304546441034,-2.452473007072107,-0.15023137754973434,1.7695790468306607,0.7476300808684604
-0.29951896341545103,0.24652883103949488,-0.23346696237115708,-2.4597483356087757,-0.15082260004806583,1.755626728626423,0.7469395881245107
-0.299444515946098,0.21428445583272202,-0.2356404204584297,-2.4662470897488684,-0.15119034730133055,1.7415723453222085,0.7464754476317272
-0.2994183267232286,0.1821852754903112,-0.2376140375491778,-2.472072564079573,-0.15173690528549985,1.7276245607579523,0.7458193574692714
-0.29949959233520534,0.15026496922506477,-0.23937676274606315,-2.477211987830022,-0.15219025682017112,1.7138713825533833,0.7452316472093997
-0.2994648146434969,0.11861914307966957,-0.24104191583384954,-2.4816207465082436,-0.15290946745123274,1.7002462208958653,0.7443105044246536
-0.2996376664422489,0.08714866515166193,-0.24241604172479772,-2.485394147308647,-0.15331975834999545,1.6869399878434799,0.7437090472737229
-0.2999649930042529,0.05605053532121279,-0.2435346353583221,-2.4883931220413062,-0.1534706906054004,1.6737957671400907,0.7433999135541506
-0.3003320752489783,0.025352902965412476,-0.2443899471987869,-2.4906426396871497,-0.15375171008568056,1.6608168487480155,0.7428806595003382
-0.300540437220568,-0.004974300161095013,-0.24519288644812318,-2.4922039484346232,-0.15406989610038355,1.648223256263566,0.7422717068174765
-0.30079580850821697,-0.03488772507358135,-0.245778258178723,-2.493077950925825,-0.15430389905633807,1.6360419336372727,0.7417218184816393
-0.30110895576119084,-0.06430186663716934,-0.24610038961736472,-2.493218335513926,-0.1544956927758043,1.6241885610269078,0.7412509710815962
-0.3016127013581119,-0.09322459939428182,-0.24606199279908525,-2.492683861555679,-0.1545364916491096,1.6128541694934135,0.7409154342052336
-0.30214801767060995,-0.12152053228723456,-0.24577632749282044,-2.4913663822164485,-0.15451832715185465,1.6017774712423165,0.7405556565822168
-0.25220155574390024,0.7764531668273117,-0.1313395543948684,-2.3000338129281688,-0.13325765070156415,1.967924422959076,0.7392141817708997
-0.25082753440961764,0.7449094599975484,-0.13384661938472328,-2.3169689525891792,-0.1338392927109437,1.9535000168408398,0.7383228685539142
-0.24950630840208268,0.7131624823327969,-0.136384888702687,-2.3334025674692835,-0.13443012993966308,1.9389912437631192,0.7374304586339996
-0.24824516609711833,0.6812062672136353,-0.1389480338304635,-2.3493300601433464,-0.13503131400812526,1.9244040667134303,0.7365369043240421
-0.247050065356004,0.6490389328214189,-0.14152896347429125,-2.364745546360286,-0.1356329743235615,1.9097461517440666,0.7356553525204673
-0.24592607899944335,0.6166810563845517,-0.14410713292448193,-2.3796146719698674,-0.13627392891960655,1.894962582151705,0.7347437731349832
-0.24485251607288966,0.5841488768741847,-0.1466919556110668,-2.393911484004678,-0.13691571569594352,1.8800251749620005,0.733815246468471
-0.24386580867519544,0.5514372805834535,-0.14921035137258098,-2.407666600717001,-0.13789390630481374,1.864983101750516,0.7325425713340484
-0.2429669413922697,0.518501234951537,-0.15178265318852666,-2.4208771261681514,-0.1384170128305668,1.8499642045657023,0.7317951275312234
-0.24213569615826047,0.48545406812733316,-0.15428575822216495,-2.433457660173506,-0.13907924683433587,1.8347592689807148,0.7308585407596992
-0.2414201200514275,0.4521987541501613,-0.15676284382946215,-2.4455218114019903,-0.139623349701365,1.8196474787400507,0.7300667645480495
-0.24078137051139462,0.4188778028697861,-0.15916265892941792,-2.4568933863639075,-0.1402331057386836,1.8042824280942205,0.7292484612431321
-0.24028603748313562,0.3854253154832364,-0.16149407859890974,-2.467676706932766,-0.14060308502443283,1.789003543444558,0.7287045949192898
-0.239813745893483,0.3519032680767751,-0.1637238007694665,-2.477817148961754,-0.14130246754900633,1.7736354155435328,0.7277416850006221
-0.2394146000387248,0.3183893987915625,-0.1658386584903683,-2.487242935671261,-0.1420508842445944,1.7581083958431978,0.7267156870124568
-0.23914315133410277,0.2848307117519195,-0.16786578855518033,-2.4960247545868013,-0.1425610153957754,1.7426322018639142,0.726023371333851
-0.23896109435686402,0.2513160905656125,-0.16975840479003462,-2.504095546328284,-0.1430212362749051,1.7271249980049221,0.7253673175054313
-0.2388572291714123,0.21783190264635396,-0.17154769679674517,-2.511494650686341,-0.14338131407791546,1.7117436789882818,0.7247665260693776
-0.23879566043420392,0.1844291415427186,-0.17319186410374665,-2.518207086308096,-0.14384460743604735,1.6964589181476635,0.7240353311092647
-0.23881309033644998,0.15124822392372556,-0.1746647520764922,-2.524115378940043,-0.14425329960539635,1.681096100105577,0.7233658402720688
-0.23890575346490533,0.11819629420898502,-0.17594358820795405,-2.5293432167449468,-0.1447467433452634,1.6659538972340713,0.7225397474900556
-0.23901617340036044,0.0854224361463046,-0.17703037137285746,-2.5337932911577066,-0.14537322761513985,1.6508870731562368,0.7215503760745768
-0.23925174856344672,0.052916577767647154,-0.17791337760965245,-2.5374966221326574,-0.1458121536895322,1.6360229718929709,0.7207817948356906
-0.23955905588838539,0.02074751865053573,-0.1786043851006606,-2.5404330110962117,-0.1461317425862376,1.62136477469072,0.7201098544865648
-0.23992060610097735,-0.011047720786894227,-0.17909669302323913,-2.542606993520071,-0.1464051677160616,1.6069819646945473,0.7195130650639828
-0.24031986331542973,-0.042446587291571816,-0.17940233696945398,-2.544039883113218,-0.1466239576900959,1.5929644287740037,0.718916727841901
-0.24069394576799627,-0.07333435363110226,-0.1795269144418099,-2.5446733244901156,-0.14693865356369779,1.5792132189025265,0.718180005948951
-0.2411055606990137,-0.10370345886469252,-0.17944892565564172,-2.544529346267959,-0.1471738673334248,1.5657965031449494,0.7175414810571253
-0.24148772161026746,-0.13354712787063241,-0.17925534834617482,-2.5436577789863017,-0.1473079713432999,1.5529058770419157,0.7170118098523829
-0.24188157998906742,-0.1627776188086147,-0.17887366613641378,-2.542012388547527,-0.14742869863045102,1.5404288509933408,0.7165320610513959
-0.17739744375566213,0.7675826658323089,-0.08295825716165722,-2.336123299937606,-0.11349715295703879,1.9539648734660187,0.7104963797424311
-0.17643738249567048,0.7354886858424848,-0.08454080506464744,-2.353345818910426,-0.11402136766465569,1.9390353954032984,0.7095607154627648
-0.17549031113269536,0.7031340561623989,-0.08620287640666864,-2.3701261672174923,-0.11440544978719426,1.9240979819898847,0.7088100390172246
-0.17464535998888867,0.6705993870152984,-0.08774401336948477,-2.3863274406656103,-0.11524697531003197,1.9088733625648329,0.7075333937755257
-0.17383150653436125,0.63781814374424,-0.08930478061102713,-2.402016898166145,-0.11609181269365537,1.8935187163095777,0.7062552904205653
-0.1730418893969981,0.6047456524199094,-0.09093348412777857,-2.4172509584461155,-0.1167109530764872,1.8782205696334568,0.705232895997003
-0.17228392566414225,0.5714959404486958,-0.09261595163025355,-2.431891360939568,-0.11705452821786433,1.8626925385398965,0.7045563615227965
-0.17159773186579896,0.5380700260201122,-0.09428185020382616,-2.4459105826317233,-0.11737865348522772,1.846930606148883,0.7039314606865993
-0.17096027807597974,0.5043545538488275,-0.09592037329212107,-2.4594804132270673,-0.11781507754505441,1.831248232962748,0.7031769043172881
-0.17036985677761046,0.4704752419026355,-0.0975153542795004,-2.4724297539496547,-0.11839793108177343,1.8154212509050203,0.7022107611231106
-0.16982779081152377,0.4364367885471287,-0.0990675602269882,-2.4847637077856675,-0.11903530518495621,1.7994404630552538,0.7011639316087053
-0.16934527182609302,0.40230746665848616,-0.1005831297066498,-2.496399125002302,-0.11961232303545087,1.7831910219053024,0.700206613268917
-0.16891390854784058,0.3680027425294252,-0.1020521740869699,-2.507462851591632,-0.12023089327894547,1.7669773080697344,0.6991885981207627
-0.16850651382468268,0.33362985649451293,-0.10350011009022873,-2.5178308591372853,-0.12081664456084065,1.7506316757563725,0.698201624371419
-0.16815333845413033,0.29917740487465944,-0.1048796578196517,-2.5275468111764376,-0.1213607982878956,1.7342290922108496,0.6972581751527672
-0.16796286564607468,0.26471569074802204,-0.10612437820363262,-2.536550279723379,-0.12177718950775106,1.717758343558445,0.6965811891411211
-0.16782671316440317,0.23025568161658053,-0.10730000018141984,-2.544837629084654,-0.12210453167017274,1.7012635200373665,0.6959123153099398
-0.1677559789974928,0.1958473822866734,-0.10837340127479025,-2.552399655939703,-0.1224253662939552,1.684768794462921,0.6952470105552621
-0.16772311924761155,0.1615431104729824,-0.10932761864718368,-2.559210724628872,-0.12283537165281196,1.6682773770594754,0.6944610254785625
-0.16772385071330076,0.1273834634649993,-0.11015796129144467,-2.565266065043069,-0.12331064961890863,1.6518430553889991,0.6935800667066746
-0.16776362514925805,0.09341588417276755,-0.1108634057739579,-2.57055340226996,-0.12380267938494388,1.635490435073327,0.6926660921786715
-0.16788613472206493,0.05963054447803562,-0.11145291181685266,-2.5751020833310654,-0.12411688077379646,1.6193672064970845,0.6919267172329346
-0.16804094692082783,0.026161415254526296,-0.11190872076964563,-2.5788380096050636,-0.12444928534356776,1.6033712829138105,0.6911634070494681
-0.16820364199950635,-0.006946597155409456,-0.11222946965886235,-2.5817587522328975,-0.12483893600579006,1.5875393620611602,0.6903055991312502
-0.16840890791147117,-0.03965575090338312,-0.11240943955301647,-2.583860537044378,-0.12515927469328916,1.5719157386346667,0.6895411635219627
-0.16866733000024065,-0.07199541622110173,-0.11246347704190791,-2.5852266833750335,-0.1253804874830405,1.5567731735592323,0.6888915668690528
-0.16895703484223376,-0.1038140751335051,-0.11238450158051393,-2.585752899114355,-0.12552592962933498,1.541909000365922,0.6883264726524363
-0.16922362071849034,-0.13507237769771674,-0.11212381018078627,-2.5854536395277647,-0.12588055351519292,1.527378161376071,0.6876498558547727
-0.16952127861792327,-0.16575587208978687,-0.11176542668244101,-2.58436191736057,-0.12606787073104433,1.5133240850292229,0.6871003955007362
-0.16985535648466585,-0.19578118807461806,-0.1113058066253912,-2.5824414807385625,-0.1260923025614702,1.4997041716591208,0.6866455430627041
-0.40866707707790173,0.8883795756286484,-0.18231651445731245,-1.9372374318191543,-0.26440303286868555,2.116834035404775,0.7198131728534363
-0.40647782388003645,0.8612053772678504,-0.1846647657427403,-1.9530201928369835,-0.264274538605076,2.1059161049658326,0.7194679141224027
-0.4043412300008646,0.8341527771351097,-0.18698805529346635,-1.968147920420067,-0.26447103754692525,2.094866550500451,0.7188189803058251
-0.40226855555941277,0.8071179225595206,-0.18935159695111406,-1.9828333276633296,-0.2643436572081265,2.084186531935592,0.7185085531527698
-0.4002615075716542,0.7801691870444323,-0.19169855949769762,-1.9969340506850861,-0.264305417649076,2.073540414342185,0.7181043613420056
-0.39828531882909524,0.7533255651463716,-0.19401542283341955,-2.010434542821757,-0.2646741724054078,2.062837305662681,0.7172942802593475
-0.3963940294344562,0.7265535926362285,-0.19633334537886535,-2.0234239415544284,-0.2647713092040837,2.0524082638386667,0.7167355781598509
-0.39456236922205473,0.6998469262694422,-0.19863486963652852,-2.035880568033661,-0.2648649160118256,2.0421069738606055,0.7161861506811762
-0.39279328831195737,0.6732242683137355,-0.200912960372858,-2.0477954673667336,-0.2649539531585839,2.0319439302811855,0.7156482727749964
-0.39108846727902835,0.6466916010576923,-0.20316078805869284,-2.0591679534618286,-0.2650367106373498,2.021923295760335,0.7151247379084456
-0.3895219777467193,0.6201958975106648,-0.2053324364770693,-2.070090132609948,-0.2649987582273888,2.012292163185776,0.7147346173915547
-0.3879722368269271,0.5938236420330648,-0.2075011682445476,-2.0804472544978747,-0.26495388973943307,2.0027564755553895,0.714366964483148
-0.3864946597585759,0.5675619067630236,-0.20961493524193706,-2.090263183718744,-0.2649071197207427,1.9933950100893354,0.7140056891148471
-0.38509844363696194,0.5414133636921756,-0.21166411000606172,-2.099546762608546,-0.2648303501385768,1.9842355172047763,0.713676009839087
-0.3836908247872986,0.5154835787059735,-0.21366906765368973,-2.1081596309563153,-0.26503323222362163,1.974919737940459,0.7131269314462282
-0.38235257091057867,0.48970524859877196,-0.2156078263221593,-2.1162155407146215,-0.26522193748164874,1.965776792021796,0.7126101238534176
-0.3810588930310767,0.46410648507731395,-0.217476859596125,-2.1236935138502053,-0.2654653091654986,1.956745561599097,0.7120518527362215
-0.37989992364901815,0.43864342359439984,-0.21926246116832834,-2.1306701078126102,-0.2653808412499378,1.9480894129521837,0.7117933324780011
-0.378831597686239,0.41335247348305415,-0.22094188701236833,-2.13713145581259,-0.2652434181007414,1.9397459555847878,0.7116371904115352
-0.37780948175231516,0.3882916525325323,-0.2225322815348542,-2.142984919460086,-0.26515676398059196,1.9314678275582589,0.711416618946409
-0.3768215689518552,0.36349325690547896,-0.2240401784197734,-2.1482508590743636,-0.2651711258288098,1.9233747272667516,0.7110763892264492
-0.37593031230704216,0.33886804520891245,-0.2254484096800252,-2.153055339968686,-0.2650451034597603,1.9157400520709422,0.7109233447109939
-0.37507917643484606,0.3145818998736889,-0.2267416858260067,-2.1571802520754066,-0.2650295394576211,1.9080798478257326,0.7106611835145946
-0.3742928371901362,0.29057536292849284,-0.2279241331246203,-2.1607413492984358,-0.2649918093669892,1.900660509569865,0.710420127080776
-0.373573110108911,0.2668299394407636,-0.22900629778301104,-2.163801455433507,-0.26488081712992945,1.89364863400405,0.7102829689455766
-0.3729387892337747,0.2433977147470424,-0.22994613870625047,-2.1663006732747268,-0.26477796462263214,1.8869317513928006,0.7101205353052841
-0.3723617246842594,0.2203106180806355,-0.23077584329982873,-2.168230823328504,-0.2646016419500546,1.8804965422605986,0.7100821474473793
-0.37180166519084185,0.19761592996144994,-0.23151165699016055,-2.16954581684168,-0.2644857197391911,1.8742167073918303,0.7099789861089547
-0.3712957208100359,0.17526300320078128,-0.23212969448094062,-2.1703538540752985,-0.2644062193338565,1.868385474316073,0.7098636179107637
-0.3708028591319054,0.15335607371284707,-0.23265217094607113,-2.17053150359735,-0.26436456764294497,1.8626883102906984,0.7096947605702443
-0.34112238779849585,0.8603157472374393,-0.15685750376898097,-2.001031467944846,-0.2771928505074866,2.0703192941155906,0.6997818480421666
-0.33915181369318514,0.8326306640214268,-0.15894764416215462,-2.016755559138057,-0.2772265715998266,2.058737642229809,0.6991442455722529
-0.3372309897398112,0.8049756542624378,-0.16105318676474495,-2.0319522943018096,-0.27725475935288635,2.0472598943708515,0.6985150292092561
-0.3353609314797471,0.7773565933832167,-0.16316738722219354,-2.0466160786981167,-0.27727754734988297,2.0358897183488662,0.697895355815272
-0.3335432324307379,0.7497746691565247,-0.1652847307231106,-2.06074678940775,-0.27729522628098446,2.0246275768842508,0.697286032153358
-0.33177950839733605,0.7222323633809417,-0.16739942554905102,-2.0743435789642857,-0.27730814372015333,2.0134745142307917,0.6966877209240013
-0.3300713502217268,0.694733463815033,-0.1695054313624565,-2.087404954514781,-0.277316746762687,2.0024321683098374,0.6961008743240501
-0.3284203010156353,0.6672830639771047,-0.17159648070148392,-2.0999288632261868,-0.2773215651849089,1.9915028166242672,0.6955257362909094
-0.3268278154481853,0.6398875601075333,-0.17366612240405138,-2.111912778153062,-0.27732318198885,1.9806894196241271,0.6949623775950589
-0.3252952573254901,0.612554631040988,-0.17570773802270262,-2.123353797083375,-0.2773222133298723,1.9699956933812672,0.6944107476402565
-0.3238238973185421,0.5852932025650609,-0.17771456938533597,-2.1342487566493533,-0.27731926172050964,1.9594262235037458,0.6938707498514399
-0.32241496523216856,0.5581133981211931,-0.17967970350032553,-2.144594343646186,-0.27731486955164936,1.9489865767663077,0.6933423647728195
-0.32105001847926284,0.5310405207338393,-0.1815975497107549,-2.1543745702795385,-0.27741886753775347,1.9386332686207897,0.692736931592292
-0.3197479284357911,0.5040711629574698,-0.18346049112746388,-2.1635979081662247,-0.2775233073470079,1.9284282316997725,0.6921439837481449
-0.3185099107248571,0.47722040851386166,-0.18526160392987692,-2.1722629647688563,-0.27762817668766715,1.9183781651643608,0.6915646208488571
-0.31733674778620263,0.45050358247001,-0.1869940185910857,-2.1803652246710317,-0.2777320247611026,1.9084898789627744,0.6910013504475486
-0.31622461804866486,0.42393828653584814,-0.18865574425624737,-2.187899483371958,-0.27783474460540625,1.898769149724433,0.6904575427461366
-0.315258593669548,0.39746898499052774,-0.19020760391544894,-2.194950425498721,-0.27771101775608703,1.8894774435912214,0.6901257608274474
-0.31434719462283234,0.3711911126549982,-0.1916822559670616,-2.2014258123170474,-0.2775800098851536,1.8803575589131407,0.6898226854637275
-0.3134268716203742,0.3451955721355524,-0.19307047362284396,-2.2072176909309977,-0.2776789074441951,1.871157226260409,0.6893482952253447
-0.3126178533205016,0.3193928554416192,-0.19436562426373424,-2.2124594979731036,-0.27761014573548576,1.8622539986685889,0.689031712574834
-0.3118029105882798,0.293884266006964,-0.1955909027575705,-2.217072233791572,-0.27765758522410317,1.85347642118769,0.6886378580167744
-0.311073014909543,0.26860851857494317,-0.19668413978638138,-2.22113750724626,-0.27773361663422436,1.844975458609251,0.6882163023716389
-0.31042660788190607,0.24360174989199618,-0.19766691936790307,-2.2246250718844256,-0.27769731945787596,1.8367687347685668,0.6879276434819004
-0.30985436382890863,0.21891122932622922,-0.19853755905437603,-2.2275186869306984,-0.277559992264939,1.8288074906797454,0.6877529222885987
-0.309373635252844,0.1945072051898782,-0.19928561085399774,-2.229882806437847,-0.2773195151838739,1.821297538831242,0.6876583924824523
-0.30892729172791816,0.17047317140137166,-0.199925609006989,-2.231632771259905,-0.2771150508858217,1.813996251534611,0.6875495201778486
-0.3085105046970681,0.14682631944914673,-0.2004563053703288,-2.2327720325270644,-0.2769748566974708,1.8069193476810517,0.6874016578788281
-0.3081087622755601,0.12356335976510786,-0.2008896039340722,-2.23335616133866,-0.2769360645646271,1.8002338030031555,0.6871902879468119
-0.3077795189904465,0.10070688278437354,-0.2011991875288793,-2.2333525256184315,-0.27679698671439706,1.7938525861159285,0.6870638268031617
-0.2712357429266403,0.8382384268913453,-0.12689199806810778,-2.0547338309853713,-0.2936569574643665,2.0333959242885133,0.6762042811507475
-0.2694772926612087,0.8100415644015705,-0.1286261528518152,-2.0705422640743265,-0.2936724460482901,2.0212975958717356,0.67545236231678
-0.26775916625419366,0.7818486117421254,-0.130376358820828,-2.0858266692827097,-0.29368055252516023,2.009283718709496,0.674710844980816
-0.26608306171792734,0.7536626367057909,-0.1321374585751286,-2.1005863118205843,-0.2936818432876115,1.9973547716158406,0.6739803642962998
-0.26445077101316006,0.7254855749399027,-0.13390445143551505,-2.1148193775156514,-0.2936772584414017,1.9855115429268637,0.6732611861939755
-0.26287048909300476,0.6973006588146858,-0.13568444314530428,-2.1285500731329714,-0.2935624418307219,1.9738379835702342,0.6726470050043436
-0.2613396992333607,0.6691339458679906,-0.137458020865469,-2.1417501789854194,-0.29344526649903513,1.9622532810527513,0.6720433537208474
-0.25986014313622546,0.6409893603362457,-0.1392195457472527,-2.1544140360443347,-0.2933267338649504,1.9507601465686677,0.6714502156813784
-0.25843358285112134,0.6128743732764299,-0.14096288976970703,-2.166537409114962,-0.2932076159996084,1.9393619529149624,0.6708676390107673
-0.2570616752076671,0.584797850961911,-0.14268174946384107,-2.17811568482447,-0.29308862158407223,1.9280628708095917,0.6702956580098299
-0.25574593421361413,0.5567700671414411,-0.14436968987817342,-2.1891439287504064,-0.2929704108949883,1.9168678444581584,0.6697342654709356
-0.2544876813684241,0.5288027079308575,-0.14602020509701902,-2.199616946739414,-0.2928536157365159,1.905782571667975,0.6691833781487804
-0.25328800613836516,0.5009088414226165,-0.14762678159023324,-2.209529387941561,-0.29273887788213093,1.8948135781689526,0.6686428119405338
-0.2521477777089876,0.47310283459691277,-0.14918293460454038,-2.2188759014422086,-0.2926268698818607,1.8839684207534588,0.6681123190820447
-0.25106774878529625,0.44540019239321443,-0.15068218925882032,-2.2276513702874863,-0.29251826525063046,1.8732560925344002,0.6675918009461185
-0.250048729486967,0.41781742546283923,-0.1521180259893073,-2.2358510487385117,-0.2924134725442361,1.8626872531430456,0.6670818090867643
-0.2490857801253991,0.39037639870078455,-0.15348976950753157,-2.243464714520358,-0.2923074573261853,1.8522623535138971,0.6665909803095081
-0.24818547274259936,0.3630911166036762,-0.1547844256289962,-2.250494294995714,-0.292206598046396,1.8420044594989788,0.666111168678433
-0.24734868382859454,0.3359826767135969,-0.15599634022708625,-2.256933706414664,-0.2921083052099576,1.831925101211399,0.6656474839233609
-0.24662089654926092,0.3090086782228253,-0.15711009453969246,-2.262859588720749,-0.2919139125976095,1.8222479951046442,0.6653081645506563
-0.24595090790703478,0.2822601115186002,-0.15813568597638547,-2.268182125712618,-0.2917081439538048,1.812759134610358,0.6650033583581543
-0.24534074471523498,0.2557479702934898,-0.15906170732148514,-2.2729116604526443,-0.2915288291942399,1.80350928308587,0.6647218268172056
-0.2447083664224418,0.22959391209846428,-0.15990056158197255,-2.2769287758120824,-0.2915976324887691,1.7941977671692535,0.6642297160357127
-0.2441395902708898,0.20370466751766714,-0.16066423402605912,-2.28035569956133,-0.2915410362151985,1.78520041800587,0.6638719348946786
-0.2436479853237292,0.17811665142774788,-0.16130353790215532,-2.2831952713663366,-0.2914412814128245,1.7765064182646924,0.663535180275223
-0.2432334042851154,0.15284518238371628,-0.1618371331506504,-2.2854438433703437,-0.29127178099195083,1.7681412373739016,0.663313756002813
-0.24284846524850473,0.1279642618223818,-0.1622669529974884,-2.287055081181471,-0.2911762449380519,1.7600152065998709,0.6630230409395594
-0.24254466397220653,0.10341787304489058,-0.16258317033254535,-2.288113127799178,-0.2909881949034908,1.7523243127286166,0.6628820196079306
-0.24228143309557798,0.0792826994878018,-0.16279758878734213,-2.2885658767586956,-0.2908126695066622,1.744987108326709,0.6627736192463506
-0.24202535108456494,0.05563111374769128,-0.1629222853658672,-2.288342801164676,-0.29071089346940426,1.7378102150119015,0.662584374768738
-0.20008389937210053,0.8211959541955245,-0.09245272741827516,-2.0982248785393165,-0.3087653764470361,2.006756435889812,0.6508383883974892
-0.19854627727972674,0.7925009549638563,-0.09374715115245975,-2.1142064394819355,-0.3084628994989283,1.9943899780543917,0.6502523778282839
-0.19702712797108599,0.7637841943233613,-0.0950907190847862,-2.1297038995029505,-0.3079941862406985,1.9821683592573738,0.6498350297366019
-0.19556092902881875,0.73509028568894,-0.09637034163484146,-2.1446131917771853,-0.3079108507681972,1.9698146996788652,0.6490414844082516
-0.19412916980020234,0.7063761356264472,-0.09766714395261568,-2.1590101898874843,-0.30777818321720174,1.9575629865237427,0.6482958884758832
-0.19273205122189324,0.6776476446579073,-0.09896668884534035,-2.172884099912517,-0.30764559135048164,1.9453747734634994,0.6475555469875816
-0.19137226203932053,0.6489142707205171,-0.10026456123757639,-2.1862269935444747,-0.30751316449925303,1.9332557857890664,0.6468218973907487
-0.19005193336715445,0.620182607826696,-0.10155578439036979,-2.1990341041635197,-0.3073813341638988,1.9212098535287252,0.6460958378933541
-0.18877315751754106,0.5914607234184455,-0.10283512695564859,-2.2113001645448693,-0.30725076996821116,1.9092415247724692,0.6453780342771603
-0.18753793561263224,0.5627581623315924,-0.10409716322008578,-2.22301951036897,-0.3071223153602242,1.897356185617693,0.6446689868879215
-0.18634816188153425,0.5340859332039798,-0.10533631115756807,-2.23418618618725,-0.30699690529018414,1.8855601708795153,0.6439690962196494
-0.18520559254554833,0.5054564982067293,-0.10654688337226982,-2.2447940344303556,-0.3068755192779345,1.8738608223387192,0.6432787474820623
-0.18411185794679966,0.47688376253269116,-0.10772310945033235,-2.254836762502087,-0.3067590990206738,1.862266492376804,0.6425984199988642
-0.18307970238406374,0.44837193439580453,-0.10887076439878941,-2.2643131324616097,-0.3065288969886427,1.8508246018398953,0.6420353084652181
-0.18210107936421385,0.41995205982063283,-0.10997087379292975,-2.2732117803431655,-0.30630618234621737,1.839500727462893,0.6414803228693081
-0.18117714864513698,0.3916401687227669,-0.11101786700818424,-2.281523966246208,-0.30609135053299424,1.8283075721758466,0.6409349267702565
-0.18030906105652106,0.36345577283795816,-0.1120061524451115,-2.289243408525455,-0.30588378808470884,1.8172573812406476,0.6404016728865255
-0.17949757210235462,0.335420004953551,-0.11293051580249214,-2.296363573723426,-0.30568236134035387,1.8063622847367562,0.6398837790194445
-0.17878257913827264,0.30749115777773217,-0.11378371613606067,-2.3029567149672965,-0.3053911965015159,1.7958416856379824,0.6394921754533827
-0.17812004204341358,0.27977106848600714,-0.11456379407250164,-2.3089213877463806,-0.3051027081474571,1.7854569806513285,0.6391369969395135
-0.1774555750487171,0.2523286933052831,-0.11526697874728485,-2.3142115565190453,-0.305029683481282,1.775092605618229,0.6386050474203584
-0.1769044411362467,0.225045527118674,-0.11589072875484988,-2.3189602970804666,-0.30477485264836507,1.7651661360411934,0.6382880693686347
-0.17639524393080075,0.19805448742965828,-0.11643530978370133,-2.323061994385315,-0.30452739755805597,1.7554154527617232,0.6379563937115009
-0.17590711884917656,0.1714179532413641,-0.11690372446235134,-2.3264562154774775,-0.30435636061980736,1.7457210073262934,0.637612989625295
-0.17546169051868785,0.14506932487758314,-0.11729493809999937,-2.3292710713724722,-0.3041699561341849,1.73637373643508,0.6373029977679713
-0.17510950485606697,0.11906317687002321,-0.11758264690348848,-2.331449683122353,-0.30387529692554754,1.7273228733978512,0.6370892436425283
-0.17478901048605672,0.09343458902573444,-0.11778482693993512,-2.3329922620605763,-0.30365518617098874,1.7185669349914536,0.636866772134895
-0.1744733746348781,0.06823432473015392,-0.11791060975391482,-2.3338758340052688,-0.303556428670087,1.710044896684444,0.6365158587036598
-0.17423441972653242,0.04341496683601549,-0.1179528988520197,-2.33417229677319,-0.3033304062519929,1.7019743042706064,0.6363539429368318
-0.17403363807942632,0.01901598726005551,-0.11790703732609666,-2.3338715171555227,-0.30317496019526363,1.6943223315459364,0.6361755009082075
-0.1296835684669612,0.8070546426106642,-0.053881762797163654,-2.1336918377886995,-0.3194540951277012,1.997449668433043,0.6243019528210566
-0.12839307013305035,0.7779448523653092,-0.05460471391825108,-2.1498507478153592,-0.31889138328515126,1.9848943302799003,0.6238745573403878
-0.1271426144595456,0.7488342490985905,-0.05527202319852054,-2.165438017696774,-0.31864844567807454,1.9722206412480825,0.623128545167753
-0.1258828482044629,0.719622977998467,-0.05602344572360852,-2.180606847923272,-0.3181504099013327,1.9598572303804414,0.6226206230388752
-0.12466072106317297,0.6904336222880376,-0.05673207899577168,-2.1951824461638285,-0.31784638526426007,1.9473419879820544,0.6219122694942723
-0.12346326226311495,0.6612109303910099,-0.05744326162026884,-2.209235349190576,-0.31754689687450477,1.9348779464213646,0.6212023591216481
-0.12230461458804602,0.6319365831318853,-0.05816831886254988,-2.222796189396965,-0.31714690401992846,1.9225750427115447,0.6206310158684716
-0.12117894483601989,0.6026702606984131,-0.0588783612098859,-2.235786432980719,-0.3167494472883896,1.9102439667593654,0.6200736093916221
-0.12008088534856384,0.5733918924587731,-0.05958698061956797,-2.2482460862063043,-0.31633757666049794,1.8980082951900725,0.6195224153637446
-0.11902919353146382,0.5441092254979284,-0.06029808859724066,-2.2601743604595383,-0.3157971900745203,1.8858972801390768,0.6191278968890453
-0.11801884216228961,0.5148364536552066,-0.06099028158566765,-2.271544138560828,-0.3152686236911507,1.8738639066665352,0.6187384680183475
-0.11700865931460286,0.4856345121062712,-0.06163102293086354,-2.2823087908221904,-0.3150858977142016,1.861770496876562,0.6180003577874578
-0.1160340356797138,0.45647475376747365,-0.06225113197848278,-2.2925045143007896,-0.31490733162112466,1.849763674719429,0.61727212280573
-0.11509693732801442,0.42737882450856657,-0.06284601491140418,-2.302119660213685,-0.31472979535908846,1.837854588479328,0.6165586667155636
-0.11419940039735897,0.3983652779326004,-0.06341160219299112,-2.311145800191354,-0.31455130785407204,1.8260523681656855,0.615863749887492
-0.11334325926521327,0.3694541458194809,-0.06394377533045453,-2.3195745902589135,-0.31437094511303915,1.8143670743795821,0.6151905164467675
-0.11253023850531725,0.3406666611552261,-0.06443826482179793,-2.3273981438323217,-0.31418888475553797,1.8028104073783844,0.6145415610508667
-0.1117618497039354,0.312024824143313,-0.06489063349970178,-2.3346096088954784,-0.3140071172860712,1.7913968689373414,0.6139177826452625
-0.11108220928728266,0.2835098589190865,-0.06531152218908712,-2.3412352868600608,-0.3135839704304131,1.7802536672517535,0.613560285567155
-0.11040618598261247,0.2552283640426853,-0.06566968935046154,-2.3472145552090664,-0.3134217451632874,1.769205615589232,0.6129785256747071
-0.10977900013688272,0.2271601873323036,-0.06598553615487755,-2.3525570439960783,-0.31320470601738754,1.7583339373434161,0.6124425893450438
-0.1092108895324007,0.19934420930035884,-0.06624495041507804,-2.3572577142178175,-0.3129656879846426,1.747671020856748,0.6119896354361692
-0.10867097605442497,0.17180036766231052,-0.06644209587147655,-2.361316007771041,-0.31277794983459956,1.737198076200221,0.6115239464332676
-0.10823138923460238,0.14450797086505532,-0.0665975839469841,-2.3647783204637967,-0.3123764352429768,1.7271248607509153,0.6112545313558276
-0.10781396167356173,0.11758361937232424,-0.06669032046724196,-2.367553312623777,-0.312090072266462,1.717253059112777,0.6108962710726095
-0.10744953923062203,0.09091903903044801,-0.06673735490487064,-2.36979571944992,-0.3117858572082331,1.7078865295146854,0.6105594085053724
-0.10714426657813186,0.06463396938264604,-0.06671910932102676,-2.371389211906476,-0.3114612068780329,1.6988486297580867,0.6103651553627327
-0.10681542383229324,0.03884180057189705,-0.06664232738378424,-2.3722516044893296,-0.3113797967455696,1.6899051644980199,0.6099584402525505
-0.10657340524532795,0.013455239619941462,-0.06650280303364654,-2.3724736163873077,-0.311128003477198,1.6813508107938364,0.6097546685373665
-0.10638545555672542,-0.01143967177085748,-0.06631240856863246,-2.3720242417226847,-0.31081145809901795,1.6731382031179658,0.6096496650659593
-0.31881203072290065,0.9910301208872347,-0.1928812039745048,-1.7178937230576394,-0.41897097467081557,2.227017036972317,0.588947353089757
-0.31623086866389555,0.9651053966008082,-0.1947904834162604,-1.7344418186534263,-0.418900245963058,2.2171302676496243,0.588410421338899
-0.31374523574423335,0.9393546266247288,-0.19669125407630997,-1.7504191707067536,-0.41877569154829547,2.20755814359642,0.5879232916827063
-0.3112817059510473,0.913807572465836,-0.19864282706275732,-1.765765847670672,-0.41861499702760363,2.198143860114426,0.5874772081189014
-0.3088137324992341,0.8884931519180626,-0.20065613385126244,-1.7804171098860584,-0.4183608606475615,2.188697394029352,0.5871381947084106
-0.3064132115099357,0.8633499758817255,-0.2026737359558944,-1.7944988423237256,-0.41804574969926916,2.1795208478706005,0.5868564630613957
-0.30407954003130405,0.8384022353753523,-0.20467842438544057,-1.8079510652229671,-0.4177897942779816,2.1704235707586825,0.5865267160657178
-0.301779893709912,0.8136467260309167,-0.20670158833206428,-1.8208196062300432,-0.41760564257992994,2.161537412717519,0.5861263908527268
-0.2996254424658564,0.7890251468637959,-0.20865093178629743,-1.8331879498611645,-0.417302641010402,2.1530087671633744,0.5858504721931657
-0.2975058624720539,0.7646083989411057,-0.21060686611928434,-1.8449410810694207,-0.4169925298232438,2.1445759780312024,0.5856045116745711
-0.2954468685852851,0.7403711863410357,-0.21254632553020078,-1.856135416526416,-0.4167207248493996,2.1363472593971875,0.58535204533985
-0.29341149767276786,0.7163672361142952,-0.2144845342808158,-1.866695092637003,-0.41639633905554135,2.1281498633070304,0.5851552164604553
-0.291459803059654,0.692536726336035,-0.2163767384254653,-1.8767229934610778,-0.41622346335634053,2.1202062964740986,0.584797993584777
-0.2895427335137978,0.6688997284808714,-0.2182620613764631,-1.886214435451413,-0.4160243472091266,2.1125040484000497,0.5844887348334392
-0.2877222643134606,0.6454816707400051,-0.2200836570681876,-1.8951154227867746,-0.415694980771791,2.104926719969364,0.5843320658028364
-0.2859812222911433,0.622250210385265,-0.22184658765934412,-1.9034992203067846,-0.4153629563277998,2.0976259929655594,0.5841716421369411
-0.28426343898999457,0.5992752692377055,-0.223577248984897,-1.9112769567766492,-0.41524421767422404,2.090398930493354,0.5838347713338262
-0.2826246867865908,0.5764961732169034,-0.22525819108850997,-1.9185520922620132,-0.4150196316901181,2.0834964884205966,0.5836202211433752
-0.2810372240114553,0.5539727464134323,-0.22687868297566416,-1.9252633974922544,-0.41494730231638205,2.0767387337232996,0.5832693404947111
-0.2795674862030894,0.5316744751976702,-0.22841447517994154,-1.931433870629581,-0.4145678847969269,2.0702787342001634,0.5832148183867029
-0.2781296851045524,0.5096471893872426,-0.2299150798162227,-1.9370476736721967,-0.41424314691576497,2.064007999747332,0.583134784412329
-0.2767548578453123,0.48788445158197113,-0.23133493693572887,-1.9421158962380762,-0.41398372758099755,2.057938446011476,0.5830233051368369
-0.2754004996700888,0.466423260241194,-0.23270699352020682,-1.946605371434276,-0.4139589589209967,2.0519722486781617,0.5827215572354855
-0.27412597587081144,0.44526534605651114,-0.23399586266771658,-1.9505385561094604,-0.41385041185232185,2.0462940000772156,0.5825219402619402
-0.2728641910157684,0.42440507638694014,-0.2352209336081449,-1.9539196758215256,-0.4139261856479628,2.0407571426388977,0.5821626898944856
-0.27166858165470964,0.40386638651012524,-0.23637697041757033,-1.9567578620388937,-0.4139975087322791,2.035473593373374,0.5818323852783889
-0.27053089259120516,0.3836526440106091,-0.237456953690201,-1.9590566073693068,-0.41406437866469875,2.03044467503576,0.5815309181131159
-0.26944997830625583,0.3637762659700236,-0.23845976297897972,-1.9608164494233011,-0.41412700984020645,2.0256752022434044,0.581258653710052
-0.26849722959974054,0.34421598688204497,-0.23935900078449568,-1.9620926075037166,-0.4139271738164355,2.02133431846959,0.5812351586172848
-0.2676199807951013,0.32498503532205514,-0.24015555313823042,-1.962881960438193,-0.4137089846641517,2.017397290587085,0.5812120156344067
-0.24991022150423048,0.9527503814445704,-0.17568964537301415,-1.793445186041772,-0.4304564632909767,2.2089921777122794,0.572494188886714
-0.24748202561288576,0.9264738538177923,-0.17755424712590523,-1.8098213347959706,-0.43013253062681117,2.199131644744029,0.5721633997780922
-0.24508855129357932,0.9003834601915551,-0.17943058628438416,-1.8255397684174095,-0.43005741465411546,2.1892671729042523,0.5715687552167874
-0.24275744570505198,0.8744455683437256,-0.18131214934941572,-1.8406724490135762,-0.42996954010885297,2.1795781119351725,0.570987525083146
-0.24048145326594042,0.8486527353263414,-0.18321856894882335,-1.855235172184209,-0.42970330172177595,2.1701074854883857,0.5705827355635992
-0.23824517550762273,0.8230278460657018,-0.185152523795291,-1.869198095310397,-0.4292376129558227,2.160786925923757,0.5703882047701174
-0.2360957769932027,0.7975503696096777,-0.18704247885008943,-1.8825904181849193,-0.4289474450240252,2.151607109504669,0.5700321880456979
-0.2340217281221013,0.7722214976990229,-0.1889142492810004,-1.8954254438028715,-0.42862901567482853,2.1426357545939263,0.5697084897699327
-0.23202768298999163,0.7470395430923856,-0.19075594317260489,-1.9077085902355932,-0.42831582989340744,2.1338715450878256,0.5693950893859774
-0.23004569586070353,0.7220279897954762,-0.19262222259488393,-1.9194231728191513,-0.4280626793127344,2.1252701760902006,0.5690261589342033
-0.22813251861209213,0.6971770105743258,-0.19445498526130786,-1.93058467804617,-0.4278188403534614,2.1168394108182054,0.5686552109333453
-0.22627955342744793,0.6725008459662348,-0.1962542476198406,-1.9411754562984673,-0.42761311173173033,2.108543797334283,0.5682649809414748
-0.22449058581068038,0.6479989433553457,-0.19801932941362269,-1.9512107198745283,-0.4274002143057572,2.1004252906996146,0.5678945522426068
-0.22276210869974675,0.6236806994084702,-0.1997434801821367,-1.9606904301290538,-0.427205398368842,2.0924712236231064,0.5674946360506852
-0.22109455611687628,0.5995328249502648,-0.20145946533703388,-1.9696498698075593,-0.4267690169998517,2.0848366246656256,0.5673653157738088
-0.21954742171813893,0.5755449734387771,-0.2030749122096333,-1.9781126730963026,-0.4264167618195934,2.0775040479282896,0.5671552100270415
-0.21806450196522395,0.5517726886636788,-0.2046355351401964,-1.9860160341611643,-0.42607385564267386,2.0703590791402604,0.5669440898824781
-0.21661401910055356,0.5282396180224321,-0.2061603730309788,-1.9933324246004096,-0.4257628527738311,2.0633208271208185,0.566720354069444
-0.21517646666524742,0.504974507785293,-0.20763336559993084,-2.000031421489298,-0.4256892655751516,2.056252781853684,0.5663149283206285
-0.21383403700545336,0.48193186372036634,-0.20904590353843472,-2.006200623396544,-0.42536237396769083,2.0495088598791433,0.566174879255862
-0.21255593752785418,0.45913853317098696,-0.21038300930112397,-2.0118184337221905,-0.425047920851265,2.0429780553937373,0.5660299161310873
-0.2113297419818432,0.4366094897793077,-0.21166006855038066,-2.0168946313811693,-0.4248077499572142,2.0366920901190197,0.5658531753346476
-0.21016492838295062,0.4143656838215853,-0.21286092025496872,-2.021404764996879,-0.42451849512127826,2.0305733408875954,0.5657348859654951
-0.20907629433600505,0.39241440657333715,-0.2139693444327598,-2.0253469226243177,-0.4241843631479168,2.024644749974063,0.5656970937595548
-0.20806791984001238,0.3707469663668437,-0.2149962767460887,-2.0287972147860662,-0.42389941492050937,2.0191353056586436,0.565622594732989
-0.2070945944416693,0.34940553149592674,-0.21595372325166406,-2.031678139986991,-0.42367236051043883,2.0138006307923897,0.5654722228369924
-0.20612447998715622,0.32841642044911673,-0.21685433565873366,-2.0339782099141623,-0.42363507786186816,2.008564789817148,0.5652263037013803
-0.20522291930724443,0.3077905508440462,-0.21766919146100766,-2.035713251608785,-0.4235371185662465,2.0036185236283806,0.5650678390061954
-0.20440557771096324,0.2874724389796068,-0.21839164428722002,-2.036971019989662,-0.4233114790000403,1.9990693865600766,0.565017503500352
-0.20362866137360097,0.2675485931134891,-0.2190387164192286,-2.0376571226259355,-0.42316164482927465,1.9947564891677696,0.5649365608699037
-0.175207479914017,0.9213498836489312,-0.1609858305259787,-1.8582830524723168,-0.444716138067256,2.203266369011599,0.5560217819048962
-0.17293725579583014,0.8946470266788866,-0.1627426713960246,-1.874648464102784,-0.44448708957700744,2.1934742007358685,0.5555513576912736
-0.17070858812271142,0.8680741689380242,-0.16454289091825378,-1.8904399044301443,-0.4440078591485865,2.1838717059907973,0.5553316052213578
-0.16856485997360035,0.8416111328798399,-0.16631789753602502,-1.9056948879117472,-0.44374705891648175,2.1744950914306407,0.5548921251046566
-0.16645892401999327,0.815321448947154,-0.16808752129677532,-1.9202746981529522,-0.4435268973880604,2.1650162350762394,0.5544112789265166
-0.16444242688476443,0.789106605047307,-0.16985457298735268,-1.9343931419384217,-0.4431415155149527,2.155936655708683,0.5541055832487972
-0.16245310101860988,0.7630437126906648,-0.17163365368900263,-1.9479070446694289,-0.44284589111351674,2.146920194564005,0.5537188181161682
-0.16048185817473373,0.7371179727271779,-0.17344259801037956,-1.9608599327958571,-0.44242813376948165,2.1380524367844287,0.5534474586708692
-0.15856474404588208,0.7113721487557874,-0.17518365516284423,-1.973153311990732,-0.44236167437408125,2.1290382099494916,0.552858108494537
-0.15672315323034247,0.6857421540644132,-0.17694062147111797,-1.984933693318295,-0.44201367272061237,2.120329044308754,0.5525368692533967
-0.1549708253903461,0.6602285273322224,-0.17864078084675628,-1.996223248255014,-0.4417140473059091,2.111923642182645,0.552166312343374
-0.1532872280623132,0.634881404496917,-0.18029665091362587,-2.006912505518844,-0.4413615022608413,2.103557565461669,0.5518730924289188
-0.15167220854194408,0.6096914488094668,-0.1819123846462748,-2.017051443104588,-0.4410120087821178,2.09538003770985,0.5515965158198619
-0.15006219349841987,0.5847091997797976,-0.18352145352921953,-2.0265725300241946,-0.4407948286352539,2.0872168100378525,0.5512060523729162
-0.1484945933111878,0.5598980703111691,-0.1850992040144358,-2.0355581973727936,-0.44057675715200534,2.0792328632954953,0.5508377905839164
-0.1470205939826734,0.5352513852090148,-0.18660619161014957,-2.044018032060103,-0.44033412778967196,2.0715100564312783,0.550496141964151
-0.14561067498312677,0.5108067552671188,-0.18805997629887586,-2.0519207198818967,-0.44008931136780055,2.063970019690971,0.5501741643137659
-0.1442575788330362,0.4865635918604609,-0.18947255699210952,-2.059283280663297,-0.43975369972368505,2.0566559113915366,0.5499668574429435
-0.14296488369613164,0.46256285719528445,-0.19080809448103686,-2.06605870370983,-0.4395180255403358,2.049470486358745,0.5496477023736124
-0.14172856067801684,0.43879559736162077,-0.19208436336330328,-2.0722754320279106,-0.4392808302574748,2.0424760910546595,0.549388116708564
-0.14056124583968552,0.4152793954580329,-0.19328353993374287,-2.0779378233581167,-0.4390572079020007,2.0356812895622065,0.5491129559738804
-0.13947350196981598,0.39201016654665466,-0.19440251727604463,-2.083059231010316,-0.438777001301233,2.0291661008765813,0.5489024080347709
-0.1384696466386281,0.3689904803511931,-0.19543884490353094,-2.0876827303062866,-0.4384678213854926,2.0230264666419466,0.5487296032827513
-0.13746201936079175,0.3463089194261981,-0.1964179620160996,-2.091680197099172,-0.4383757189795792,2.016889862239508,0.5484123412828534
-0.13654892729738002,0.32392224423243826,-0.19730872447753905,-2.095125267538672,-0.4381170128496389,2.011069806191399,0.5482680262072516
-0.1356681199419753,0.3018808229633777,-0.198122381197373,-2.0979936411715876,-0.4379619545995923,2.0054198753751296,0.5480708382181465
-0.13488791879228906,0.2801240339868077,-0.19884518556315456,-2.1003884340764807,-0.4376818573000635,2.0002344688671863,0.5479608674128496
-0.13411372160024282,0.25878020461968393,-0.19949800300948023,-2.102132437035499,-0.4374704539161636,1.9950495334537286,0.5478752914713809
-0.13341725294531756,0.2377985811698384,-0.20005736903163004,-2.10332393781138,-0.4372102945409265,1.9901723631641877,0.5478517107016556
-0.13275990461670067,0.21719185608542022,-0.2005536092414295,-2.104006779694968,-0.4370364622979922,1.9856981788201875,0.5477317534181839
-0.10043758422111772,0.8953292894607007,-0.14398018720436898,-1.91238585669767,-0.4582401047145936,2.209149458119551,0.5383654702145705
-0.09834467540959312,0.8682218171489516,-0.1455624653018727,-1.9287919385265,-0.45797693966355585,2.199382456068624,0.5379011583502095
-0.09631760439111882,0.8412028879172354,-0.14714439437277382,-1.9446570407905508,-0.45767054957119785,2.189800590562,0.53749618817103
-0.09433150609837755,0.8142921744933052,-0.14875003682669333,-1.9599722313889718,-0.45742310460771773,2.1804146779222795,0.537022760735862
-0.092405643044233,0.7874846401621003,-0.1503474997635732,-1.9747257872463981,-0.4571495247897322,2.1711555221357286,0.5365721601322323
-0.09053304831075804,0.7607731757257223,-0.15194995964132815,-1.9889429257931077,-0.45683553883058614,2.162089820748726,0.5361605502719505
-0.08870138980984528,0.7341884834030846,-0.15354958138942032,-2.0025649516187047,-0.4565033970248788,2.153067445320742,0.535771412165652
-0.08687484070745476,0.7077665855111466,-0.15511992298073363,-2.0155475678246053,-0.45649180395603844,2.1438839669614316,0.5350922987429236
-0.08514349180247888,0.6814524070699007,-0.15667943619303454,-2.0279965012612298,-0.45631698514959607,2.1349629363661933,0.5345610128002325
-0.08346095457614033,0.6552569683338032,-0.1582152499781785,-2.039896251300421,-0.45613105404354426,2.126169354213411,0.5340456008705854
-0.08183132064752978,0.6291958533272421,-0.15972805767843354,-2.051236826158112,-0.4559330500105029,2.117506431638055,0.5335486837762036
-0.08025344680227234,0.6032761167343622,-0.1612154537429389,-2.062020147710141,-0.4557237226503958,2.1089837357895416,0.5330718827876391
-0.07873273913626215,0.5774872192374754,-0.1626937209085984,-2.0722761071917986,-0.45528919429520354,2.1006904070750743,0.532844330289695
-0.07729636008336306,0.5518621761399072,-0.16409143403416135,-2.0819717786591903,-0.45508184384684724,2.0925705928833063,0.5324153868188385
-0.07588671455194566,0.5264160924077682,-0.1654638684179288,-2.091101121710648,-0.45490287051217376,2.084545071095679,0.5319752555919062
-0.07454826700603802,0.5011328082550326,-0.16678600643142935,-2.099690853789934,-0.454722611632322,2.0767319351454954,0.5315234999317737
-0.07322413264975045,0.4760748123504907,-0.16806151988421866,-2.1076711466254516,-0.45467222914836203,2.0689273330701536,0.5309914765857044
-0.0720198355370988,0.45119306795924735,-0.16928376041091892,-2.115132937561177,-0.45429281071731703,2.0614910645059723,0.5307674754279789
-0.07087727464995008,0.42652823075739527,-0.1704362460902471,-2.1220393893961287,-0.45392020892291257,2.0542524615704223,0.5305609840772789
-0.06975226623703325,0.4021237471712245,-0.1715469117649355,-2.128349551440277,-0.45368813045639966,2.047122560479078,0.5302594302317312
-0.06871381332522937,0.377942710570603,-0.1725757925616947,-2.1341347217405353,-0.45333076514851056,2.0402651272977357,0.530095574922136
-0.06774334774176732,0.35402412569912367,-0.17353342007528236,-2.139354026221021,-0.4529907806786632,2.03365702183909,0.5299342980077989
-0.06679528282755215,0.3304139109541372,-0.1744220740257089,-2.1439797543914905,-0.45284385248947756,2.0271577031915458,0.5296013692773324
-0.06589506773146503,0.3070951570776005,-0.1752386178238354,-2.148046313610025,-0.4527518815511053,2.0208778368534346,0.5292564463859883
-0.06508935820275455,0.2840912950603522,-0.17596345250821172,-2.151535712189773,-0.45247335598699767,2.0148796064835075,0.5290820386664957
-0.06431964097025458,0.26142320452353596,-0.17661629680318172,-2.1544656422652064,-0.4522813571271035,2.0090878858573724,0.5288535647311858
-0.06362508452301036,0.2390876350887587,-0.17718291724442023,-2.1568448015910913,-0.45200227897085643,2.0036191864265733,0.5287648983099
-0.06299979831161218,0.21712613033075112,-0.17765948927856526,-2.1586427888264406,-0.45167531306035924,1.9983776945689478,0.5287301074687045
-0.06240977453680715,0.19552172251574895,-0.1780735016102705,-2.1599317577451247,-0.45145360025797104,1.9935394182660493,0.5286452871786478
-0.06183384090593458,0.17436345864042704,-0.17841670237391138,-2.1605879407054074,-0.45132875632319874,1.9887961008212052,0.5284864837810709
-0.02556312470436039,0.8745855769105368,-0.1254601098405335,-1.955540390752349,-0.47266618788324644,2.2259777131647187,0.5184972535883747
-0.02364819814907858,0.8471044198426004,-0.12677688812540774,-1.972044886199139,-0.4727633508688803,2.2162021696227123,0.5177140754277111
-0.021799541657863495,0.8197097643251229,-0.12812286760391142,-1.9880081540852417,-0.47268642509259173,2.2066626663998705,0.5170790639180315
-0.01998740424577697,0.7924024856404466,-0.12947287844812005,-2.0034168747710126,-0.472592150364101,2.1972332034896915,0.516455201107561
-0.01821810321334178,0.7651899738958369,-0.1308272313608013,-2.018267289993421,-0.4724824897738734,2.1879223865908286,0.5158430349038181
-0.01649318222211967,0.7380733301898542,-0.13218180252133352,-2.032563093329258,-0.4723589831773615,2.178735083810203,0.5152429305682337
-0.014813988799499404,0.7110550387927598,-0.1335324696177055,-2.046306779822963,-0.4722226207113557,2.169675531728205,0.5146557248673046
-0.013181860863693518,0.6841390442054192,-0.13487489098519231,-2.059499512372044,-0.47207383936066805,2.160746741499892,0.5140827005305463
-0.011576490835267076,0.6573399623301038,-0.13621292079903727,-2.0721314286455486,-0.47199500339200545,2.1518966886183493,0.513462661691006
-0.010066299520463218,0.6306151723259119,-0.1375334362410259,-2.0842721195581544,-0.47168206697084347,2.143407591339235,0.5130609066235552
-0.008619050938420117,0.6039960791829612,-0.1388305509753317,-2.0958982303202847,-0.4713304742224603,2.135147507454977,0.5127006530681235
-0.007224836974281236,0.5775104920153993,-0.140097547988438,-2.106964720378281,-0.47098276069972866,2.127017875732271,0.5123458381913281
-0.005885929456242517,0.5511639067317379,-0.14133070405508416,-2.1174757059911213,-0.4706320837674652,2.1190305541433863,0.5120039624762927
-0.004604715330915888,0.5249655639192883,-0.1425256132386675,-2.1274326133944292,-0.47027214639844683,2.111200252991831,0.5116820586092539
-0.00336877266914065,0.4989484652153209,-0.14367621945835082,-2.1367961682537597,-0.46993719327874384,2.10343165424905,0.5113518386270347
-0.00213674064810935,0.473148464576333,-0.14479033727017693,-2.145537975691261,-0.4698028189933663,2.0956117300853574,0.5108594546597744
-0.0009830117354791882,0.44753268125389806,-0.14584471746898114,-2.1537068728001265,-0.469579080767774,2.087969551819625,0.5104447370719806
9.343296831279236e-05,0.4220701771432955,-0.1468707734190588,-2.1614044173655906,-0.4691432131146136,2.08076285714525,0.5102594616767105
0.0011588447982124532,0.396890520842244,-0.14781703651681175,-2.1684294736038394,-0.4690044189227843,2.0734251917953364,0.5098226440225381
0.0020999796704408618,0.3718811999858688,-0.1487140338383587,-2.174996886404836,-0.4685957243861328,2.0666086941579844,0.5096659055686219
0.003054258271827133,0.347182948851183,-0.14954834927445343,-2.180901149972902,-0.46849069382582675,2.0596861384074487,0.5092498480457682
0.003913172466647061,0.3227338661650135,-0.15031103865419412,-2.1862488546033796,-0.4681227810098592,2.053063664349764,0.509072077605412
0.004710690104372053,0.2985704361436254,-0.15100079789238693,-2.1910323387840323,-0.4677691694249847,2.0466784360298,0.5089106769463254
0.00545909055508105,0.2747049692384648,-0.1516293402554069,-2.195253548212414,-0.46743507406172397,2.0405521029256644,0.508736405297995
0.006156063198635861,0.2511696204442737,-0.15218398144094678,-2.198892326592057,-0.46712219905913804,2.0346298142058714,0.5085985003931642
0.006834778796367118,0.22801168126649096,-0.15267152140440202,-2.201900059111467,-0.4669593750602549,2.028802315633025,0.508341217153027
0.007422540629557663,0.20519880739025184,-0.15307100255206446,-2.2043474921667703,-0.4666272399619699,2.023274901184348,0.5082698950698861
0.007990912370468997,0.1827537508829099,-0.1534055707600859,-2.2062398504293705,-0.4664262638257975,2.018021360395208,0.5081131343244111
0.008486632966978129,0.16066952078096386,-0.1536779938059064,-2.207619673874321,-0.46619496689942047,2.0132126173707863,0.5080036632841671
0.00898892302837485,0.13905441804369753,-0.15389173999111186,-2.2083460355708717,-0.46605509735858563,2.008478814310951,0.507845661088305
-0.22925322189436304,1.1527577567123821,-0.2614782858478022,-1.4380627568270572,-0.5207540747006706,2.4045689339174694,0.5095368574358029
-0.2254560954538742,1.1266673276661612,-0.26348270118835565,-1.4577351684142676,-0.5209720533982708,2.395515221096784,0.5091095626853563
-0.2216495717720674,1.1010176533362193,-0.26566896066012885,-1.4764950941761519,-0.5211050183353749,2.386660410889304,0.5087427302239924
-0.2180058838766885,1.075759873607701,-0.2678095546109246,-1.4943337865282935,-0.5214580296387029,2.377888920349711,0.5081336778675205
-0.2145478781977398,1.0508068847069354,-0.26991961044962887,-1.511459212197123,-0.5215446212924189,2.369607870574671,0.5077813624364913
-0.21116560554319122,1.0262156652133247,-0.2720815991295432,-1.5277792952370681,-0.5215842817566373,2.3615581465223516,0.5074603346611201
-0.20791830554459528,1.0019522937551182,-0.27421843006319957,-1.5433241271887883,-0.5216626039104493,2.3537193214850607,0.5070693058556752
-0.2047169400658927,0.9780184797275032,-0.2764176895258389,-1.5581339123632567,-0.5216279538840489,2.3460879930906,0.5067936893578885
-0.20166203803108082,0.9543895951962436,-0.2785608793469371,-1.5722047792804192,-0.5217006474023013,2.338636130834571,0.5064056544832607
-0.1985457046745353,0.9311412861806108,-0.28084968288917633,-1.5854780541773634,-0.5218942741600399,2.3311603228244464,0.5059044758425291
-0.19564540803795338,0.9080877512326389,-0.2830230555475947,-1.5982200739361057,-0.5217749729610305,2.3242144142878294,0.5056919644877367
-0.19289409719336173,0.8853154079853761,-0.285131425141005,-1.6103022358563739,-0.5216955276560533,2.31758468467314,0.5054359179521886
-0.19006454679913776,0.8629093356813599,-0.28738310005179246,-1.6216312833511264,-0.5216157471599723,2.3108925569661043,0.5052116422526389
-0.18745770447921817,0.8407154807802568,-0.28948329146571117,-1.632407527399698,-0.5213562623662815,2.304641447565638,0.5051417989299837
-0.18483220713183734,0.8188563115121306,-0.2916637045505728,-1.6425000203980067,-0.5211015320890889,2.298487740808909,0.5050800302352132
-0.1822627459834762,0.7972894523794264,-0.29383620012764183,-1.651945051854345,-0.5209822403831222,2.2924499055641996,0.5049034044426254
-0.1799027024652222,0.7759658465759488,-0.29585573050944236,-1.6608414204667505,-0.520858593037984,2.286868305919446,0.5047181139786365
-0.17752476485658464,0.7549728600602484,-0.29792166632527484,-1.6690629138142508,-0.5208669342238266,2.2812391442495006,0.5044388491767432
-0.17527551550366413,0.7342499083078718,-0.2999045244329895,-1.6767018256160242,-0.5206517880900414,2.2759197978151913,0.5043626296643898
-0.17313933390047567,0.7138044194095109,-0.301808417331253,-1.6837642841064224,-0.520484289560083,2.270825649857606,0.5042604481438032
-0.1710422858871453,0.6936661194266222,-0.30372172461422603,-1.6902645805707754,-0.5202994393135771,2.266067270771331,0.5041858774217304
-0.16904503965225376,0.6738234269291453,-0.3055583583252327,-1.696179739940869,-0.5201208846253227,2.261507045380831,0.5041226307630543
-0.16706783431176347,0.6543261336054113,-0.307392116774859,-1.7014668132516115,-0.5200655034940388,2.257030182879982,0.5039597053902882
-0.16523043067740625,0.6351122264206435,-0.3091053279266328,-1.706204539573228,-0.5199597120498741,2.252841624738425,0.5038451712234603
-0.16347362268815704,0.616221600011256,-0.31075671365701435,-1.7103780281906853,-0.5198565481547924,2.248899806903276,0.5037415173653763
-0.16178672163862443,0.5976551718875981,-0.31235426277662176,-1.7139920877279209,-0.5197140552447986,2.245201935559352,0.5037004087644171
-0.16017089662856843,0.5794377120328761,-0.31390303981643286,-1.7170290565398978,-0.5195135393773633,2.241742039160934,0.5036969867583275
-0.15861732270516038,0.5615632537904724,-0.3153990938934939,-1.7195043364687843,-0.519327946104891,2.2384974093770795,0.5036943475684391
-0.15709061848034298,0.5440458982012657,-0.31687476308206025,-1.7214224055847198,-0.5192122100163873,2.2354532506176055,0.5036723657599824
-0.15560405858006496,0.5269300585483048,-0.3183139945214148,-1.7227146199341181,-0.5191879479913286,2.2325242824819362,0.5035965530717034
-0.17007959985940754,1.103756978841842,-0.23522008362314786,-1.5209626954317674,-0.5341079843968203,2.381516844729995,0.49641786548901323
-0.1666563857020452,1.0778409168029142,-0.23718760519561802,-1.539679285446282,-0.534401559516003,2.3725192238548436,0.49581988239870467
-0.16332393392847247,1.0522611642990682,-0.2391929840795561,-1.5576026963455278,-0.5346443210510538,2.363749198619964,0.49525436063481504
-0.16016255966084167,1.026958982578065,-0.24116225445138284,-1.5748304448049177,-0.5346729393037459,2.3554022388238556,0.4948841838988331
-0.15706748663591796,1.0019824901501992,-0.24317611534344108,-1.5912912559447352,-0.5347174771230702,2.3472680562790416,0.49448604855496536
-0.15405810064291195,0.9773117957149958,-0.24519494188151605,-1.6070053732995517,-0.5347359099336991,2.3392756322768276,0.4941160292017004
-0.15108485269413024,0.9529588300603657,-0.24725441297150558,-1.6219667578088457,-0.5349679365165124,2.3313357154478562,0.49354015432677234
-0.14821354115946994,0.9288709037242032,-0.2493220159880975,-1.6362650785423898,-0.5347891606591789,2.323743220084446,0.49334941802693594
-0.14549168093701006,0.905003957329783,-0.25134698905108815,-1.6500033122198683,-0.5346429376187569,2.316626405612284,0.4931107393783156
-0.142769528925719,0.8814710039353282,-0.2533976542363238,-1.6629506659582698,-0.5348391446185615,2.309315404129361,0.4925663661737678
-0.1401936272705308,0.8581500490602354,-0.255412088593619,-1.675358599496668,-0.5346588550616835,2.3025551679180545,0.49237053218554694
-0.1375916341813551,0.8351547943481532,-0.25748206241449,-1.6870258724704739,-0.5347510566282518,2.2956664425216204,0.4919068974044816
-0.13516053347732315,0.8123670539540018,-0.25946160051944567,-1.6981539364711062,-0.5345847923681831,2.2892181427037865,0.49170686068640296
-0.13275819247938392,0.7898772152464102,-0.26146082509181195,-1.7086081813747227,-0.5344140736221222,2.2828240903350125,0.491504691545686
-0.13038864797524316,0.767664803053296,-0.2634623668171051,-1.7184405246004448,-0.5343378005587328,2.276575470071821,0.49123861602724167
-0.12805908703868224,0.7457421380178003,-0.265468919589852,-1.7276441418662496,-0.5342733347588752,2.2704889958703127,0.4909702200165258
-0.12590790534512528,0.7240252906810399,-0.2673515472473461,-1.7363519135437961,-0.534126243405696,2.2648358165558524,0.49077110438377913
-0.1238336306390314,0.702606339408395,-0.269179164066785,-1.7444160297457034,-0.5340003630803023,2.259256484644847,0.4905552168448476
-0.12183133099916299,0.6814373641554026,-0.2709696041040327,-1.7519368486511808,-0.5338064951218169,2.25395238171645,0.49044214344233883
-0.11994793726849069,0.6605626829200527,-0.2726707768495367,-1.7588655054649336,-0.5336117554954911,2.2488855310433356,0.4903294113559147
-0.11815878646605518,0.6399641130794932,-0.27431056408803706,-1.7652409255175405,-0.5333456196496168,2.2441094893920686,0.49028454893850604
-0.11640306283179126,0.6196710464150841,-0.27591730876734566,-1.7710214483677662,-0.5331452414820469,2.2394068604048343,0.4901972423000782
-0.11467526551291098,0.5996873682201816,-0.2775300355374935,-1.7762565343272594,-0.532934435783381,2.235032758469163,0.490136435864504
-0.1130308065031488,0.5800211722689392,-0.27905683804779163,-1.780888793064613,-0.5327463637036512,2.2307540686294995,0.49008045589687566
-0.11150818839525121,0.5606637349246204,-0.28047776330607377,-1.7849771253342008,-0.5326026929701997,2.2267671636452158,0.4899749663838028
-0.10990859533264256,0.5416662778672637,-0.2819439018308947,-1.7884360802086052,-0.5326998280669393,2.22271808919215,0.4896989554701563
-0.10838760365924548,0.5230212290517159,-0.2833470408535156,-1.7913282875383532,-0.532787244249947,2.218909813709686,0.48945068360462884
-0.1070027434068824,0.5046943730299734,-0.28465151797790494,-1.7937228613537592,-0.532631284304017,2.215553272488558,0.4894120345825287
-0.1057180822548931,0.48669590756703646,-0.2858509708783661,-1.795592159765934,-0.5324953054317515,2.212477830794624,0.48938432125878745
-0.10444156938220152,0.4690742023314113,-0.28704286409865126,-1.796893983988361,-0.5323696755743911,2.20958802917173,0.48936366817904237
-0.10871071705942349,1.0652582838135864,-0.21217817691748594,-1.5872207783183654,-0.5488802753563734,2.3656740478045353,0.4820877981340231
-0.10570275809581439,1.0392710138633667,-0.21396554198516574,-1.605508478171875,-0.5489623934958597,2.3570805181963403,0.48163596394393304
-0.10274013536958014,1.0135960904714747,-0.21581795227696124,-1.6230495851262032,-0.5489435810034143,2.348727723771289,0.48127300504412607
-0.09981898670960958,0.9882389167667667,-0.21770692883435316,-1.6397828455382975,-0.5490676174690667,2.340363443098929,0.4807565938074625
-0.09698963110402013,0.9631481792668832,-0.21958345492508954,-1.6558196541396188,-0.5493175892525084,2.3321348633214547,0.4801271735764041
-0.09433354831735369,0.9382909455840686,-0.22139988563169458,-1.6712164025541685,-0.5493640198593519,2.324324096438298,0.47967049957895336
-0.091742429118423,0.9136866438607545,-0.22323697761241382,-1.6859624689184334,-0.54922782325284,2.3167310844107605,0.4793901517620585
-0.08915602634268659,0.8893642741198076,-0.22513580074101247,-1.700011668733117,-0.549123075574835,2.309234705344807,0.4790714049761136
-0.08667251072800845,0.8652929360986593,-0.22698246531889332,-1.7134022767870898,-0.5492135697378089,2.301864816004911,0.4785639704172012
-0.08427921546627372,0.8414481169065857,-0.22882168123639773,-1.7261937151410844,-0.5490524972192037,2.2947860185023345,0.47830534159386595
-0.08188169971397109,0.8178896346365541,-0.23070152578249653,-1.7383112863951289,-0.5491599642824425,2.287730569355009,0.47779526043593024
-0.07968899613998759,0.794518648891355,-0.23246218326846002,-1.749897668244411,-0.5490289039251408,2.2811514271333775,0.4774959734651786
-0.07752666964355832,0.7714003619548784,-0.23423923985455114,-1.7608772523898868,-0.5488609680979586,2.274741197093728,0.4772405443187719
-0.07535649249427434,0.748560568872984,-0.23604584882374915,-1.771193186791814,-0.548658597031917,2.268291565782798,0.4770426066202931
-0.07325747551230952,0.7259985517552977,-0.23781283678963613,-1.7808844512941147,-0.5487069941526175,2.261989266270937,0.4766071103849997
-0.0712088943947281,0.7036774347218031,-0.2395808758624401,-1.7900108388564517,-0.5485029198597212,2.2559353991958417,0.4764290411504435
-0.06918671889313939,0.6816419625895271,-0.2413456991232209,-1.79852337625041,-0.5483928269663458,2.25004461575794,0.47617176476982626
-0.06723884713017296,0.6598502555490406,-0.24304826672056423,-1.8064755197152773,-0.5484345714696027,2.2442578175293972,0.4757832475042556
-0.06540368037763693,0.6383298651075825,-0.2446885179409302,-1.8138680556653697,-0.5482970659711669,2.2388628347264627,0.4755621671336623
-0.06368293349696073,0.6170665401957,-0.2462337446590834,-1.8207089488817065,-0.5481196720128964,2.233680302174017,0.4753801172017834
-0.062049951197087894,0.5960538957708565,-0.2477258315721657,-1.8270495973320122,-0.5478713603013912,2.228889161832853,0.47530698105632824
-0.06049637930562335,0.5753427107609692,-0.24914319688428432,-1.8327913531519064,-0.5476494574862919,2.2242038650396174,0.47521091305754876
-0.05896411539847261,0.5549626177795112,-0.25054007219946056,-1.837922269713103,-0.5474285047041163,2.2196062428499728,0.475129480332387
-0.057511493457285796,0.534884825743391,-0.2518684540528958,-1.8425048743734405,-0.547168393932366,2.215273976190395,0.475087186350205
-0.05612603914454353,0.5151162437065748,-0.25313476658872774,-1.846536325592905,-0.5469687378007834,2.2111516120167147,0.4750135071559515
-0.054815351514022836,0.4956753603927186,-0.2543266811199174,-1.8500170263693352,-0.5467765873168743,2.2072765698111687,0.47496129688119687
-0.05354793384164701,0.4765660007304812,-0.25548656834423683,-1.8529598632128697,-0.5465852357946495,2.2036711876548996,0.4749091422048618
-0.05235192928955952,0.4578116131603558,-0.2565643684452008,-1.855335269885851,-0.5464612059843814,2.2002501984279825,0.474813532893877
-0.05125588048927782,0.4393958756279066,-0.25754608653696787,-1.8571823030462244,-0.5463103322326033,2.197127408350659,0.4747492311763614
-0.050147947514985095,0.42135725697941817,-0.2585308286278384,-1.85846511219592,-0.5461617884430509,2.194173406399456,0.47471810242071716
-0.04620770892210018,1.0353526559686694,-0.19065838728351941,-1.6393131162190655,-0.5648970229385931,2.3585710539518803,0.4666550302027849
-0.043490141967745984,1.009281631836963,-0.19228433433249967,-1.657293213280808,-0.5650162695069822,2.3501365139241948,0.4661402784370041
-0.040790094775356125,0.9835000158039426,-0.19395211629678882,-1.6745140062580768,-0.5653090242148987,2.3416852058705278,0.46545996912683657
-0.038165538196973624,0.9579770658902155,-0.19563439933494065,-1.6910354586078804,-0.5655667222614906,2.3334303360162205,0.4648024750153113
-0.03561553011557421,0.9326983429977241,-0.19734859985911873,-1.706907049732821,-0.5653726890056564,2.325511296430235,0.46456686407294073
-0.03311594907809958,0.9076549900349697,-0.1990980475509892,-1.722150722341541,-0.5652031228453998,2.317833921556848,0.4642974235079228
-0.030651313745045174,0.8828881375188533,-0.20082941213954414,-1.7366588058407553,-0.5653765055890962,2.3100387688002355,0.4637003044279106
-0.028332704683358974,0.8583236726021712,-0.20251481317950681,-1.7505726949551035,-0.5654137907294178,2.3026021794518314,0.46321414525417093
-0.02610341374364697,0.8339769507725572,-0.2041800038289837,-1.7638947457148246,-0.5652320302547039,2.295425067563362,0.46294606768048313
-0.023885294228569623,0.8098954007850259,-0.205880068441125,-1.7765562551658933,-0.5650255836511144,2.288334304191844,0.46271604035914427
-0.02168873242945931,0.7860567752100726,-0.20760072110924266,-1.7885864442508548,-0.5650129425712194,2.281334085589343,0.4622830110983977
-0.01953627572717199,0.7624499067276278,-0.20928919717483696,-1.800007569483996,-0.5651375366756886,2.274425162804774,0.46173464712772233
-0.017461993699975933,0.7390902603889916,-0.21098811970349488,-1.8108371792527838,-0.5650534041647632,2.2678173667006742,0.46140013581716466
-0.015538260859576165,0.7159152706843457,-0.21258813416262295,-1.8211714441694296,-0.5648435703176665,2.261625271749569,0.4611495052439121
-0.013647286352383294,0.6929862613156832,-0.2141971775810778,-1.830926350348081,-0.5646241592883562,2.255644197550688,0.4609021647810697
-0.01180395475506244,0.670334287214053,-0.21575286961868057,-1.8400305970573618,-0.5646014317869279,2.249600589994073,0.4605123078233532
-0.010018460407610022,0.6479257207292072,-0.21729513877158046,-1.8485689854873022,-0.5644101816164314,2.243827068192686,0.460303045394608
-0.008332743879036607,0.6257741359938209,-0.2187659522913651,-1.8565476135940173,-0.5641233269442044,2.238265641150625,0.4601960536891866
-0.006678929941718858,0.6039023087963777,-0.22020754851866597,-1.8639329572840515,-0.5640750014973399,2.2328284124334727,0.45987367480886365
-0.005053047919168571,0.5823095016720434,-0.22162431126261195,-1.8707254521614562,-0.564074501661864,2.2274648289230674,0.4595227522681512
-0.003543658654984814,0.5610001613214081,-0.2229630290013918,-1.8769750224352906,-0.5639303594734721,2.2224683419216964,0.45931345353115016
-0.002119745613170303,0.5399558478774609,-0.22422619369143718,-1.8826859737880062,-0.5637354584271019,2.217703297076479,0.45914983094033074
-0.0007985701505220425,0.5191852195742566,-0.22540480606350366,-1.8878802284955316,-0.563514760350187,2.2132563380834442,0.45906447460653005
0.000490848510459561,0.4987358099526606,-0.22656548888188502,-1.8925150774131863,-0.5633234414085265,2.2090446196272984,0.45895905028532985
0.0017015055009084175,0.4786021916256331,-0.22764108757762186,-1.8965819684430847,-0.563100219004864,2.204994918508807,0.45888872374265594
0.002877269059234119,0.4588178068728344,-0.22868030447465265,-1.9000641364281254,-0.562844383857558,2.201108192818071,0.4588519676454037
0.003967540144757247,0.4393560277201238,-0.22963817997696376,-1.9030193224489833,-0.5626230145989581,2.1975100046290086,0.45881923612495396
0.005090529933053211,0.4202930074922943,-0.23059971170485477,-1.9053422290482815,-0.5625583507942256,2.193891525582515,0.4586707478483464
0.006159406439094099,0.4015811552495409,-0.23149976719684842,-1.9071192575183933,-0.5624969528623746,2.190510366432036,0.4585393518859457
0.007114884842397639,0.3831842378362689,-0.23230975816558047,-1.9084451387981995,-0.562330701765405,2.1876461165693053,0.45850335791011626
0.016041566920501474,1.0132472090419928,-0.16899918377565365,-1.677400654998953,-0.582378387760001,2.3576887354911173,0.4502347737408609
0.01853356066631064,0.9870613052648016,-0.17043848539154316,-1.6952220423380104,-0.5827049919163043,2.3492499562989995,0.44952382408796493
0.020883587036589147,0.9611035927255384,-0.17185115685870908,-1.7123967219999514,-0.5828167466267467,2.341217262645925,0.4489903828239073
0.023188629279302778,0.9353848810622147,-0.1733018720081945,-1.728920929714496,-0.5828336125288058,2.333416050446363,0.4485423004316169
0.025499409620633184,0.9099194117148344,-0.1748232157678662,-1.7447491562710915,-0.5825599120029438,2.3256874499327775,0.44836009194192306
0.027729734073781293,0.8846870294118986,-0.17632804961655876,-1.75993413699437,-0.582409399466183,2.3181445493935016,0.4480648983953776
0.02988512223976466,0.8596877897134128,-0.1778010874917685,-1.774455837439957,-0.5824712521403084,2.3106821356947496,0.4475461711307184
0.03195348688174749,0.8348952180109146,-0.17926464469675785,-1.7883838123336244,-0.5823018840748323,2.3034785213579956,0.44725538805221887
0.03400295834773514,0.8103466665566654,-0.18075478957914423,-1.8016671157592277,-0.5822074725489441,2.296384844481608,0.4468893015760877
0.03600105750425125,0.7860227674485819,-0.18223785546321786,-1.8143391309669277,-0.5820307543096956,2.2894258438306925,0.44660706875377554
0.03790875413613349,0.7619093670533447,-0.18369199532283698,-1.8264456886323663,-0.5818397313092968,2.2827691006085225,0.4463288257695146
0.039771311587264754,0.7380231108978725,-0.1851524713777081,-1.8379712276092661,-0.5815578701257571,2.2763386303358013,0.4461431916723012
0.04155125924949112,0.7143671899660774,-0.1865580879673161,-1.848882214138015,-0.5812863693909285,2.2699863214768294,0.4459642935079565
0.04328699787117248,0.6909659123672532,-0.1879331970559007,-1.8591690677827895,-0.5811686855289252,2.2637054504934047,0.44563411017743215
0.044947978827490354,0.6677635941872836,-0.18929798754230273,-1.868964013945506,-0.5809565141050421,2.2578467167803895,0.4453920279941442
0.04662853160508562,0.6448603675551113,-0.1906536077829956,-1.878061980439773,-0.5810455296963208,2.2517612748248212,0.4448796272238976
0.048198537855020006,0.6222039442660962,-0.19193867598645656,-1.886606105278465,-0.5809572833957597,2.2459880502853045,0.4445499710440395
0.049741030430313284,0.5997903687229162,-0.19324569377850187,-1.894614581307499,-0.5806370575770642,2.24050439033022,0.444447209466618
0.05120369122681588,0.5776306406877543,-0.1944877075742919,-1.90206829704509,-0.5803603247714303,2.2352282698955106,0.44431124575104564
0.05262955405386101,0.5557607808484302,-0.1956940283862085,-1.9089238688386991,-0.5801268788574757,2.2300546059048836,0.4441592073150214
0.05399054496210077,0.5341803005442006,-0.19684457901561014,-1.915219920760864,-0.5800524934375937,2.2250804189761935,0.4438735747559866
0.05532440868466513,0.5128918915068345,-0.19796271502161422,-1.920927426686868,-0.5800231390043414,2.220185226372571,0.44356368047255834
0.056553318335483764,0.49188809687215385,-0.19902162872102475,-1.9261280000852796,-0.579780652239914,2.2157691650253137,0.4434547117506132
0.0577361140136159,0.47119890483815924,-0.2000278668071752,-1.9307611860620701,-0.5796069053536984,2.211469738386119,0.44330774404564993
0.0588313262910281,0.4508270607402757,-0.20095008755538474,-1.9348356421335973,-0.5794029768547149,2.2073888130861263,0.4431885059649783
0.059897038009854624,0.4307922510327055,-0.2018329252860387,-1.9383427354843414,-0.5792814837560758,2.2034571892161248,0.443034634766071
0.060908381661312204,0.41110510051099264,-0.2026607582984333,-1.9412868947836497,-0.5791611493818823,2.1997458303979385,0.44289949436688025
0.061900139679042496,0.3917966862033077,-0.20345444120962297,-1.9436401532774317,-0.5790848445020255,2.196151761809032,0.44275064450651075
0.06278035629611958,0.37278545406554836,-0.204168758688325,-1.9455480638607416,-0.5789078884609496,2.1930987882802175,0.4427105224284905
0.06365343654515024,0.35420612051521805,-0.20484624407894253,-1.9468053903562912,-0.5787958806282971,2.1900165150022843,0.4426381994303705
-0.24623336136204305,1.4344066973422327,-0.2911443053356702,-0.942676884747742,-0.5969168261151371,2.5664423510265935,0.4396725724886625
-0.2388198885091272,1.400183577350001,-0.2924416214086698,-0.9783042862288123,-0.5995148772144281,2.554312761985803,0.43835563216620577
-0.2323241476803129,1.3678020891184535,-0.2933893554735338,-1.0106271419839357,-0.6018437339369255,2.542985195064253,0.43706325881446434
-0.22591070359854704,1.337138178917069,-0.2951070918958714,-1.0401072942282117,-0.6041008979801826,2.531959760761044,0.43570168795886793
-0.2201312380000639,1.3076946075387659,-0.29660352812799595,-1.067431813737975,-0.6054532503077713,2.5219164393284075,0.4350893126157143
-0.21461545940873597,1.2794307074239109,-0.2983487630066932,-1.092718339563631,-0.6067342828657515,2.512417751684178,0.43446077398334176
-0.2096222928475527,1.252112498820553,-0.29984092498843457,-1.1162178670742748,-0.6076783156911502,2.5033974579924645,0.4339075582990702
-0.20503824927635117,1.2256360602401066,-0.3012121920839,-1.1381403683853617,-0.6084560716213746,2.4948713944426326,0.4334115965219193
-0.20053053356470313,1.200031474905478,-0.3028685907438868,-1.1585312275770263,-0.6092453389503094,2.486549926180294,0.43285716488971016
-0.19629337878050254,1.1751400305668231,-0.3045038742624552,-1.177599532859245,-0.6098953705203556,2.478603733204523,0.4323836193393147
-0.19230681509270722,1.1509132505833937,-0.3061261058665442,-1.1954458740523966,-0.6102569140050198,2.4711398716603514,0.43213047521162323
-0.18843162532763205,1.1273454787989798,-0.30787788241535535,-1.2120926879895018,-0.6107978831292125,2.46388023186695,0.4316677479503095
-0.1848095637295747,1.1043142984733336,-0.30957999186975244,-1.2277602763845958,-0.6111292124568631,2.457225784465876,0.4313784747245777
-0.1813203117697881,1.081857889694964,-0.31133545559974907,-1.2423696632597965,-0.611233887044759,2.4508221759242743,0.43128431628818
-0.17784716322842892,1.0599804084367814,-0.3132827521960459,-1.255951589882206,-0.6114606721552172,2.444550867961295,0.43107837404702637
-0.17462704019933248,1.0385794165268538,-0.3150889650524092,-1.2685931317870442,-0.6115739921258225,2.438590600247893,0.4309456010156657
-0.1716962969053692,1.0176118020363483,-0.31671107791466385,-1.2804022783673923,-0.6116255090967977,2.4330967138457624,0.4308460783052485
-0.16879368372064538,0.9971548018640228,-0.318469999646686,-1.2912991005697774,-0.611808562214466,2.427723529994885,0.43060851459824795
-0.16600030130926346,0.9771434685667875,-0.32025243065573483,-1.3014069945663507,-0.6118631327267418,2.422704211506243,0.43048788321603976
-0.1633748353096189,0.9575711937946518,-0.3219830682267528,-1.3107207811878412,-0.6118733092267874,2.418042821880283,0.43040007518289985
-0.16078295781043586,0.9384985962364437,-0.32378144414829513,-1.3191205004720872,-0.6120093765773452,2.4133302970706056,0.43019455640303356
-0.1583380174099847,0.9198315039585327,-0.32553638499649146,-1.326814220187998,-0.6121154439873724,2.4089242590095727,0.43000296648033376
-0.15605974713927512,0.9015632898208836,-0.3272249658191778,-1.3338047561472337,-0.6121170520915655,2.4049756042929653,0.42991471758314465
-0.1539215195000149,0.8837111523461028,-0.32885800782414865,-1.340071262886842,-0.6120469444429771,2.4013133561749567,0.42989711245351003
-0.1517588951165871,0.8663570094303642,-0.3306442826488057,-1.3455242352818546,-0.6119873852184747,2.39772545288238,0.4298772619694043
-0.14983342291868423,0.8493327278526703,-0.33223363946306106,-1.3503868028926311,-0.6119060537010846,2.394567568006543,0.4298728762234612
-0.14790474503039516,0.832786368106187,-0.3339427498046155,-1.3544875342331593,-0.6118582991099542,2.391546879640137,0.42985247708082525
-0.14612399451764488,0.8166551098262514,-0.33558281542742235,-1.3579098347580878,-0.6118091722901363,2.388889264442823,0.4298378366022271
-0.14441380976192947,0.8009535046249526,-0.3372184633999956,-1.3606296749575997,-0.6117652375188831,2.3863465283667935,0.42982412490256316
-0.1428735623612815,0.7856643471673354,-0.33877327800282053,-1.3627044683239613,-0.6117172157523393,2.3842514440304794,0.42981867784079164
-0.17368677435519772,1.353371457742159,-0.26575600609811445,-1.0768321145241133,-0.6237852533914321,2.528006331829729,0.4237362306342368
-0.16804034390571584,1.3230174413130693,-0.2672973164383881,-1.1056337646162373,-0.6253555194059478,2.5177917763402755,0.422963063336858
-0.16287798879813925,1.2937670347712977,-0.26863810212238537,-1.1323143527056714,-0.626867216302699,2.507678783599134,0.4219422926996751
-0.15799713002403792,1.2654765445533809,-0.2700868724463449,-1.1573121759571026,-0.6279340927039276,2.4982056887261948,0.42126652411616516
-0.15350109141108056,1.23802697229186,-0.2714419778280193,-1.1807504498274202,-0.6287604272143442,2.4893317779984043,0.4207314791391132
-0.14926758534659199,1.2113574171815844,-0.27280122562748255,-1.2027233056595872,-0.6295114358265329,2.480785829619219,0.42019495689658815
-0.1450962312992789,1.1854767017884857,-0.27437428366962296,-1.2232569374769005,-0.6304632403620566,2.472298219870087,0.4194072857502458
-0.14130292047658816,1.160154716662567,-0.27577451314909496,-1.2427070308380443,-0.630966393101821,2.4645339213464563,0.4189962201327642
-0.1376337228678129,1.135471452921765,-0.27726501917666674,-1.2609643449620203,-0.6314166759679815,2.456990746619902,0.4185949883298896
-0.13402219749533423,1.1113825156260844,-0.27893932439885394,-1.2781712083445744,-0.6315722932662237,2.449871620882429,0.4184499792735562
-0.1304245482415292,1.0878717350350233,-0.2807948590574816,-1.2943082324649486,-0.6318942890282316,2.4428403032714137,0.4181418831293289
-0.127220785989866,1.0648037816037264,-0.28234227008252893,-1.3094925189728854,-0.6321992422819774,2.436201678171572,0.4178036932398898
-0.12395235111567103,1.0423011374398392,-0.28413542647990836,-1.323668797629687,-0.6325758919145483,2.429601575888426,0.417390278140744
-0.12093988651293465,1.0201855546867744,-0.28579689272265885,-1.3370797309784865,-0.6326378162436161,2.4235481002040102,0.41723667918681473
-0.1180510521284657,0.9985255276271605,-0.2874539665038096,-1.349611212443773,-0.6327770925549374,2.417694520738268,0.417003037477365
-0.11529317456128324,0.9773060769403794,-0.2890938589806872,-1.3613160287783796,-0.6328913512756638,2.412118231199772,0.41678036208099845
-0.11265180651291609,0.9564934399251199,-0.29073770132500215,-1.3722740538766514,-0.6328992488525161,2.406924012915049,0.4166479945691948
-0.11014342480026504,0.9361005525322281,-0.2923367790623132,-1.3824205400338228,-0.6328177724145719,2.40190067385947,0.4165859236907096
-0.10774450708254474,0.9161080436280485,-0.29391940520964244,-1.39183077878845,-0.6328235305918845,2.397140412917971,0.41643833862969043
-0.10524058183217806,0.8966177987671294,-0.29573228159554554,-1.4003847885824254,-0.6329130994794054,2.392362924101625,0.41622964314327016
-0.10295628251526741,0.8774194662601447,-0.29739540358776684,-1.4083905951887943,-0.6327982121929144,2.3881422103896948,0.41620898873358453
-0.1007586462385107,0.8586430549851498,-0.2990487922899317,-1.4156321572401196,-0.6327430764539962,2.384073189591216,0.41614199030582727
-0.09866574287892975,0.8402630420625202,-0.3006874324065165,-1.4222002595471699,-0.6326226248797648,2.380335743765718,0.4161279684568625
-0.09671940893727352,0.822262168698168,-0.3022334575495888,-1.4280856150368106,-0.6325154237850014,2.376849429212476,0.4161028786659005
-0.09475723206873325,0.8047004552270378,-0.30387082561290457,-1.433236425116612,-0.6324345962766009,2.37339593098657,0.4160675987001062
-0.0930548391974841,0.7874559813743637,-0.30528612940106403,-1.4378126108730467,-0.6323336556606682,2.3704161907431724,0.4160503146791804
-0.09132388805244702,0.7706762931810389,-0.3068055892452827,-1.4416449245440177,-0.6322994238901959,2.3674733226777556,0.41598949474078417
-0.08968904241813634,0.7542858553369272,-0.30828783526446546,-1.4448384748122687,-0.6322594817993737,2.364777300567421,0.415942469071653
-0.08820035413158564,0.7382748548822348,-0.3096692143025306,-1.4474087399922584,-0.6321935588181021,2.362363681935806,0.41592779634774274
-0.08674676244580991,0.7226985590778586,-0.31108482556209494,-1.4493104482272563,-0.6321296403202221,2.360147037146416,0.41591885327639544
-0.10240502709646822,1.2982639494733883,-0.2505755187907917,-1.1697826455810496,-0.6460214021089472,2.50068450821776,0.40977497115599537
-0.09767373601136355,1.2695536866837744,-0.25199316845333675,-1.1954162047768155,-0.6469988001737977,2.4911136879940226,0.4091267044286501
-0.09332238134509653,1.241641939284726,-0.2533041137993802,-1.2195376979364196,-0.647757272413529,2.4821023452141433,0.4086117524273616
-0.08920140101105634,1.2144731692893405,-0.25464130525453893,-1.2422565927821272,-0.6483975444088583,2.473444719583161,0.4081297347140007
-0.08524652091313806,1.1879855371653054,-0.25605844665996774,-1.2636828652039562,-0.6490598744690664,2.4650864718921515,0.4075614456204584
-0.08127708494459203,1.162189112741676,-0.2577396181905759,-1.283859480619755,-0.6495735716335238,2.4568938561067926,0.4071182300537755
-0.0775076832210559,1.136974025284165,-0.2594230302725818,-1.3029159393763234,-0.6499377609748594,2.4490876933829835,0.40678293279247857
-0.07395208706007195,1.1122592969415084,-0.26106063271738306,-1.3209748253509677,-0.6500776913912601,2.441689508471793,0.4066128779818556
-0.07075320047716167,1.0880084576173858,-0.2624409381360483,-1.338037289375915,-0.6503527037954931,2.4345850574872965,0.40628951865030805
-0.06765502590073023,1.0642539528377788,-0.26388131339899307,-1.354138764268976,-0.6505653038948689,2.4277257358015834,0.40599698970438525
-0.06456279437007703,1.0409992593298252,-0.2654804775342244,-1.369305169045938,-0.6508382312170746,2.4210440211868103,0.405623666780994
-0.06164333372420697,1.0181533325114347,-0.2670371175069049,-1.383669319012943,-0.6509076275250678,2.414809509804515,0.4054282524186915
-0.058737843773619416,0.9957701973668477,-0.26870836677130716,-1.3971468027306762,-0.6509813342786581,2.408659794124839,0.4052150972676678
-0.05600364039188182,0.9737855891750143,-0.2703062835576917,-1.4098194245398779,-0.6510891698811699,2.4027870183009465,0.40495166044460557
-0.053327928113791986,0.9522191558029467,-0.2719462672930515,-1.4216926475343217,-0.6511991587125069,2.3970882515341088,0.40467618806038125
-0.05068529211839746,0.9310521688067133,-0.27367329135111995,-1.4328210803164505,-0.6510797728860754,2.3916452785629323,0.4046075056626803
-0.04819726367737068,0.9102850944993293,-0.27530393278408655,-1.4431519699920248,-0.6511663022087585,2.386321415238439,0.4043460269348475
-0.045824100916570104,0.8898651912213394,-0.2769086839505309,-1.452825983311234,-0.6511515131846759,2.3813693033002474,0.4041728304189771
-0.043452815749913144,0.8698516842201224,-0.27860536818486203,-1.4617746454771303,-0.6510758039200545,2.376591102779241,0.4040759294883712
-0.04125050627145899,0.8501903117594698,-0.28019295412357736,-1.4700329252287734,-0.6510123213916026,2.3720629609286124,0.40397496803402877
-0.03917245288432826,0.8308902840672842,-0.2817302673700582,-1.477639519515168,-0.6509040983964278,2.367878711622698,0.4039080019248051
-0.03714622251142291,0.8119705253982452,-0.28327676680139974,-1.4845564485712368,-0.6507816928604675,2.3638324972399967,0.40385100384755646
-0.03518133754236077,0.7934370674196817,-0.28482626654316395,-1.4908032359565193,-0.6506659247267415,2.3600098247883485,0.403806102568974
-0.0333401772515575,0.7752621125123742,-0.286307078516082,-1.496415615216215,-0.6505435945686439,2.3564678485337502,0.4037701626405497
-0.03151466143909851,0.757482995315653,-0.2878339913873143,-1.5013585908491773,-0.6504730468697038,2.353084431851501,0.40369492270682367
-0.029799257389112967,0.7400673577333626,-0.2893010382759806,-1.5056906898692657,-0.6503948472394497,2.3499806244908816,0.403635123504356
-0.028158849321357964,0.7230391688095459,-0.2907326088417053,-1.50937490179908,-0.6503058876972501,2.3470269925981144,0.40359684070003077
-0.02662466532444376,0.7063975231059553,-0.2921173160346572,-1.512426612336995,-0.6502013426230425,2.344361964018026,0.4035706283820057
-0.02526610081720745,0.690107221321399,-0.2933542897851276,-1.5149167086453172,-0.6501035966077928,2.3420543876576287,0.4035612404028658
-0.023926468764045663,0.6742362119245456,-0.2946225954846643,-1.5167440088087794,-0.6500267351040121,2.3398633003055345,0.40354392640590125
-0.032929200406230416,1.259184121288095,-0.23836889310993187,-1.2362689509012537,-0.6684250556513948,2.483159141935036,0.3972132622508478
-0.028914785690639263,1.231242999621787,-0.2395242952881791,-1.2602943962053232,-0.6691730671396487,2.4743887238177273,0.39664126789091264
-0.025009771155375372,1.2040049394059371,-0.24083830388785576,-1.2830147770758324,-0.6695924852316788,2.465995944783214,0.39633552093275864
-0.021219582927573893,1.1774291117477986,-0.24225503723785471,-1.3044578839943208,-0.6703227939922376,2.457762188786865,0.3956761606581738
-0.017536803150602184,1.1514407766020902,-0.24377374663146167,-1.3247798977438767,-0.6707078741534334,2.449842426165016,0.39531990142040596
-0.013986600676053505,1.1260459660757542,-0.24531167121548392,-1.343905208870655,-0.6713271573458249,2.4419012708658956,0.3946842679923979
-0.010761131658018019,1.1010472415420176,-0.24666166633407408,-1.3621725026512115,-0.671629788506994,2.43455899793355,0.3943222299144138
-0.0075905248361523864,1.0765658854516336,-0.2481452678122449,-1.3794660121664852,-0.6718506055954447,2.4275218171346413,0.39400498920169885
-0.004485982550936315,1.0525697286241804,-0.24970314782047784,-1.3958014552436087,-0.6719287751621428,2.4206411093021796,0.393796443729998
-0.0014525946547798855,1.0290130137304918,-0.251311829619634,-1.411244155509081,-0.6721536401165435,2.413893753157847,0.3934220908815753
0.00147788260007967,1.0058804574144686,-0.25293521788663526,-1.4258414738092318,-0.6723281811979348,2.4073873725732367,0.393077688369585
0.004307057535808614,0.983151641740265,-0.25456888917275666,-1.4396300848973813,-0.672455857096904,2.401126657737198,0.3927635253189975
0.0069339626390458155,0.9607727083971921,-0.2561011490487793,-1.4526982727924096,-0.6724629762941211,2.395294605522693,0.39256903772690677
0.009506024948517025,0.9387992888152893,-0.25766794546069444,-1.4649492406633937,-0.6725022272421336,2.3895434905033506,0.3923154234866701
0.012011562031524247,0.9172184271360488,-0.2592500562264503,-1.4764376176779774,-0.6726023500779542,2.383940544875226,0.3920079293279688
0.0145220128158894,0.8960211118043568,-0.2609348866957727,-1.4871938602428696,-0.6727167140550268,2.3785048940649687,0.3916933377647026
0.016798137086329667,0.8751329111484084,-0.26246319108047544,-1.4973299219391467,-0.6726176972287105,2.373577033030332,0.3915746682659918
0.019009692616003104,0.8546178943791961,-0.2639972964855519,-1.506746296357859,-0.6725081646277028,2.3688075597227454,0.3914751548286776
0.021326666831813095,0.8345325552249454,-0.26570894259068073,-1.5153838348643462,-0.6725721238023172,2.3639579831712343,0.39122776828949124
0.023458851030045427,0.8147470944101183,-0.2672924747935884,-1.5234412249550011,-0.6725222342180713,2.3595352090362973,0.39107648893751945
0.02551417472197192,0.7953293540812411,-0.2688627220196578,-1.5308241026452207,-0.6724569982139846,2.355316786854561,0.3909452287687867
0.02743504552500564,0.7762531089748279,-0.27034825036905186,-1.5375728529160535,-0.6723497070239671,2.3513697017036193,0.39084754598921384
0.029256306967303043,0.7575203627421242,-0.27179226956625957,-1.5437116324815499,-0.6721575104034372,2.3477114752469177,0.39083620952050296
0.031006602455048788,0.7391614519576276,-0.27320837856851066,-1.54919083226268,-0.6720354982815254,2.3442260148961265,0.3907730401084384
0.03273371556128755,0.7211888356337923,-0.2746477145559698,-1.5540133366747524,-0.6719395848957194,2.340867360280671,0.3906974298880958
0.03436373360307007,0.7035699926684944,-0.2760342103727906,-1.5582379101931478,-0.6718429972071568,2.337778414729372,0.3906344812091676
0.03589108656431796,0.6863142569631745,-0.2773608813956449,-1.5618614457768067,-0.6717447214060223,2.334960794445675,0.3905846031226449
0.0373037027181921,0.6694308439096397,-0.27860292299301936,-1.564869105109811,-0.6716330272084264,2.332346968603955,0.39055293552047554
0.03861178967795132,0.6529212763926235,-0.2797827293349496,-1.5672825009081406,-0.671527348599755,2.3300283360780822,0.39052880878957325
