SnyprDragun/STT-for-manipulators/O2.csv
q1,q2,q3,q4,q5,q6,q7
0.15629919132277964,0.7501297919650629,0.1011231807030552,-2.368827732974952,0.10467725120542383,2.036492132818594,0.7986837032301929
0.1551103366202917,0.7172914865036386,0.10346072396791738,-2.3863538292732174,0.10376361908443477,2.0221544979964934,0.7976754592489765
0.15405097034913212,0.6841774003437332,0.10573587200743875,-2.4033963021609095,0.10328163074417587,2.007690150761406,0.7971452532866918
0.15304365937631034,0.6508014176514406,0.10806772867635892,-2.4199271933651176,0.10266736493617482,1.993107787265138,0.796432733716253
0.15207986988239575,0.6171590097887332,0.11046124450876292,-2.43592644417929,0.10193544246519717,1.9783370249687242,0.7955665887518568
0.15118719918253495,0.5832576233962813,0.11288805547852657,-2.451393450139526,0.10115140992763694,1.9634686107461776,0.7946258188719071
0.1504016053240761,0.5490896756900605,0.11529995153975174,-2.466325998089496,0.10042592762872811,1.9484735981354255,0.7937220034949561
0.14969357662518396,0.514691442097695,0.11771663851719151,-2.4806752789707094,0.09968094408558863,1.9332967479798715,0.7927708082386221
0.14901663187085934,0.48009631674295916,0.12022004330287506,-2.4944120601542843,0.0986533627044317,1.9179054786443401,0.7914628184468526
0.14844732097825775,0.4452780729225451,0.12269005118260944,-2.5075455746908664,0.0976428656645887,1.9023634260465945,0.7901436048358904
0.1479895630132708,0.41026843390352924,0.12511491266040933,-2.520058550710249,0.09665245132285001,1.8866756843500305,0.7888175570489386
0.14773576091453802,0.3750326872899835,0.12731561661067986,-2.531997458079815,0.09615638473587741,1.8709731229865432,0.7880408041450092
0.14754990916762942,0.33969942413729154,0.12949381288643064,-2.543232344217707,0.09553962737087482,1.855064083206824,0.7871041873440758
0.1474934512317468,0.3042333931273505,0.13155943963970929,-2.5538336644951114,0.09498863487850337,1.8390951718374207,0.7862322287548094
0.14752348445217664,0.2687104949583876,0.133557891469469,-2.5637286169416393,0.09436162242472228,1.8230294444398196,0.7852303668741227
0.14764903480029243,0.23316714408029487,0.13543945529355775,-2.572893671218721,0.09375399876656446,1.8068289181276218,0.7842360641683273
0.14787471383735235,0.19760031825508392,0.13716508843199263,-2.5813776430875035,0.09328298234598262,1.7906648805018346,0.7834822430235097
0.1481464241745491,0.16205927717482582,0.13881404136316927,-2.5891448731214908,0.09275348295653803,1.7745542931239378,0.7826631741305472
0.148457102534618,0.1266815869107402,0.140427361886402,-2.5960889722088067,0.09193467365503685,1.7583334212351136,0.7815496502313816
0.14889278086499355,0.09139360543198723,0.14175768935143868,-2.602335967187518,0.09144433025655108,1.7422649369326781,0.7808289026801657
0.14941008194716568,0.05636186868387027,0.14287605406085951,-2.6077475183632113,0.091071807449059,1.7261760108581243,0.7803037067302618
0.15001122309790405,0.02163844789361203,0.14385886892096722,-2.6123186385407533,0.09044943630778805,1.7101056131954806,0.7793529073895256
0.15066124959719776,-0.012762883757851957,0.14466500534415697,-2.6160855470305178,0.08982306415543007,1.6941903202926192,0.7784230376349535
0.15135429838106643,-0.04680692658445925,0.14524834506909204,-2.619063475442253,0.08931540208622649,1.6785082503400912,0.7777203790316346
0.15206672403188687,-0.08043375620886978,0.14565860216580895,-2.6212471556353645,0.08881790628636897,1.663143037842278,0.7770097229307827
0.152795547917744,-0.11356124134831919,0.14588996886945185,-2.6226053448556,0.0883149549002106,1.6480562816897917,0.7763401233413034
0.15352729493359055,-0.14613527131133128,0.14596203627840737,-2.623137954231597,0.08775874458925594,1.63331565089922,0.7756146402816648
0.15420612038060202,-0.1781799571212032,0.14590648166404924,-2.6229174776104096,0.08723920491269169,1.6190968257159752,0.7750036763121616
0.1548927495474439,-0.20954714100991356,0.1456347055666403,-2.6218601712574685,0.08681971245549067,1.6052730340498724,0.7745552343445896
0.1555629372655493,-0.24023888587178777,0.1452169251635537,-2.620010689199516,0.08632195830464243,1.5919701724138011,0.7740584307747587
0.23848330358661932,0.7696638922349855,0.14466734047621563,-2.3142309363576246,0.11408906940862819,2.0042346433880187,0.782614762104733
0.2369405189258993,0.7378255324936592,0.14775771025492415,-2.331265181272652,0.11351688349412804,1.9900541488702759,0.7819185634529371
0.23548288423628927,0.7057615691916578,0.15088393389239832,-2.3477936432343545,0.11296637410867931,1.975778339290239,0.7812183361061025
0.2341329339919937,0.6734657965662089,0.15403161636263712,-2.363813672899004,0.11240451661286249,1.9614137226977288,0.7804720852189143
0.23287654190425658,0.6409571239589384,0.15719826768618791,-2.3793032254420634,0.11186902815020087,1.9469445848693774,0.7797265549382068
0.23171942897767417,0.6082337277161356,0.16037324060755231,-2.3942535520088444,0.1113577594465158,1.9323674578376664,0.7789782576669122
0.2306041679879569,0.5753327762313886,0.16361686402326278,-2.408609345511852,0.11071346144662506,1.9175933252203339,0.778084014288959
0.22960004289513336,0.5422343347656425,0.16684481520340158,-2.4224044867492025,0.11009094170944012,1.9027134219795976,0.7771823393173484
0.22877216587303764,0.5089125179028002,0.16997155994146146,-2.4356717250619897,0.10964114083845526,1.8878352726028829,0.7764085001970763
0.22806373975902994,0.47541060476174585,0.17305331039208352,-2.448354488693251,0.10921360407341407,1.8728859390579229,0.7756304003893215
0.2274457682564042,0.44177392045360775,0.17611871998599568,-2.4604058877388955,0.10869679566971233,1.8578002969399428,0.7747341349723356
0.22697981182414756,0.4080112567065854,0.17905785523715181,-2.4718344732881214,0.10835075124517803,1.8425961787584355,0.7740398057158208
0.2266445911800448,0.3741166479066051,0.18188952078300358,-2.4826463684521167,0.10799375332840976,1.8273851467331494,0.7732503471457652
0.22642999512373616,0.3401402349115392,0.18462151495480822,-2.492815078562678,0.1076516168958367,1.8121326138773692,0.7724598666584956
0.2263132675382945,0.306126314971379,0.18726063992571257,-2.5023058383013637,0.10726100915708162,1.7968174441129994,0.7716157218488732
0.226307540681209,0.27210141354102213,0.18976463162488794,-2.5111131042790094,0.1068776498187883,1.781467235890179,0.7707853131092719
0.2264407053011257,0.23811974071879216,0.19204875316882059,-2.519210069156678,0.10666524600857562,1.766071069561107,0.7701821879444517
0.22664380540979176,0.20419406217861785,0.19425627494307,-2.5266000832298823,0.1062191592893986,1.7507087293378418,0.769330473595526
0.22699551546930893,0.1703735016837149,0.19614911802663995,-2.5332813304281525,0.10609784291558833,1.7354049903137978,0.7689308381802524
0.2273847169240872,0.13672304296519466,0.19795245907020162,-2.5392175209392622,0.10575923237362848,1.7201600105638117,0.7682805008840717
0.22785582962091752,0.10328287369695323,0.19956458016883785,-2.54439302527308,0.10538506219300967,1.7049869843452379,0.7676201699469347
0.2284285504923504,0.07007647737706318,0.2008976556598316,-2.5488307073416014,0.10514825040999025,1.6899877640672167,0.7672030099820587
0.2290023743877439,0.037130215483197955,0.20210915663364637,-2.5525659448933764,0.10478728195168555,1.6753026403633309,0.7665938518022196
0.22962321845155143,0.004491894628019405,0.20312526636445324,-2.5555644348609663,0.1043641848921365,1.6609043188100099,0.7659513925628008
0.23028713130804776,-0.027673325712674293,0.20392922808718397,-2.5577220417385527,0.10386204203752723,1.646587554609887,0.7653154218391623
0.23101388529523995,-0.0593709640869781,0.20448738716758216,-2.5590804651189156,0.1033103028951594,1.6325238080900604,0.7646344600460925
0.23177029771961918,-0.09057986968278169,0.20478336656986834,-2.5596846096792323,0.10283637597746186,1.6188080764364199,0.7640972812741519
0.23240423983829328,-0.12128706891268075,0.20502751834412933,-2.5595458840315413,0.1022490311303287,1.6055593910005646,0.7634625735667498
0.23311698192462849,-0.1514059696197586,0.20490932761054792,-2.55864974938235,0.10187990008347171,1.592728873518555,0.763162276474932
0.23382921657033856,-0.18090092104827327,0.20457997777159043,-2.5570013391770563,0.1014729519903478,1.5803802385874495,0.7627626320795968
0.3047974515233641,0.7886514350255001,0.19226963188989177,-2.2584467579655456,0.11981967397669191,2.0082236816219328,0.7606876888519069
0.3029305728665114,0.7576487831477263,0.19600692132306502,-2.275100264969951,0.11960839147857062,1.9946279713425883,0.7603308174515151
0.30115582691873083,0.7264697766416522,0.19978289213084793,-2.291237451853097,0.119422797225584,1.98097437476196,0.7599766719831502
0.29941121049482894,0.6951477641471154,0.20367955176934147,-2.3067968997826127,0.11892234263513714,1.9671335391970144,0.759216212853903
0.2977721279977904,0.6636486285749424,0.20759357475571308,-2.3218265846158666,0.11845077050945989,1.9532348895007368,0.7584576895067499
0.2961665839304407,0.6319997414441927,0.21160437703864932,-2.3362823922511704,0.11782397421366328,1.9392116233004877,0.7575447491880355
0.29467593015659593,0.6001828020403038,0.21560427907869587,-2.350194804122339,0.11723038066080942,1.9251311327986926,0.7566368927529918
0.2933454470933189,0.5681829072840385,0.21954425985504897,-2.3635836449971657,0.11672531565640534,1.9110697575019124,0.7557809181742722
0.2921434732046704,0.5360210408266903,0.2234475394501152,-2.3764060801311824,0.11625458271800371,1.8969695474345096,0.7549334087036079
0.29104649471545824,0.5037354109665171,0.22732247616583978,-2.3886296732401946,0.11575544619952828,1.8827916657140635,0.754027922336744
0.29012115616187834,0.47129381327238923,0.2310684734121732,-2.4003065865080515,0.11546313566341074,1.868642335476291,0.7533515496700905
0.2893297921673312,0.438749631993969,0.23472274558291445,-2.411372344692071,0.11519184863745292,1.8544736782984075,0.7526781667391346
0.2886736600948116,0.40612237095342735,0.23826900481833266,-2.421822112948511,0.1149373978133569,1.8402902109784074,0.7520083206956063
0.2881073570168098,0.3734884741210583,0.24176871787386423,-2.4315781525483016,0.11447720859797171,1.8259807677015276,0.7510579761619792
0.28772992695843974,0.34080411681022366,0.2450400885370291,-2.4407195475596217,0.11423626027271279,1.8116911229775565,0.7503236428013204
0.2874479439870518,0.30814898196371315,0.24820705280666167,-2.449182133890475,0.11387420622355825,1.7973966848562253,0.749464179298436
0.28732192355589165,0.27551090071422957,0.2511526353167339,-2.4570048785114116,0.11360871877685565,1.7831765866430997,0.7486956183365239
0.28731229860782626,0.24294906433342567,0.2539126497473042,-2.464151186956826,0.11333805187021749,1.7690247829616188,0.7479268063715571
0.28741342639947354,0.21050159608602112,0.2564705731936337,-2.470611707315833,0.11306177329931745,1.7549558184248641,0.7471684775546338
0.28765339805333656,0.17818115918801256,0.25874919187389134,-2.476416280641815,0.11291832264810873,1.7410773966516346,0.7466051556628545
0.28796906474283596,0.14605940796973269,0.26083894649740114,-2.4815056252413825,0.11266276483079607,1.727309919149087,0.745899751820965
0.28834972612717025,0.11421976955621234,0.2627358248148413,-2.485841626687524,0.11228624514577165,1.7136196930205125,0.7450948734106294
0.2888628623812239,0.0826760553990665,0.2642679096227012,-2.489461921603245,0.11213642090046512,1.7001030515171491,0.7446582622751855
0.2894050861394083,0.05145065243070137,0.2656495941858186,-2.492357248914984,0.11173673931268081,1.6867880232123427,0.7439745260352195
0.29000674609013094,0.020571329443310672,0.266742060533615,-2.4945731025256257,0.11141734655076366,1.6738398881856156,0.7434259277856299
0.2906569897308331,-0.009890857841878119,0.267575691485903,-2.4960646063550374,0.1110732127650771,1.6611843962306887,0.7428954895911342
0.2912646878036022,-0.039866718111206546,0.2682407738417218,-2.496797977085873,0.11063356183094669,1.648781032425469,0.7422523274579906
0.29186051290855713,-0.06933005082862187,0.2687294597147276,-2.496804378029484,0.11006422948517149,1.6367510895128397,0.7414875232890832
0.29256349962955086,-0.09830072502603217,0.26879302421542295,-2.496151555637425,0.10975624118805279,1.6251975836246475,0.7411537491048683
0.2932849181382005,-0.12670277003692945,0.26861333478697735,-2.494793849890061,0.10936449471439075,1.614107470204004,0.7407715205959993
0.37059383739533724,0.8134043980724753,0.2328207727820291,-2.1895405829946974,0.11134273085589456,2.0161835568967823,0.7361551165062173
0.36826835686783643,0.7834611930955871,0.23716549335347825,-2.205687405970557,0.11076667711125318,2.0029820169528803,0.7353417174471469
0.3660383865750094,0.7533719965415338,0.24153558064855662,-2.2213436877299526,0.11027548483998018,1.9898373798532583,0.734575046294344
0.3639128137928397,0.7231471196698548,0.24593525505465866,-2.2364751853506752,0.10981561184103054,1.9766834343549797,0.7338097752700786
0.3618942710107544,0.6927884646751001,0.2503496593241935,-2.2510758354827427,0.10938694521738922,1.9635176351070873,0.7330462972111262
0.3600004541483706,0.6622984392843951,0.25474208733435516,-2.2651423512185658,0.10906146125107871,1.9503441770203078,0.7323638455462186
0.3582210374802981,0.6316849041095837,0.25912632652380474,-2.2786536207892487,0.10876588181724561,1.9371362482835455,0.7316884619378231
0.3565623852810265,0.600958089149123,0.26348168957522733,-2.291602362394883,0.10850149317646038,1.9238988633465293,0.7310257359719182
0.3549855613228772,0.5701408196433808,0.2678592158276274,-2.3039633445370065,0.10808839673733364,1.910622638213426,0.7301706982089236
0.35353101086949135,0.5392270892506583,0.2721794887047074,-2.3157586808433894,0.10769744068107537,1.8973467265646813,0.729313310143631
0.35217732312886296,0.5082572820646859,0.2764513373442815,-2.326940204965431,0.10726955494596187,1.8840145630190788,0.728390801415923
0.35105758939116005,0.47712708430429873,0.2805090019689452,-2.337653989689056,0.10718873056255311,1.8709294826989225,0.7277969138634643
0.3500031016780875,0.4460231978734452,0.2845484239978941,-2.347664745087494,0.10688135300088886,1.8576782170233377,0.7269763885501404
0.34911012056341273,0.41486525229046844,0.28840337641216884,-2.3571113351016937,0.10673502229881425,1.8445290605107467,0.7263279459747494
0.3483520250897556,0.38370907971098983,0.2921144066605752,-2.365932717510092,0.1066183767479874,1.83142096673715,0.7256767614804963
0.34773204833248417,0.35259235431353697,0.29564900049448045,-2.374109671834563,0.10651651315939557,1.818330749438906,0.7250387904618507
0.3472274885316335,0.32153591705668283,0.299027233275258,-2.381645276198274,0.1063566233035267,1.8053153837115434,0.7243526569858262
0.3468545594322562,0.29055936548295697,0.3021968193650969,-2.3885477619560067,0.10622516660584497,1.7924072337870909,0.7237060405864038
0.3465743870758705,0.25971201279550715,0.305201245214629,-2.3947891817328153,0.10599940321741856,1.7796105579223136,0.7229761613299144
0.34644959495504196,0.22902818754954413,0.3079215796296208,-2.400368913123195,0.10589020069822207,1.7669019138451396,0.7224385674592771
0.34644262448458774,0.19847518358945834,0.31035970989884887,-2.405350413780021,0.10586423241160864,1.7545161923509565,0.7220256538736732
0.3465436201242359,0.16817613684379065,0.31253972693112636,-2.4096467262827757,0.10586994773435444,1.7422625387058503,0.72164847644746
0.34670154530252745,0.13812941096849404,0.3145276992541577,-2.413287889739762,0.10574554573355291,1.7302609300682916,0.7211577254842926
0.34701256233418787,0.10836497797913845,0.3161326067668609,-2.4162783710696885,0.10580271010535529,1.7185340828047315,0.720935551384343
0.3473233409912461,0.07901399691930154,0.31757831387055174,-2.4185223361775217,0.10564143365616586,1.7069179738997784,0.7204728855459539
0.3476968267938462,0.05003907482791214,0.3187558689524923,-2.4200935520263385,0.10545906480539148,1.695580923759797,0.720032781571626
0.34813517902989716,0.021475061696743986,0.31962197142556525,-2.420998632981096,0.10535314003568591,1.6845447197464432,0.7197160077245253
0.3486023160301374,-0.00662349432040774,0.3202552645184696,-2.421221328184009,0.1051378754019468,1.6738757948239382,0.719353410429428
0.349112052926165,-0.03424345318527781,0.32059123111149507,-2.420806314011605,0.10499013870187386,1.6636066884804852,0.7190950496562686
0.349618351093586,-0.061300767336616144,0.32072942060891146,-2.4196721341405185,0.10469554872536925,1.6536698835357961,0.7187324807490024
0.4245257174117361,0.8479005912171144,0.27396170035593737,-2.10595696162057,0.09706331810293072,2.021939118336426,0.7147326244866434
0.42181666644271476,0.8190677198105651,0.27864351083120253,-2.1217049999441824,0.09670696820667125,2.0092886577004587,0.7140639223865226
0.41920084469961516,0.7901439571886694,0.28336461588555334,-2.1369340598006477,0.09637596048940983,1.9966728804260783,0.7133946605272352
0.4166821460187926,0.7611345248845474,0.28811102844144654,-2.151635008217289,0.09607184312518151,1.9840949203409621,0.7127269699450749
0.4142645825669222,0.7320394410270793,0.29287094211898745,-2.1658038933451804,0.09579487286340213,1.9715543117191217,0.7120617480245398
0.41195197343171497,0.7028605006108005,0.29763184551008837,-2.1794360043931205,0.09554463959129589,1.959051220661501,0.7113994643473666
0.40974798838585397,0.6736013263900661,0.30238042830128464,-2.192526001530688,0.09532041016008216,1.9465865994509617,0.7107405150740556
0.40765616787149545,0.6442674203853348,0.3071025200656598,-2.2050680380856695,0.09512135306691509,1.9341623080079677,0.7100854488814408
0.40565240911683526,0.6148745048149967,0.31182042457869186,-2.217050205966814,0.09487879828570966,1.921756457858762,0.709371323916493
0.4037664552922915,0.5854271651745794,0.3164778947411392,-2.2284664779328325,0.09466155541527917,1.9094004180728237,0.7086642247677513
0.4020902471670138,0.5558431471626631,0.32095077466691946,-2.2394213771918254,0.0947141497564637,1.8973391762066614,0.708229103641958
0.40054611910733334,0.5262291009351874,0.32532590675144535,-2.249805741320886,0.09479113466175888,1.8853437715784949,0.7078060419515175
0.39913306851516345,0.49659270223399804,0.32958510056071044,-2.2596135190993953,0.09489164764143862,1.8734235496677718,0.7073986550112676
0.3978208024976252,0.46698471070525327,0.33374569296208195,-2.2687996420252556,0.09496897282968181,1.8615013954610757,0.7069648648276081
0.3965714199939043,0.4374619526102695,0.3378363588472723,-2.2773169426043887,0.09493898580010432,1.8495085408074865,0.7064280559328189
0.3954508297115641,0.40797344284977516,0.341764852930772,-2.2852363123631725,0.09492522540686225,1.8376023261321865,0.7059074234965059
0.3944731496984078,0.3785298261212177,0.3454933551623729,-2.2925717374230596,0.09496558824032825,1.8258394313835866,0.7054281068055285
0.3936208959823776,0.34918843330151783,0.3490282127469718,-2.2992886893214983,0.09500986397179131,1.814202675626464,0.7049614424865973
0.3928901783994649,0.31996845613556013,0.3523551948979711,-2.305388330985307,0.09505499524964174,1.8027055194732207,0.7045087311954816
0.39234347404994,0.29087206024210427,0.3553682887409407,-2.3108958975020677,0.09524201745721456,1.7914233021112695,0.7042330017846815
0.3919042787749118,0.26198427336761926,0.3581468235674257,-2.315747332936721,0.09544085848313541,1.7802465094253097,0.7039853745408975
0.3915375776344063,0.233290419937286,0.36073889894483213,-2.3199856529895126,0.09551944928383911,1.7693066675428197,0.703658059505391
0.39126788699661535,0.20487374048427864,0.36306862734734163,-2.323571559169175,0.09562254066218182,1.7585253084072205,0.703362160894519
0.39108630850838894,0.17673472156242495,0.3651428228941003,-2.3265234517915094,0.09570899256710859,1.7479743132618293,0.7030792208968578
0.39094987654333635,0.14890391311677068,0.3670167047139585,-2.328853100204437,0.09567307692482918,1.737713578494848,0.7027015966943445
0.3909778864917185,0.1213856749060774,0.36847521853314275,-2.330587230749173,0.09588286849328234,1.7277925623350683,0.7026122610051251
0.39097980126926807,0.09433059621766927,0.369806931398181,-2.3315939417770246,0.09580473885998238,1.7179965430125383,0.7022668774409316
0.3911023522161972,0.06762043857274581,0.3707788753200515,-2.3320400210369177,0.09586636001607411,1.708623190187016,0.7021388241676366
0.39123413103295795,0.04140159886318491,0.37152412091050924,-2.331811038203942,0.09584759224512124,1.699501512211446,0.7019319621801163
0.3914180618902735,0.015638606021407448,0.3720058819198046,-2.3309761395798865,0.09578709281739364,1.6907770088834466,0.7017674809639033
0.13664664420794542,0.804330049091431,0.08225923183976858,-2.1334834397387654,0.023111143711217016,2.015181333391359,0.6920650681183008
0.1359301500385266,0.7751392080370613,0.0836828692561528,-2.1494469846958504,0.0227412576728013,2.002590597141048,0.6915094883011011
0.1352314973896547,0.7459364348097012,0.0851271260399295,-2.1648686449070778,0.02230200858827976,1.9899882091134935,0.6908512051705132
0.13456934526284353,0.7166884120554322,0.08658062194093084,-2.1797843030127706,0.02187031787054753,1.977443512090125,0.6901926483604872
0.1339628473469264,0.6873867097666393,0.08801482785998961,-2.1942169055696277,0.021500314529878498,1.9650371539296507,0.6895905418613084
0.1334181608151939,0.6580550845470887,0.08939688218342937,-2.208130395575036,0.02131694040662496,1.9526850064723296,0.6891998686139698
0.13290131526392351,0.6287047611590546,0.09078597414053066,-2.221506135397824,0.021110024244896813,1.9403717275015304,0.6887820738387054
0.13242429708099382,0.5993406132620072,0.09216855363307917,-2.234346986445963,0.020860593602069957,1.9281248260063995,0.6883060220850914
0.1319822028166849,0.5699702336314368,0.0935354416945229,-2.2466490055081074,0.020610219835668783,1.9159495002112736,0.6878234438794809
0.13157788404450907,0.5406001221486273,0.09488268324359446,-2.2584122032101575,0.02036505034570179,1.903863667992744,0.6873438512139158
0.13123087645471646,0.5112376070650815,0.09616798871459858,-2.269637228301903,0.020238697482356634,1.8918898947092404,0.6869690610262572
0.13092398492344487,0.48190734187368256,0.09742400553842638,-2.2802990572076034,0.02011766029048305,1.8799996726559784,0.6865964163201475
0.13065574649749437,0.452625328042431,0.09864377337858077,-2.2903904849427605,0.020002821575079398,1.8682003636985427,0.6862281685914189
0.1304258493667134,0.4234088068397368,0.09982230504591791,-2.2999038723894483,0.019894911325608507,1.8565011744474202,0.6858660213409828
0.13023359582749588,0.3942764263617155,0.10095486453879722,-2.3088317396776974,0.019794257814949395,1.8449126925053216,0.6855113138945157
0.13007984191158356,0.36525702767464585,0.10203857446904607,-2.3171516768830824,0.019683439564242563,1.8334154780416783,0.6851231785986432
0.12996089979159078,0.3363636115280517,0.10306748111682093,-2.324873535115438,0.01958072505616406,1.8220538518553961,0.6847456354122763
0.1298790661033226,0.3076167797334333,0.10402494649636071,-2.331992863755093,0.019531267015724458,1.8108484249468553,0.6844097153198891
0.12982817270210698,0.279042087370805,0.1049219076047479,-2.338497861579371,0.019486649985341033,1.799807321792141,0.6840840099190323
0.12980555821492795,0.2506644697006348,0.10575491266965742,-2.3443838549088936,0.019445056640921447,1.7889466611604716,0.6837683837226594
0.12980892178756054,0.22250927571320855,0.10652138664482658,-2.349645943425082,0.019404724695037144,1.778284348502814,0.6834627544635186
0.12983342728490754,0.1946010956611774,0.10724153413596671,-2.3542788147189473,0.019273669902127703,1.7678414525080257,0.683111456795376
0.129879491717254,0.16696673866246672,0.10788772182321299,-2.3582845473030556,0.01914876822728584,1.7576407816000452,0.6827768717619223
0.12994797073780473,0.13963476726615978,0.10844167012049714,-2.3616621689861867,0.019102266500313426,1.7477051424882373,0.682561676360385
0.13003202634582733,0.11263326068726495,0.10892085635822085,-2.364394994854066,0.0190551069813198,1.7380327260668047,0.682357499037856
0.1301291948994338,0.08599333905254349,0.10932465466940025,-2.366483913381553,0.019010013821241938,1.7286427617480498,0.6821672777129789
0.1302368772487976,0.05970924538476794,0.10963953770733782,-2.3679662465481592,0.019035670895932656,1.719648925541608,0.6820380769724078
0.13035383843416837,0.03389334157581798,0.10989637508381825,-2.3687507871924036,0.018974909851669067,1.7108549685001686,0.6818764018437706
0.1304698144439545,0.00849751598340063,0.11007101383975543,-2.3689066815379554,0.018951374388839193,1.7024274123024112,0.681739496283832
0.13058538027316433,-0.016419292865146793,0.11018663218503164,-2.3684124232126518,0.018877995852011872,1.6943238611844413,0.6815558911539473
0.18816798942274668,0.8189638143489202,0.13414970133570875,-2.1007918722529966,0.015572124345291143,2.029667304927854,0.6683191240567208
0.1869855798695402,0.790171101442138,0.13642549320045355,-2.116593291280957,0.01512277023110107,2.017258574852372,0.6675780751982588
0.18587852592008092,0.7613307647159634,0.13868066152463387,-2.1319185489517576,0.01480496391597684,2.005023867396521,0.6669458800509833
0.18488889623863108,0.7324294839176253,0.14086559084257305,-2.14678525311988,0.014663450540616263,1.9929848804971995,0.6664755867974361
0.18398406205404258,0.7034953046880751,0.14301590815221144,-2.161151528772027,0.014571692368590919,1.9810711368265377,0.6660212727194056
0.1830251000908813,0.6746221591600224,0.14528421363511843,-2.174883673585498,0.014192371145972184,1.9689667081354358,0.6653127186319325
0.18213889569972042,0.6457282801921943,0.14751525433711624,-2.188079286295374,0.013903581808574214,1.9569322699275153,0.6646724375129873
0.18131218444227426,0.616832173180137,0.1497252247868158,-2.200747510906649,0.013635715770601438,1.9449731071728,0.6640452108652855
0.18058310016630114,0.5878919513612666,0.15184666726651447,-2.2129556587869206,0.013584014638052073,1.9332636120012172,0.6636437148026401
0.17991505918814057,0.5589958598444482,0.15394565739801155,-2.2245734448370666,0.013441785935052526,1.9215645271107618,0.6631155927262544
0.17927719112234497,0.5301523113381453,0.15603211828274424,-2.235604035268645,0.013241831465657064,1.9098609337894192,0.6625319176804285
0.17872219445802387,0.5013172239164079,0.1580473445717286,-2.2461251923716876,0.013120640502012728,1.8983655982270913,0.6620303240401885
0.178227716492932,0.47253196513256795,0.16000000446964194,-2.2560928610031006,0.01302296781721063,1.8870008996153753,0.661555371663664
0.17776565080814613,0.44385067441764053,0.16192337414524133,-2.2654390407363962,0.012848014824089824,1.8756375465229986,0.6610290427732878
0.17739772395991904,0.41521512486565965,0.163714386788866,-2.27428419674808,0.012881270255244758,1.8645505839658085,0.6606800439383117
0.17705960844714586,0.38673173650079795,0.16547834493316987,-2.2824698579174374,0.012756543335246623,1.8534540485497029,0.6602022161248031
0.17678632895794,0.35834644186522374,0.1671421334972859,-2.29012637809664,0.01270587933970758,1.8426237211822079,0.6597733471956401
0.1765561590058726,0.33011900824384816,0.1687291883931492,-2.2971738876588694,0.012610288406614252,1.8319284152596969,0.6593148760021342
0.17638464976471105,0.302065278729393,0.17020433078052286,-2.3036154526352455,0.012579064884857518,1.8213933760167527,0.6589054910659915
0.1762656918087206,0.2742204979217102,0.1715732858192118,-2.309422536729565,0.012551349181588248,1.8109560549870973,0.6585759213056367
0.1761973834902191,0.2466051423723664,0.17281454327385198,-2.314640778533388,0.012606726837932068,1.800799619169745,0.6583280218057472
0.17616728689272354,0.21922369204458508,0.17395207095426318,-2.3192471231934055,0.012656443756595333,1.790857844843688,0.6580872340383657
0.17618603445508801,0.19209423526663053,0.17495889453965469,-2.323264559983855,0.012752534335171045,1.7812297684894847,0.6579309499529146
0.17623733243175116,0.16523036858540174,0.17584307255283776,-2.3267089190252674,0.0128741976756777,1.7719512686408057,0.657802204312033
0.17630331595825094,0.13874120095016892,0.17664297789726643,-2.329465976825312,0.012903649980261632,1.7627814786884055,0.6576146962286851
0.1763901645821233,0.11260714070197296,0.17732982682969356,-2.3315924287840883,0.01292139644050636,1.7538919561894943,0.6574357124159625
0.17649443746222732,0.08685400817977354,0.17790290210568552,-2.3330921130025044,0.012932850720173545,1.7453004486981114,0.657268830587541
0.1766082215260769,0.061518331793654873,0.17836000391688636,-2.333950938688731,0.012958700272664351,1.7369924342752996,0.6571141889359341
0.17673004035874543,0.03663693499101479,0.178716638754634,-2.3341525264644787,0.012932843972167173,1.7289299500322057,0.6569442015591538
0.17685693558376117,0.012214310864112645,0.17896210889920686,-2.3337325193860297,0.0128968605775904,1.7212318396286637,0.6567887366970273
0.23390813510664923,0.8416262863443771,0.1865883730593462,-2.054198072783963,0.0033733755577042297,2.0463188333357514,0.6440285585918445
0.23227738762920888,0.8133433309810708,0.1895902779566252,-2.069854989099331,0.0030344103633981392,2.0342557345726613,0.6433154463913395
0.23071307929321005,0.7850471093300251,0.19259024330037983,-2.0849886938653817,0.0027140877036652064,2.0222706197729656,0.6426032245802704
0.22921798129433266,0.756747767594274,0.1955956136469839,-2.0995974607631642,0.0024139160393246714,2.010369103198393,0.641896945273388
0.22779161798726513,0.7284464966311811,0.19859663976331027,-2.1136792968159606,0.002134583392404548,1.9985514081167275,0.6411982167759058
0.22643555470123147,0.7001467783271937,0.20158565119743876,-2.127231565535991,0.0018769029143995443,1.9868186818632194,0.6405086959264579
0.2252368383759515,0.6717698831195303,0.2044387742917428,-2.1403790882479177,0.001973724865057335,1.9754722744769226,0.6401484424376258
0.2240949413765739,0.6434284173813558,0.20728732419457893,-2.1529561036603373,0.002006165336843782,1.9641457385054202,0.6397157499927167
0.22304347609401573,0.61509607922775,0.21007688048327294,-2.1650066770881895,0.0020840783964612567,1.9529382287107482,0.6393030231185365
0.22197249693708843,0.5868660141957199,0.2129391883732874,-2.1764195592472615,0.0018971516197889887,1.9416063204336957,0.6386629629013225
0.220986137977003,0.5586649786110403,0.21572982164138269,-2.187273350450013,0.0017910932973963772,1.9303733900437818,0.638085703604097
0.22007620395451144,0.5305175900567245,0.21845807087716396,-2.1975792129459157,0.0017069375430574033,1.9192476152525577,0.637527748861443
0.21927728290252793,0.5023895016410953,0.22105451418663394,-2.207395663782571,0.001825121166043358,1.9083834892521543,0.6371854343268435
0.21857293533588498,0.47436294766354786,0.223545968362663,-2.2166181641162086,0.001976636235122436,1.8976004149925878,0.6368777761610778
0.21791582749071275,0.4464327643215129,0.22599189464411837,-2.2252690607858954,0.0020072161592717425,1.8869503178790485,0.6364370217102311
0.21732812695563006,0.418612971072098,0.228341226750571,-2.2333566255069903,0.0020453459977001942,1.8764587013160916,0.6360134311512142
0.21678739279545728,0.39095637771437947,0.23061641390410081,-2.240819087673106,0.002011153425434032,1.8660222413799032,0.6355561521954256
0.21635816565932145,0.36340325804885176,0.23271316417945484,-2.247780866937975,0.002157690312402627,1.855912195571044,0.6352692485163506
0.2159860370040039,0.3360409734210394,0.23469849133511742,-2.254120610232616,0.0022632945897860138,1.845936387414527,0.6349623609391543
0.2156772840728224,0.30887296121900604,0.23654855122927104,-2.2598839310837633,0.002427019213873582,1.8361714103845914,0.6347120660955958
0.21544502384918993,0.2819470076913194,0.23824633208511448,-2.2650121361926483,0.002620071403567814,1.8265201104354822,0.6345544505963762
0.2152553187299233,0.25524832611648873,0.23981811826379287,-2.2695747990346917,0.0027731697469725414,1.8171555228464145,0.6343463900688611
0.21508396101428465,0.22885584183102628,0.24128123448897248,-2.2734762261161108,0.0029047251548906393,1.807892908132538,0.6341063278680256
0.21496039851487506,0.20275837296683485,0.24259931741701382,-2.2767769784727676,0.00303199838811039,1.7988784494051764,0.6338837211349498
0.21488916537608718,0.17697095122401763,0.2437582304700941,-2.279484888586028,0.0031589190246092223,1.7901525090114312,0.6336863725274038
0.2148597826609165,0.15150207361379078,0.24476787392641652,-2.2816249317056165,0.0032524586329277117,1.781791425217328,0.6335267011440234
0.21485771261355158,0.12639742706621515,0.24563120069241381,-2.283162079394344,0.003332991681423583,1.7737316558387644,0.6333787355044806
0.21487520813888505,0.10169927206175469,0.24634933657657643,-2.284074530445187,0.0034152118411210526,1.7659320078697491,0.6332408804140514
0.2149102854326243,0.07741575656565987,0.24692395110327534,-2.28438565862538,0.00347885714507083,1.7584604855692807,0.6331125524858164
0.21495810235297752,0.053570498288339985,0.24735658265679672,-2.2840975235527154,0.0035256603588464195,1.75133335079256,0.6329960118250647
0.2733414782866234,0.8733389993590587,0.2395643681309334,-1.993864742492954,-0.011394169613255935,2.0645911133727317,0.6204011415183864
0.27121686584618326,0.8456596338161626,0.24318705215179984,-2.00939860862053,-0.011581311773851492,2.0528977068257444,0.6197700818418093
0.26913690318231703,0.8180026053006293,0.24685299136830144,-2.024389245180163,-0.011807350182063277,2.0412679420667588,0.6190898700212732
0.26713316381664587,0.7903647277766345,0.2505178215797596,-2.038843501656834,-0.012004648073610628,2.0297484807901545,0.618423021591947
0.2652080267243163,0.7627425519079443,0.2541740692109447,-2.0527618591128265,-0.012188929632976396,2.018321007512597,0.6177528065136748
0.2633641719908022,0.7351434449412394,0.2578200791426217,-2.0661432938590707,-0.01234959331452194,2.0069990854101514,0.6170926631114234
0.2616006092582444,0.7075683564993835,0.2614445138582394,-2.0789877857591823,-0.012486724938659604,1.9957826772435454,0.6164438913677333
0.26003717437628776,0.6799063385572043,0.26488459291783684,-2.091469822825008,-0.012225117719734703,1.9850931563759353,0.6161407503171022
0.2585292336676829,0.6523114867546799,0.26831912079983866,-2.1033566173986498,-0.012035567046962996,1.9743850217762655,0.6157717670969106
0.2569999035930219,0.6248465207595718,0.27183226863221027,-2.1145886876314,-0.012127424811671393,1.963525140496121,0.6151570724145781
0.2555725066707495,0.5974227401386246,0.2752587449205944,-2.125265259285949,-0.012120824428780224,1.9527951586811931,0.6146203540653601
0.2543084505850505,0.5699775445526839,0.2785098074817574,-2.1355229563093965,-0.011821871481810313,1.942463025622548,0.6143961360773328
0.25308150480969305,0.5426536329228139,0.28172405606428236,-2.145153917239275,-0.011568989214557134,1.9321025910293124,0.6140955246746941
0.2519445437952603,0.5154156907444523,0.28484501828991005,-2.154232404946912,-0.011308659866632348,1.9218923854279557,0.6138026494217418
0.2508951402651325,0.48827633905324863,0.28786109923202446,-2.1627551742403077,-0.011042856419551963,1.9118401139194663,0.6135185836950401
0.24990250530529245,0.4612819442876294,0.2908095572563073,-2.1706614504111004,-0.010861452862577031,1.90181388889556,0.6131786131468876
0.2490439329131574,0.4344080688351105,0.29356711707891453,-2.1780387785913735,-0.010600219489966452,1.8920542609418902,0.6129070854810293
0.2482661402891545,0.40768155754208996,0.2961989184921816,-2.184844258068712,-0.010339952861184535,1.8824596295386256,0.6126459152440615
0.24756706428069838,0.3811292984150977,0.2986920820089187,-2.191074560193629,-0.01008321903125248,1.8730457332723833,0.6123981567892864
0.24692469283956206,0.3547757762365339,0.3010671046828986,-2.196720719118686,-0.009889272114112887,1.8638157812972027,0.6121259045014442
0.24636171371528295,0.32867659247155373,0.3032682584988785,-2.201737344217465,-0.009606126875724054,1.8546695409741512,0.611968264967684
0.24582055081651122,0.30282062494640394,0.30538069388500255,-2.2061631654657385,-0.009476407305652313,1.8457329005108094,0.6116557561493899
0.2453513383135408,0.2772057892075283,0.3073034139611324,-2.2100224923870138,-0.009256332279581034,1.8370237443737163,0.6114390891306029
0.24497547450188042,0.25185743622366763,0.309022207915147,-2.2133285990912146,-0.008990584619161223,1.8286648097565639,0.6113293672909695
0.24463615467198835,0.2268296996838736,0.3105874458917935,-2.2160255831925735,-0.008778249953357624,1.820489635215599,0.61115274862736
0.24435077213857823,0.20212321955160853,0.31198058764863046,-2.218152738200817,-0.008581299238488828,1.8126270598169865,0.6110121381359107
0.2441127503015775,0.1777514472106853,0.3131927654557103,-2.2197203622926045,-0.008380612070116812,1.8051109920514643,0.6108927494670137
0.2439104148009711,0.15375166728631653,0.31423628282857896,-2.2207034405325623,-0.00820659920954023,1.797885549135422,0.610779773567878
0.24373846293865112,0.13014945205668532,0.3151112148931594,-2.2211038502052056,-0.00805597515629338,1.790969891094275,0.6106762947074512
0.24358282419207186,0.10699001370732134,0.3158308600592056,-2.220894084722089,-0.007957362236835979,1.7843152095438375,0.610579955197586
0.30987363485157454,0.9136951351057047,0.29086781456374383,-1.921445777718617,-0.030561513602594095,2.087875830513231,0.5982115327051831
0.3071876462959203,0.8867002197612995,0.2950273458097779,-1.9369027527664788,-0.0306751454780399,2.0765102562864586,0.5976049965069208
0.30455141696727656,0.8597550120639581,0.2992374402616533,-1.951802307063138,-0.030824940463288195,2.065236276190036,0.5969528415952987
0.3019956990995212,0.8328526459385046,0.3034504144880758,-1.9661540223263307,-0.030942381847245855,2.054093681615184,0.5963165647110441
0.2995668538253557,0.8059213573528567,0.30758553774342895,-1.9800628476310316,-0.030761152129852476,2.0433026999629695,0.5959643166529274
0.29722821295063995,0.7790411176506076,0.31170718182785456,-1.99342656592697,-0.030556769433078296,2.0326496734484616,0.5956226630618191
0.294963945676944,0.75223409163421,0.3158030666569555,-2.006196816811851,-0.03017036790753686,2.0220173685718352,0.595459424420139
0.29278626753497794,0.7254666931676442,0.319865204250312,-2.0184300850945958,-0.029772464289309894,2.011516517602162,0.595300593445028
0.2906354110682577,0.6987709438747972,0.3239552458065392,-2.0300977415467685,-0.029526095987870815,2.0010795325750075,0.5949829798588108
0.2885834852099977,0.6721461472538615,0.3280036934556465,-2.0411895598105,-0.02930725965595692,1.9907286178278258,0.5946260570185193
0.2867532704628402,0.6455160719605688,0.33183887387606004,-2.051839132342338,-0.028962870425033743,1.9807471282302462,0.5943836666149217
0.28493107948249907,0.6189883933850595,0.33569172502860467,-2.0618901718782405,-0.028698065018347034,1.9707862990056053,0.5940746280925414
0.2832048240081893,0.5925458878617309,0.33945596775211506,-2.071393251328598,-0.02841920272170577,1.9609773473118826,0.593777940887039
0.2815741470630413,0.5662139786890678,0.34311657326112044,-2.0803199285639793,-0.028086393582590276,1.951270270038841,0.5935059228896866
0.28003321757116995,0.5399849295496405,0.34667278488286657,-2.0886937383311728,-0.027748361591164623,1.9417185236579257,0.5932424095666772
0.2785467802221791,0.5138810991586868,0.3501659613524757,-2.0965191897882183,-0.02752618282665221,1.9323525854044186,0.5928856490072196
0.27714804770500917,0.48791018989960405,0.35353196039146134,-2.103787150110885,-0.027300122649924572,1.9231562486236462,0.5925407052456306
0.2758386760325167,0.46209036827816213,0.3567618213366111,-2.110495052354115,-0.027070446598195685,1.9141401008423227,0.5922094464793304
0.27461867492366027,0.4364381177110558,0.35984434322142794,-2.1166417935486344,-0.026836584946850144,1.9053142862168404,0.5918949216591461
0.27348202048129,0.4109754535961763,0.36277540901358757,-2.1222188543745895,-0.026577846119091416,1.8966758239995332,0.5916261220525303
0.27246283039946473,0.3856619459935019,0.3654879964766055,-2.127316486271575,-0.026254635124481184,1.8884351675312885,0.5914330849500292
0.27147410864240124,0.36065549266311625,0.36811627743781056,-2.13173290182658,-0.02611222710269544,1.8801528013539586,0.5910965058443852
0.2705539250218727,0.33589083074772563,0.370574436622814,-2.1355847723772903,-0.02595851628616726,1.8721071287543385,0.5907749092506243
0.26970568256353544,0.3113934455313597,0.37285415375139297,-2.1388686658653264,-0.02580908566572464,1.8642907309857821,0.5904719070667483
0.26892512440572275,0.28718612060298376,0.37495040148599174,-2.1415820062792643,-0.025665475971967878,1.8567165737755638,0.5901883110615965
0.26822927670318875,0.26329385891733054,0.3768339004450654,-2.1437134438874983,-0.02546635091004997,1.8493785287315034,0.5899925619246852
0.26761591534219553,0.23968744568032951,0.3784846637742264,-2.1453499932590088,-0.025219014947210426,1.8424455253617344,0.5898841502148765
0.2670728139357467,0.21644357912158804,0.3799303902575563,-2.1464003366981976,-0.024967417883710534,1.8357822289082784,0.5898323966702765
0.26654545244702393,0.1935953240376995,0.38122897353004603,-2.1468491234983147,-0.02481071749524364,1.8293061427004207,0.5896990363058867
0.26604679821804567,0.17116335028249985,0.38236022573878076,-2.1467233037073483,-0.024711968393657243,1.8231152089331233,0.5895350506019769
0.043809336738447544,0.8953259658277556,0.13981450939617718,-1.8932655642170904,-0.05869923407793866,2.0912900935451635,0.5788377329233785
0.042689508505218195,0.8684918615697719,0.14169962033948885,-1.9087834843025,-0.05868919598857014,2.0801538685950502,0.5784624934092532
0.0415568727733675,0.8418169299259612,0.14365674559061842,-1.923654063219154,-0.05892610617168507,2.0689934626873563,0.5778616122956741
0.04052585707403179,0.8151692220370644,0.14552974447659195,-1.9381063362525783,-0.05887601627754091,2.058190145450576,0.5775037611765768
0.03952849999740327,0.7886421149152747,0.14739664460841445,-1.9519960274818935,-0.05879967955943318,2.0475432334234727,0.5771591700984304
0.0385805414537059,0.762217255135318,0.1492453568113184,-1.9653499562843888,-0.058711784146222766,2.0370499851253037,0.5768242265269975
0.03768265562496621,0.7358970665999013,0.1510687218225874,-1.9781702502900886,-0.058609079572280835,2.026719729879889,0.5765039259210684
0.036803717629838494,0.7096956208935784,0.15290023649336532,-1.9904373153646158,-0.058564149569293136,2.016502729505284,0.57614927834855
0.03596982440874894,0.683612074439887,0.15470234671280975,-2.0021679383175695,-0.05850329465555029,2.006446255877213,0.575808492935624
0.03518091316688137,0.6576501629369699,0.15647201195081706,-2.0133619276648345,-0.05842948331710649,1.996551601906312,0.575479404585874
0.03443626736401628,0.6318171597786936,0.15820558679507865,-2.024018120512,-0.05834526832563677,1.9868209710393636,0.5751603856720999
0.03373026797741161,0.6061016243740368,0.1598897208639218,-2.0341810952293122,-0.05813799299725095,1.9773670428857102,0.5749695987871332
0.03304355094754543,0.5805670928334642,0.16156597589144892,-2.043720646446274,-0.058048275715667834,1.9678780729382064,0.5746692610986153
0.0324021188372944,0.5551954688094195,0.1631943140008162,-2.0527155113005713,-0.05795053608717524,1.9585679465381052,0.5743800373483029
0.03180355432385196,0.5299911891312294,0.1647691408162573,-2.0611658055503796,-0.05784334818074518,1.9494372758431062,0.574103872295864
0.031243335201097792,0.5049750306531554,0.16629526923922577,-2.069053790065933,-0.05776891668525777,1.9404813046140625,0.573806972360695
0.030763070779398598,0.4801103543585556,0.16769982387827534,-2.0764681982480195,-0.057525890142901166,1.9318621805196918,0.5736910108703056
0.030310995624133596,0.455460243349637,0.16905861290665372,-2.083306729895694,-0.05733623659177372,1.9233717243719635,0.5734935325835341
0.029865520593973502,0.4310662964787473,0.1704100275639914,-2.089526306040873,-0.05728445646677095,1.9149795185999638,0.5731951492470125
0.02947650425816104,0.4068413201477445,0.1716356797375824,-2.0953123521374226,-0.05711312058289798,1.9070055879184062,0.5730444609015585
0.029117489334588523,0.3828806901678032,0.17279854391257068,-2.100506588398229,-0.05691979681154856,1.8992063824621312,0.5729029129847099
0.028781277123405623,0.3591626346041678,0.173885256808157,-2.105176313950018,-0.05666402001177513,1.8917133861070012,0.5728525644946569
0.028483113663772576,0.335741313719664,0.17489091091441875,-2.109263357898779,-0.05642217205164185,1.8843984561262834,0.5727575318832325
0.028203081016278223,0.3126210865432927,0.17583528823614938,-2.1127741881826534,-0.056217852214204334,1.8772898110343723,0.5726676295511968
0.02794947980143279,0.2897753271467468,0.17670472357540914,-2.1157787452375705,-0.056075944713810326,1.8705400236990672,0.5725384791331322
0.027701350858041877,0.2672984458543544,0.17752335128744484,-2.118164635966871,-0.056010984120722085,1.8639314004114258,0.572355283595812
0.027474522099453082,0.2451572415435664,0.178264353497461,-2.119999329443668,-0.055949214985904466,1.8576039517664165,0.5721870886526444
0.027265240159678787,0.22337148555690428,0.17892599204463575,-2.1212804463330155,-0.055890250056837475,1.8515686728374283,0.5720343028260495
0.027073259008513824,0.201965813429078,0.179503444028254,-2.121997933103283,-0.055807193098292324,1.845824427999794,0.5719145276566407
0.026892880027335673,0.18094104007633147,0.18000357664412922,-2.122171234898958,-0.05573472909451272,1.8403875848907316,0.5718022993692057
0.0732049354781751,0.9096777219006047,0.19848442515236284,-1.8809576449583478,-0.06605383853256072,2.1509176242556682,0.5604868589032466
0.07146415512103614,0.8828649403803625,0.20116631328631687,-1.8966576381304092,-0.0661297065412411,2.140251326500159,0.5600325477809914
0.06977866036929575,0.8561786169498926,0.20384889430213296,-1.9117636220868768,-0.06629296935543104,2.129664951440675,0.5594739082098781
0.06817254539039377,0.8295673519318887,0.20650832924496404,-1.9263636268405624,-0.06637179146388635,2.1193232601138234,0.5589933380935702
0.06657415405305211,0.803072326461186,0.20919001757589953,-1.940403107015158,-0.06629807805667129,2.109085846196611,0.5586587049514727
0.0650401970728749,0.7766883719978267,0.2118511773453806,-1.9538842063609758,-0.06620213249928508,2.0990051938897643,0.5583379912250958
0.06358196875056428,0.7504015877885075,0.21447374690069135,-1.9668349669509753,-0.06608896372856718,2.0891270237843567,0.5580240124760503
0.06218659879577801,0.7242241344753853,0.21706661243151903,-1.9792448078510738,-0.06596084645287231,2.079399922162627,0.5577196903728229
0.06088550431193755,0.69815017618401,0.21959857767984153,-1.9911222233903896,-0.06587753645684397,2.0698660777887317,0.5573853341120049
0.05964657445439159,0.672196183487698,0.2220884080092646,-2.002462014086981,-0.06577879734243507,2.060490330606304,0.5570642937271604
0.05846962194405005,0.6463687413045828,0.22453029848447212,-2.0132600102267646,-0.06566546830714363,2.0512778134531326,0.5567570020727978
0.057354229959752374,0.6206754624381803,0.22691834519272186,-2.023516148728385,-0.06553829416097835,2.0422324712638886,0.556464001913131
0.05629976334455893,0.5951250532852084,0.22924677587946637,-2.0332299554137894,-0.06539803407827845,2.03335851422945,0.5561858115881582
0.055310096037156406,0.5697589480460005,0.23150096224577826,-2.0423471207793313,-0.06515236285433076,2.0245420979534408,0.5560174644767387
0.054335955527059165,0.5445666183941388,0.2337432481867146,-2.050901832433584,-0.06506533863256353,2.015869900384342,0.5556836138977171
0.05342502356643599,0.5195308875695591,0.23589092835958608,-2.0589320794554147,-0.06486395535670246,2.007389620758838,0.5554468561565161
0.05256618841161128,0.49468930576653886,0.2379848085597483,-2.0664241289927885,-0.06484312026224809,1.9991519112414968,0.5550759625336757
0.051755104956498876,0.4700473694498961,0.2399969050733658,-2.0733657518072373,-0.06479627146239884,1.9911109340839557,0.5547215101359573
0.0509980035349656,0.44561931368376256,0.24191940059306868,-2.0797589662480545,-0.06474044937216779,1.983268768781234,0.5543846295358299
0.05029249587921428,0.4214213274417043,0.24374762118028284,-2.0856000002647246,-0.06467666825316577,1.975634028836623,0.5540660200638808
0.04969553306634683,0.3974249531611939,0.24540016073773965,-2.0909544375292293,-0.06446778891641473,1.9683608148451313,0.5539170995963021
0.04910004295889572,0.3737457831800425,0.24701399049094352,-2.095665913630333,-0.06436826068529503,1.9611292570765837,0.5536662891183508
0.04854723072032326,0.35033720927419054,0.24852420495470284,-2.099831008085362,-0.0642700260569474,1.954127788088055,0.5534281574794426
0.04803955239554008,0.32721435644090263,0.24991965164311702,-2.1034506458008813,-0.06414632390894226,1.9473923222740923,0.5532231716793043
0.04756917866428165,0.30439854974697406,0.25121023459177205,-2.106524115449668,-0.0640323335550166,1.9409175444496505,0.5530279692003487
0.04715720969837921,0.28186625949676064,0.2523530714266064,-2.109112591576066,-0.0638154462857769,1.9348602609080243,0.5529831522006707
0.04677193161308598,0.2596868842519315,0.25339078054827385,-2.1111250155326196,-0.06360987125012102,1.9290161400179928,0.5529484103512201
0.04639377507862455,0.23789463926424587,0.2543537101857814,-2.1125436049347295,-0.06352642033916722,1.923354848350048,0.5527949564330822
0.04604450575207919,0.21647166612062804,0.2552074183710358,-2.11341751604352,-0.06344967381075607,1.917989152252291,0.5526561960967575
0.04572151132277915,0.1954466090135041,0.25594526601951945,-2.113733417941493,-0.06335031718323839,1.9129091013965793,0.5525468454711756
0.10732515904174345,0.935237037067289,0.2516067779746673,-1.8493718080743196,-0.07616789710897627,2.2004858874483015,0.5452252133148294
0.10493275516139887,0.9086160264292901,0.2549752897285947,-1.8652587128028222,-0.07630595918248533,2.190223919024687,0.5447213700836273
0.10258645020286317,0.88211694934175,0.2583750722721867,-1.8805744608207509,-0.07654579029751228,2.1800777113705574,0.5440959628635476
0.10040986590231214,0.8556649883990447,0.26165284665251604,-1.8954157775199438,-0.07640795438568188,2.1703742707341385,0.5438529730631859
0.09826146217850609,0.8293609377809078,0.2649628182060459,-1.9096325693551983,-0.07621956251779179,2.1606868903640226,0.5436275041968665
0.09618386765996655,0.8031542921545889,0.26825908586540187,-1.9233124056225959,-0.07603387401408462,2.1511712929980367,0.5433865994259203
0.09418835335430575,0.7770603292408532,0.2715230672443602,-1.9364322183718137,-0.07583369971591002,2.1418207685417174,0.5431495466283215
0.09227080564292633,0.7510870968242589,0.2747542215225556,-1.9489776979196523,-0.07564787961950399,2.132570278965139,0.542893324610595
0.09043339780849995,0.7252305358183119,0.2779431948878492,-1.9609702378639122,-0.0754475544570977,2.123479525713675,0.5426446583414328
0.08867435875634026,0.6994948977597485,0.28108265893721524,-1.972412628161353,-0.07523333908920739,2.114548056184873,0.5424047640348831
0.08704458813066819,0.6738689065723802,0.28412031672206184,-1.9833207743292713,-0.07505454763744082,2.1058162137727825,0.5421387225936677
0.08542796548471704,0.6483929675388506,0.28716902032058883,-1.9936764787853347,-0.0749840236525162,2.0972340156712868,0.5417754745194434
0.08388728843840133,0.6230568666035191,0.29014507272835705,-2.0034858102747726,-0.07489519702088895,2.0888218856384477,0.5414301572034815
0.08241014532591734,0.5978773210427912,0.29305726530295895,-2.0127367499089845,-0.07476356502102655,2.0805606199034936,0.5411297645443405
0.08103713583260193,0.5728143947711564,0.29583693846395964,-2.0215267213762727,-0.07454642848314177,2.0726756137198503,0.5409105966564053
0.07971711943887015,0.5479716254393978,0.298569315722155,-2.0296768195155956,-0.07441387705797037,2.0647654308098056,0.5406131383878366
0.07853754656239742,0.523276287029404,0.30112208451493455,-2.037327777988295,-0.07416885447375375,2.057140742117095,0.5404390120245051
0.07742731333355804,0.4987794065227313,0.3035748475517347,-2.0444288129304544,-0.07391975914930714,2.049718005333094,0.5402750738128644
0.07638360587750845,0.4744916616883339,0.3059211979033261,-2.050984267237652,-0.07366755138091002,2.0425018439699154,0.5401212807013981
0.07540438740160813,0.45042694935790756,0.30815582044646106,-2.0569943597775153,-0.07341279235172289,2.0355000905043292,0.5399776441752512
0.07448361805351594,0.42661213318422153,0.3102803627782741,-2.06243428083334,-0.07317394222483875,2.0286590575869354,0.5398308551964733
0.07359325568938123,0.4030573556762811,0.3123227367877019,-2.06732234463565,-0.07297943161518927,2.0220360247256695,0.5396625141283369
0.07275776386876003,0.3797705371118919,0.3142397370408609,-2.07166916760956,-0.0727894167811252,2.015655731470774,0.5395031704734573
0.07197570949921187,0.3567675785009719,0.31603036470581264,-2.075472281023318,-0.07260508623370258,2.0095230325968103,0.5393524374538338
0.07124400507975391,0.3340657774631507,0.3176921984144995,-2.0787298937173717,-0.07242681724837109,2.0036400618019896,0.5392106419031841
0.07056254326791114,0.3116999958883643,0.3192137448388226,-2.0814064908437593,-0.07220978943800742,1.99792825336878,0.5391388764142194
0.0699152739508399,0.28962823538193877,0.3206119797604088,-2.0836141565731223,-0.07199823190360488,1.9926604914663164,0.5390651055889969
0.06929684234239131,0.2679934856792839,0.3219192862243296,-2.085136703798192,-0.07192082512552814,1.9873382222083538,0.5389106688308296
0.06873420442028082,0.24664106576658432,0.3230435726801564,-2.0862443646626394,-0.07176306127178646,1.9825726386726068,0.5388466786643621
0.06818887332581773,0.22573339154860686,0.3240712625136699,-2.0867181462635513,-0.07168633184501653,1.9779021664246306,0.5387254412481572
0.14103489594126503,0.9723089891641119,0.30395928998731564,-1.7993793562559595,-0.09066764459488758,2.2416744784409053,0.5340787655319177
0.1380866129886048,0.9459355239629509,0.30779531136907523,-1.8156073777624555,-0.09070553848390112,2.2319903520760387,0.5336758282574929
0.13514922886092418,0.9197598637095707,0.3117255819379262,-1.8311284599090918,-0.09087739712193206,2.2222402149897214,0.5331446460975755
0.1323060101634565,0.8936801159575375,0.31564134012168044,-1.8460990417810212,-0.09095604148635723,2.212716232012569,0.5326809933436696
0.12954987151145692,0.8677284711280897,0.3195463896070489,-1.8604834357348135,-0.09100693593011888,2.203366320993667,0.532233768647931
0.12688090745717548,0.8418954309684205,0.32343404535592296,-1.87429429186155,-0.09102977320000834,2.1941873141327175,0.5318039266682311
0.12429833422932013,0.8161805981806053,0.3272973821455435,-1.887536872013606,-0.09102533898612808,2.1851782463092153,0.5313913623206884
0.12180104070372103,0.7905851443581234,0.3311297326218922,-1.9002151150227475,-0.09099527327418273,2.1763376531372476,0.5309951591675046
0.11937019709194917,0.7651264543572267,0.3349447264992287,-1.9123105118296326,-0.09098138004809343,2.1676139679290247,0.530582436694397
0.11702218353112352,0.7397919200861572,0.3387167977632137,-1.9238463553376839,-0.09094861777443154,2.1590514991873975,0.5301820478793449
0.11474254847875665,0.7146026786941784,0.3424529369831723,-1.9348016041441587,-0.09090595003559875,2.150610976219624,0.529789891215462
0.11254855215077617,0.6895446548942257,0.34612637155903625,-1.945206374401453,-0.09085480241018166,2.142332848946743,0.5294040392495462
0.11046435581003368,0.6646091593891035,0.3497005132758175,-1.9550837595698118,-0.09073967265952948,2.134286045347203,0.5290720567012483
0.10847181229820212,0.6398266721268797,0.3531854636574439,-1.9643966768102377,-0.09056470300315461,2.1264026837681733,0.5287976438463979
0.10663818651538345,0.6151678770505071,0.3564974579485789,-1.973211204815939,-0.09030801884127229,2.1187943670179195,0.5286153374083308
0.10488930581470769,0.5906788586681766,0.35971458333855233,-1.9814687306541054,-0.09004395895283743,2.111376871984213,0.5284430703898396
0.1032226933023177,0.5663683468331429,0.3628283288048089,-1.9891786843093273,-0.08977381070168361,2.1041506014240743,0.5282808496318615
0.10156339584259923,0.5422900416623232,0.3659157842876866,-1.9962795657179353,-0.08954273257667342,2.096968975386812,0.5280872369944559
0.0999755232341796,0.5184354063187241,0.36889795198837444,-2.0028134894013276,-0.08943814840644923,2.0899594016782475,0.5277904370688942
0.09850169150731812,0.4947342188376992,0.3717207513340366,-2.00888075054745,-0.08921730089502165,2.0833085540763476,0.5276071888109494
0.09708407923560822,0.4712911207111721,0.3744289421647811,-2.0143730907035677,-0.08902575827339645,2.0768268234260963,0.5274096594554661
0.09573846676818927,0.44808926888628414,0.37700650806460745,-2.0193238749012075,-0.08883522770192019,2.070564224311543,0.5272227510599082
0.0944639770780693,0.4251455262916723,0.37944517966237534,-2.023732665166641,-0.08864644704675068,2.0645330186409585,0.527047693316326
0.0932609816490334,0.4024737254341299,0.38173733617322897,-2.0276027464606745,-0.088459669148099,2.0587462779575807,0.5268854309720719
0.09212947771366437,0.38008852761709777,0.38387603420408406,-2.030936432716931,-0.08827244215515742,2.0532147490654253,0.526737801172115
0.09107701261525636,0.3580137839985706,0.3858461008570854,-2.033713543693912,-0.08805924430206179,2.0478965205730124,0.5266196034162035
0.09003827675939403,0.3362757271507206,0.3877148254168209,-2.0359425048728563,-0.08788127143466257,2.042811731435477,0.5264792710000646
0.0890726385393944,0.3149027446470745,0.38942018225668823,-2.0375841377490373,-0.08776425633008343,2.03787945819608,0.5263238555167716
0.08814634066259812,0.29387909084024477,0.3909962033807069,-2.0386867447692163,-0.08768698486797882,2.0331761827120567,0.5261428793272726
0.0872766288052821,0.2732514169814833,0.39240547155994093,-2.039216905916637,-0.08761975420754031,2.028711071903288,0.525992911950189
0.18264628394201923,1.0177599874613907,0.3480575162865823,-1.7337200632865994,-0.10822147112631789,2.2822503769610174,0.5261430677852665
0.17899083785533523,0.9918217080904085,0.3523850788919593,-1.750190946671021,-0.10846568349147824,2.2726370246307277,0.5255727434530377
0.1754217235447617,0.9660394300558276,0.356736672753287,-1.7660372998799823,-0.10867155925550293,2.263209065152536,0.5250259446484273
0.17193895853437222,0.940409965139618,0.3611024536294378,-1.7812654905809178,-0.10883920319639345,2.253963868260601,0.5245037984898607
0.16861729113215587,0.9148838546638116,0.36538441329191446,-1.7959365511699659,-0.10875435184156616,2.245012072671076,0.5242174046279029
0.1653933041893636,0.8895012727321306,0.3696534234737852,-1.8100028380693232,-0.10864667078268557,2.236242338048028,0.5239430243459472
0.1622664862953146,0.8642540912695921,0.37389994111581937,-1.823479689967771,-0.10851757077758875,2.2276523105557584,0.5236806011551751
0.15923835105934342,0.8391398762167348,0.37811383708094526,-1.8363752414158254,-0.10836904920240757,2.219244528624625,0.5234297400476611
0.15622881678684913,0.8141999991507105,0.38238524787892275,-1.8486509548658445,-0.10837155136905424,2.2109023569617063,0.5230353376023352
0.15328967451170725,0.7894146315963867,0.3866316150065827,-1.8603238556950645,-0.1083753159095178,2.2026735710705454,0.5226235105962082
0.15049692906714965,0.7647324223176768,0.3907696249472496,-1.871455699307128,-0.10827164195196422,2.194658454811836,0.5223161589395522
0.1478086371042058,0.7402057990515932,0.39483151678878287,-1.8820215066937414,-0.10817492007545511,2.1868533794800484,0.5219697698210397
0.14516857874696207,0.7158428267149692,0.3988841209539378,-1.8920090125703235,-0.10818311122467761,2.1791579378658326,0.5215374169662692
0.14262268183382384,0.6916187194009648,0.4028413086124175,-1.9014450216776246,-0.10798567228100221,2.1716719957253194,0.5213114435760048
0.14023715288204464,0.6675379766646012,0.4066303816258131,-1.9103480494331062,-0.10768761847156237,2.164456371866383,0.5211702796927731
0.13785617553514476,0.6436579790945156,0.4104319202758339,-1.9186555017431595,-0.10757689219502,2.157299086950321,0.5208591149023623
0.13558946833982075,0.6199346444697981,0.414099416748617,-1.9264420533355004,-0.10733108596489468,2.1503883291957244,0.5206803331425838
0.13342438279585295,0.5964000957507056,0.4176411494466292,-1.9336739593474233,-0.10707332554221678,2.1436897220430238,0.5205160901234792
0.13130774377172486,0.573105032742293,0.4211183891716712,-1.9403038139602622,-0.10692087856746492,2.1370920077760878,0.5202578373227498
0.12927680907640088,0.5500086351849447,0.4244719999969698,-1.9463952293301372,-0.10676056470853851,2.1306872008866056,0.5200123909217849
0.12733398281416972,0.5270962898525241,0.42768019295417126,-1.9520170559798153,-0.10651205425056777,2.124670903953483,0.5198653189401764
0.1254938643385322,0.5044278445959307,0.4307267775529192,-1.957067504964155,-0.10624449691580631,2.118813513126566,0.5197265039145433
0.12372876305348925,0.48203336294638927,0.4336553323463012,-1.9615364979283245,-0.10613792275325501,2.1130817240269133,0.5194659894271221
0.12204208650106496,0.4598980437280452,0.43643902855512595,-1.9654642565379603,-0.10602704686019371,2.1075805564378345,0.5192220023281335
0.12044049483493005,0.43805253488116885,0.4390591350053688,-1.9688249446124075,-0.10583120438157512,2.102271966231031,0.519065160450448
0.11890967567024882,0.4164839395975924,0.4415168553999172,-1.9716773808980912,-0.10555457385040706,2.0972377197324477,0.5189878062062315
0.11744601068316378,0.3952399465448271,0.44382780178644493,-1.9739699372096084,-0.10532099191571587,2.092420363772183,0.5189088539679912
0.11604881427077844,0.3743236645588263,0.4459771339667431,-1.9757157426439935,-0.10508441221283983,2.0878222879869064,0.5188351736227103
0.1147173524680026,0.353750928956,0.4479657762702524,-1.9769230131400675,-0.10488388878670753,2.0834637744856264,0.5187641785074397
0.11345615645677846,0.33353883192624606,0.44979510549645496,-1.9775955896098585,-0.10474371881453602,2.079389318645004,0.5186384938589284
-0.06379465706392227,1.0278127813697773,0.2333479788605329,-1.654688866774273,-0.12264402696690305,2.3112611311755686,0.5095288726526858
-0.06614745167813271,1.0018812957985948,0.23600250645052023,-1.6716256447946292,-0.12281820046903341,2.3018150115021485,0.5091157997370899
-0.06838582118596463,0.9761661316993209,0.2386038757369247,-1.687935937410996,-0.1229200708628707,2.2927051791468114,0.5087594489514253
-0.07054428104594457,0.9506854905995911,0.24119005593635767,-1.7035934430135191,-0.12292406485164216,2.2838150462618727,0.5085069156697286
-0.07269146509476707,0.9254418375870921,0.24382749416387103,-1.7185934374802185,-0.1229366838585405,2.2750571449042987,0.5082277227682822
-0.07478426976648771,0.9004250427511442,0.24646658894982618,-1.7329646085363162,-0.12292630100051315,2.266502645861863,0.5079606586291401
-0.07676234947841822,0.8756385827368471,0.24905674543861792,-1.746666935233255,-0.12311913874849248,2.2580163043669215,0.5074843182799617
-0.07867949978491111,0.8510626468339823,0.25162816125325266,-1.759765929036834,-0.12329187391905747,2.2497224085940806,0.5070223284757231
-0.0805685987874516,0.8266969746658156,0.25420425735931895,-1.7722881911382675,-0.12333745732509258,2.241681841579773,0.5066840284552551
-0.08240231581967113,0.8025501961363076,0.25675444189985563,-1.7842242122539953,-0.1233643500993206,2.2338472159446363,0.5063577932219034
-0.08418350647076413,0.7786392609101482,0.25928183577487285,-1.7955311603702966,-0.12341329552753494,2.226103013942444,0.5060089133397186
-0.08589839490031617,0.7549393911534344,0.2617679945506956,-1.8062702999765938,-0.12344973271511148,2.2185608437247293,0.5056714247147147
-0.08754911054628225,0.7314573140174315,0.2642050553141848,-1.816442749129397,-0.12346630737997905,2.211230221858877,0.5053536104431143
-0.0891126799797705,0.7081611433247089,0.266554019388495,-1.8261192134889228,-0.12336810759700928,2.2042535586387517,0.5051400783069822
-0.09064465230006535,0.6851516646745341,0.2688911314924057,-1.835143905730082,-0.12338703432773711,2.1973086182114363,0.5048296885910865
-0.09210453344114734,0.6623307870974263,0.27114440523950284,-1.843661032792093,-0.12328269611519045,2.1906313878656625,0.504629997986619
-0.09353824432801572,0.6397559526861739,0.27335378027873497,-1.8516582501154881,-0.1230872769570591,2.1842874533457812,0.504494335640054
-0.09488462407178512,0.6174244450776192,0.2754745421227315,-1.8590899936740324,-0.12294827522735007,2.178116968024384,0.5043323546118726
-0.09614451303809715,0.5953452770492138,0.27748691135156267,-1.8659816179514617,-0.12274774554374657,2.172184974282361,0.5042364349951346
-0.09738967640679964,0.5735495277708662,0.2794833707573376,-1.8722826611084233,-0.12274347676431906,2.166346169753368,0.5039688109975906
-0.09858011242179629,0.5520260380873757,0.2814010374597875,-1.8780380528850773,-0.12272404034794189,2.1607367369151937,0.5037220954063357
-0.09971611143909191,0.5307841613768166,0.28323542717813743,-1.8832500931348677,-0.12269103530078514,2.1553521310468358,0.5034951096299325
-0.10080371807569628,0.509833618045876,0.28497491284239096,-1.8879213428905415,-0.12248139509352288,2.1502184896804346,0.5034473758160235
-0.10181539674538072,0.4891666586045273,0.28660821677869497,-1.892077708095739,-0.1223354255856959,2.145345156245265,0.5033578500452643
-0.10279795106781789,0.4688213444041656,0.2881691732709128,-1.895689209699776,-0.12216192294663623,2.1407041997381206,0.5032828202980207
-0.10374352950216276,0.4488063938934053,0.2896519181941083,-1.8987590801257903,-0.12206839236601753,2.1362961092135255,0.5031501318547412
-0.1046535762566415,0.4291340411983585,0.2910843639417688,-1.9012391956072616,-0.12210746674537898,2.131951572859502,0.5029111327444983
-0.10554131413563146,0.40982049085141203,0.29241717792263977,-1.9031965823139565,-0.1220264351493581,2.1279674292959303,0.5028130251563216
-0.10637434504456336,0.3908326948634298,0.2936462738709071,-1.9046725580210313,-0.12195791116884311,2.1243051484340687,0.5027067719414018
-0.10718557546841025,0.37222153145037007,0.2948114150663427,-1.9055742086285876,-0.12194425048234733,2.1207644777087613,0.5025502688942566
-0.02551191661225526,1.052210201982631,0.27877636936216643,-1.6317998710913781,-0.1418942405586693,2.351118055882095,0.4936428554141807
-0.028476265537361472,1.0263115411589345,0.28195068382568533,-1.6490699307286827,-0.14225999620733593,2.3418640484939863,0.49307541305174407
-0.03135029331460424,1.0006591372816833,0.2851288036116795,-1.665666704619341,-0.14258504699504226,2.332877554543124,0.49253910980764654
-0.03414524274884319,0.9752572938950079,0.2883125068291022,-1.6815602144409036,-0.14291085107871107,2.3240280404934204,0.49198832387703384
-0.03676509835245381,0.9500345626941896,0.2913772876437716,-1.6968976561304905,-0.14288861068547276,2.3156666256607195,0.4917507377986815
-0.0393149429037232,0.9250399683501803,0.29443872282269556,-1.711590630396698,-0.14284275223637852,2.3075120764341164,0.4915255061328435
-0.041795425421042955,0.9002677759979943,0.2974928792066149,-1.7256530672132622,-0.14277560316548732,2.2995617656350826,0.4913127175633244
-0.04424044997419188,0.8757356579948704,0.3005825089080347,-1.7390435459443512,-0.14279199573432344,2.29165703474246,0.4910358567504843
-0.046630232581391554,0.8514396802479121,0.3036665320037144,-1.7517908219098568,-0.14291079573640264,2.2838984424331183,0.49065058547558965
-0.04896135355457272,0.8273614695578644,0.30674080519949104,-1.7639346808380425,-0.14306678488597632,2.276312737326313,0.49022374598566926
-0.051200014062387326,0.8034769326112176,0.3097538486508572,-1.7755343018883143,-0.14313856099880576,2.2690538714412543,0.48987739570358474
-0.05335144941219203,0.7797820609398673,0.31269474823494736,-1.78659154176701,-0.14305503110943363,2.2620762622557398,0.48968003402726795
-0.055422528234751564,0.7563113347149488,0.3155774651129532,-1.797064178614583,-0.1429619292323924,2.255322246678196,0.48949258525058575
-0.057442564866675636,0.7331022080757599,0.3184420087400625,-1.8068715102881723,-0.1429875008203057,2.2485535453943153,0.4891694519726384
-0.05940787002514339,0.7100913070408776,0.3212577388849029,-1.8161733412723826,-0.14292145591551142,2.2421234622602544,0.48893555743435096
-0.06128653477248671,0.6873147853201628,0.32398247538543984,-1.824895155145971,-0.14275783509805148,2.2358511219028516,0.4888040580251784
-0.06312050693953221,0.664775794118754,0.3266619536255889,-1.8330631450660857,-0.14257695806343612,2.2298186167923038,0.48866593271509484
-0.06485786836563007,0.642476886461904,0.32924125858515235,-1.8406610822084857,-0.1424365411258441,2.2239564007240435,0.4885085256437543
-0.06654190730982837,0.6204522411417388,0.33176796784789264,-1.8476643917078697,-0.14245122677852667,2.2181941374426275,0.4882203341920521
-0.06815780817562449,0.5986822359239734,0.3342076365735753,-1.8541145086925603,-0.14244758946908506,2.2126509241853274,0.48795383596624153
-0.06970020858040761,0.5771578594340322,0.33653907378889747,-1.8600662588888885,-0.14234485815803768,2.207474048163341,0.48778529073832166
-0.07116682576943265,0.5559149964082307,0.33876571722829424,-1.8654457217654352,-0.1421874854152888,2.2024278878530263,0.4876739119414097
-0.07253542445949707,0.5349519727658667,0.3408582644942812,-1.870289600367832,-0.14203402079518287,2.1976364317900208,0.4875795666952633
-0.07390773405891375,0.5143053506276299,0.34292187375126054,-1.8745773477650218,-0.1419438584756709,2.193052121450164,0.48743329634349425
-0.07522141795209492,0.4939811382404432,0.34491464849276077,-1.8782565008980612,-0.14200794259447094,2.1884717305971346,0.48714465099472265
-0.07650035116812386,0.4739910276891184,0.34679964365692867,-1.8814060817389937,-0.1419249130207477,2.1842451505904874,0.4870205452621912
-0.07770256873559646,0.45430717787067093,0.3485646048740392,-1.884037541493847,-0.14191203293354354,2.1802235182364997,0.486828900034228
-0.07886891308474661,0.4349701147158136,0.35025114751705866,-1.886105482488593,-0.1419187077707174,2.1763749504004126,0.4866180184393343
-0.07996199206338374,0.4159872957421862,0.35179700901920846,-1.887676503127039,-0.14183332188467979,2.1729341302522287,0.4864988226653916
-0.08102075387590828,0.39736035087299937,0.3532444000778683,-1.8887077698104644,-0.14169286586198382,2.169706896393212,0.4864403441839656
0.012466447339867045,1.0868330638508639,0.3251528223291979,-1.594434431908326,-0.1636402067579247,2.3961171920080404,0.47741009500886494
0.008826635381771947,1.0609764432062283,0.32878145606804343,-1.6123147951556311,-0.16381393040863174,2.3874144810146616,0.4770976307711879
0.005332711983512438,1.0353493456919745,0.3323731791937733,-1.629527820946893,-0.16392195583787073,2.379068984441113,0.476848402651602
0.0019196360133580668,1.0099986610151284,0.33599708037696757,-1.6459681010506293,-0.16406187454191765,2.370748875499566,0.47653933232736995
-0.0013992895188049022,0.9849010491174842,0.3396301279580082,-1.6617140431395276,-0.16432840908539045,2.362672743383077,0.47609811945606156
-0.0046168342512791245,0.9600309695452353,0.34323981649173707,-1.676805779827938,-0.16442556912428025,2.354831117071655,0.47580095606939543
-0.00777038717154018,0.9354272981205264,0.346884247449874,-1.6911687893678462,-0.16472421097642814,2.347035007535999,0.4753033486436354
-0.010860184269377798,0.9110407469410305,0.35053665158585634,-1.7049202221381268,-0.16477581438459793,2.339479248145213,0.47504237028876073
-0.01378029096045239,0.8868457738190932,0.35406547549341205,-1.7180613715408295,-0.16477764035479742,2.332218822639103,0.474817563690092
-0.01663626139317672,0.8628780689078396,0.357588201784028,-1.7305886802043176,-0.16474606862704513,2.3251615010483593,0.4746182552249884
-0.019412697930451712,0.8391348053733335,0.36109299234756836,-1.7424724733501704,-0.1647595489493687,2.3182312147729083,0.47437121318827147
-0.022104966681119775,0.8156119607172713,0.3645496782698414,-1.7537543589031688,-0.16476350135236095,2.311501305150139,0.4741288170091819
-0.02470638841042858,0.7922961916517475,0.36794914949434127,-1.7644401989550278,-0.16472959002189824,2.3049369516646108,0.4739235347244307
-0.027283056520247494,0.7692290771586144,0.3713503560220545,-1.7745562796740586,-0.1647128555798438,2.298676812952845,0.47368250799533085
-0.02976963785833138,0.7463696922213918,0.3746793603010862,-1.7841073110074532,-0.1646835180221673,2.29262746715248,0.47344867112228584
-0.032154545869258415,0.7237360880095529,0.3779152537107308,-1.7930679207743037,-0.1645582366832639,2.2867310481548127,0.4733103996584629
-0.03445478661232347,0.7013368850440721,0.381077366079113,-1.801445461098161,-0.1644690070205992,2.281027028167525,0.47313598416385483
-0.036617475687553205,0.679161741887427,0.38409222912886787,-1.809274714382383,-0.16430890105107693,2.275576402210184,0.4730310916600302
-0.038764339328100604,0.6572633244982556,0.38710323147803666,-1.816484818360367,-0.164342671481322,2.2701692514882814,0.4727474185554718
-0.040784256090102985,0.6355850083168951,0.3899560131555513,-1.8231937416981712,-0.16418969867240324,2.265147574932761,0.4726521877943728
-0.04269533105628742,0.61415497485164,0.39267263732835767,-1.8293737581214689,-0.16401771686635574,2.260419871042276,0.4725778580435548
-0.044600361031020275,0.5930374813538092,0.395376601677523,-1.834921688733892,-0.16393051607049627,2.255689250431607,0.47240925477408663
-0.04645386323910122,0.572216556802606,0.39802901026833937,-1.8398613111659488,-0.16404344671467255,2.2509770718795923,0.4720707792233572
-0.04820928274016165,0.5516803712396964,0.40050717089161575,-1.8442993819715783,-0.16387958018898696,2.2466802293993697,0.4720173349420462
-0.04994074223651654,0.531457843468674,0.4029510295521526,-1.8481422157199587,-0.16392665679608223,2.242450701964204,0.47174992171331953
-0.051538731264826707,0.511527165719104,0.4051955802277405,-1.8514986335778754,-0.16381125496050608,2.2386340194190977,0.47163482729742706
-0.053110008297484246,0.49191588044695106,0.40736388623781833,-1.8543215859233684,-0.16368486659718326,2.235053440069983,0.47153170899073305
-0.05461532435723179,0.4726632859652141,0.4094326774805628,-1.856537498998606,-0.16364984822402417,2.2315266796534377,0.4713710536398216
-0.056033942565439365,0.4537430015962669,0.41133886436642103,-1.8582431827426331,-0.16349649766426674,2.2283350736229535,0.47134648002904944
-0.057404491240370094,0.43513751938534434,0.41312748021699686,-1.8595141179977255,-0.1633202135774998,2.225605170418635,0.4713231441226072
0.051104886179850165,1.132653350036218,0.3723941951511648,-1.5414114373043037,-0.1867655488804474,2.4466101192971275,0.461999965759927
0.046659296425028744,1.1068308338575616,0.37646618739602844,-1.5601300813006813,-0.18699461949630256,2.4383275889032374,0.4617640287058945
0.04231956078780384,1.0813430435007554,0.38059563150184555,-1.577981666110605,-0.18751292620368495,2.4301130275111507,0.4612109523421949
0.038210571368575856,1.0561047423950067,0.38462856098324405,-1.5950502671668085,-0.18807898194321615,2.422042877020017,0.46059384014418103
0.034211023394343835,1.0311418765848952,0.38867819785211916,-1.6113753057653972,-0.1885972020856952,2.4141926907617486,0.46000539568444965
0.030319953683512094,1.0064414251410372,0.39273487982224325,-1.6269822979744262,-0.1890721423572525,2.4065567301019306,0.45944297209205115
0.026535372038171842,0.9819927824641854,0.3967900213683544,-1.641891155203512,-0.18950666086866083,2.3991311967152917,0.45890523126927746
0.02274174817549781,0.957816480850209,0.4009492281319171,-1.6561527972120387,-0.18980388552391894,2.3920188666481357,0.45848387591543055
0.01911568196889529,0.9338539895287226,0.4050245654968164,-1.669742873175296,-0.1899760004559693,2.3850784626125456,0.4581753952487691
0.01553612056771407,0.9101313435714734,0.40911963545364294,-1.682722724839727,-0.19003974499184623,2.378437110278078,0.45795456445220006
0.012049000787011462,0.88664105806,0.4131933506533897,-1.695053144044598,-0.1900851785292731,2.3719870293910827,0.4577421654064674
0.008736588802957338,0.8633600898266676,0.41715209332429953,-1.706717281065528,-0.19016374402512878,2.365639342674469,0.4574968915666931
0.005526087125561073,0.8403024123893553,0.4210570021791402,-1.7177663077416447,-0.19022358337012796,2.3594907941249175,0.45726285594046223
0.002335003396226563,0.8174847236128416,0.4249838641470922,-1.7282440555128853,-0.19027834192092907,2.3536509278357705,0.45701879322708394
-0.0007493980502127146,0.7948833279800658,0.4288338185068074,-1.738131608057147,-0.19031489379924577,2.3480303028231067,0.4567859258615084
-0.0037395022341135745,0.7725132755529888,0.4326139974600884,-1.7474076887098573,-0.190266020301314,2.3425548087801893,0.4566263854147458
-0.006549753774247724,0.7503501450566674,0.436225255202364,-1.7561017241051695,-0.19017677185110868,2.337307256482615,0.4565146726347847
-0.00934456044496614,0.7284486554169533,0.43984163123365433,-1.7642017476465308,-0.19018705579748893,2.3322389558823216,0.45630441284307943
-0.01205344945195618,0.7068268155624321,0.4433932328945227,-1.7716444050091573,-0.1902369205897255,2.3271859418973344,0.45605931781445014
-0.014636842467066914,0.6854084452344597,0.44679996382670706,-1.7785625090296144,-0.19029653107526107,2.322373136612588,0.45579509437886
-0.017163037093767382,0.6642507647729221,0.4501359892874584,-1.7849603103085208,-0.19024510635546837,2.3179725097687593,0.4556404210135847
-0.019641848156689023,0.6433744415080557,0.4534111037874553,-1.7907650585648016,-0.1901387579955193,2.313675692939588,0.45554574299038264
-0.02197125910241791,0.6227463318404752,0.456504634080769,-1.7960472434092107,-0.19003563594393733,2.3097256139423354,0.45543234137103866
-0.024254541160237262,0.6024488277208336,0.4595532307825003,-1.8006567709809473,-0.19011305038791784,2.305653628054957,0.45516955544608817
-0.026451636408513005,0.5824451698030069,0.4624800368649121,-1.8047066288338194,-0.19013538526591692,2.3018181813850096,0.4549576505308985
-0.028494674754040772,0.5626968499520777,0.46518655989402197,-1.8082684292943314,-0.1900065940465257,2.2983470888475575,0.454899375945087
-0.03052267265946569,0.54328036263996,0.4678422835710369,-1.8112860188731674,-0.18987324436907546,2.2951515604845736,0.45485206426712366
-0.032494283721320544,0.5242044031018444,0.47040064483625305,-1.813736956106088,-0.1897087409430441,2.29210357449731,0.4548416566440917
-0.034394885156048965,0.5055019674032349,0.47285638330339086,-1.8155685028930464,-0.18969634655696394,2.2891259187094537,0.4546967663642473
-0.03618031613436079,0.4870958510310904,0.4751209965057581,-1.8169199292472396,-0.18956675633756045,2.28652133701162,0.4546612450543695
0.10079147197437789,1.187932344416479,0.4112241076688669,-1.4674109084930254,-0.20668399010599797,2.4930707189276653,0.44841396861037647
0.09556353682608013,1.162086403671248,0.4155391544180929,-1.4872203498927872,-0.20717975667136587,2.4849933037729355,0.44804024658988145
0.09050155138012958,1.1365876758638318,0.4198745859343478,-1.5061472769154927,-0.20769850310811386,2.4771364095422785,0.4475998449002243
0.0857469283433475,1.11138731506,0.4240726299015928,-1.5241625003574364,-0.20842630173437227,2.469390389321625,0.4469588196474503
0.08114186995812842,1.0864962817130615,0.4282762981829114,-1.541379231030086,-0.2090405083711681,2.4619214028004213,0.4464010098446935
0.07659571873901043,1.0619236768919487,0.43257372901171726,-1.557848054554079,-0.20950507763567175,2.4547570609635048,0.4459799564575406
0.07210186177228695,1.037683876485396,0.43696978829138283,-1.5735349454021157,-0.20991178596042262,2.447778618778779,0.4455791124783668
0.06774459818730666,1.0137141072497058,0.441349878313486,-1.588464750543414,-0.2103762103558335,2.44092110694434,0.44509729887975313
0.0635030758872993,0.9900171897734388,0.44573071999257574,-1.602674224821064,-0.2107904769725801,2.434280610554246,0.4446475451028053
0.05937753989534163,0.9665615561169576,0.4500833075698108,-1.6162560403547357,-0.21099261432959132,2.4280451884239875,0.4443910115355481
0.05533817354331058,0.9433710051435845,0.45444310171515173,-1.629146751988883,-0.21117076193996268,2.421986727536817,0.444145089578041
0.05143397641380128,0.9204456556692737,0.4587646646874219,-1.6412959745878353,-0.21152531827765123,2.4159225337339327,0.4437210982732434
0.047754349915194755,0.8976738308258377,0.4628888647743547,-1.6528910306134674,-0.21164982111549474,2.4103161560454556,0.44351115113852896
0.04408029574486858,0.8752195930002914,0.46710005469316646,-1.6637631617377373,-0.21186875050802395,2.404701805220152,0.4431953170683405
0.040437144580746896,0.8530078776501537,0.4713335213503501,-1.6740682880139057,-0.21198316176354165,2.3994508805551185,0.4429734536816625
0.03690971633251747,0.8310324050243624,0.47548722521520476,-1.683763372043922,-0.21207302074869475,2.394431950598226,0.44276781511133684
0.03348585105227815,0.8093081923607826,0.4795770999511029,-1.6928169991887234,-0.2121441672589952,2.389540563966388,0.4425646138804697
0.030179925464744992,0.7878198152618717,0.48357136843713483,-1.7012700206607645,-0.21210480071578514,2.384849382736253,0.44246853742012265
0.026999305462713105,0.7665849393636311,0.4874690964402201,-1.7090729573305885,-0.2122440484898404,2.3802106345203984,0.442194867232337
0.023908099716147987,0.7455824791597319,0.4912777117653112,-1.7163701922710142,-0.2122556957355169,2.376034053708848,0.44205255050120096
0.020909960930631657,0.7248550828417413,0.494999560818572,-1.7230383598369747,-0.21222795501418454,2.3719356743525757,0.4419438498152187
0.017980712137609538,0.7044216639489407,0.49866979650779697,-1.7290656119081413,-0.212245326256136,2.367901221854964,0.4417937446576877
0.015204814724560598,0.6842411105221778,0.5021737233630766,-1.7345243617781072,-0.21229913664203914,2.3640794883553355,0.44160008089074365
0.01245337882744123,0.6643724062060328,0.5056451666906969,-1.7393922876920493,-0.212308974344712,2.360437254799013,0.4414536496291783
0.009794120862893007,0.6447769351926214,0.5090082613112505,-1.7437151808633122,-0.21233487457080188,2.357015664146488,0.4412985538833903
0.007197605387490043,0.6255217324066475,0.512295765109401,-1.7474197877421247,-0.2123799967761431,2.3537374476547535,0.44112094322167683
0.004688666459666544,0.606544810284065,0.515458307640404,-1.7505888883353848,-0.21245079340672388,2.350655856555421,0.44091786153284684
0.0023183154908045967,0.5878823685307398,0.5184367169001574,-1.753212995449113,-0.21236030842924686,2.3479376024426895,0.4408736332170204
-4.901100243158062e-05,0.5695662088721515,0.5213797711760129,-1.7553151580401292,-0.212262871814499,2.345513834430993,0.44084079332275244
-0.002259923975325216,0.5515787226435461,0.5241235340963828,-1.756832417261903,-0.21216446713440773,2.343226568587922,0.4408163355452189
-0.09538875861838679,1.2416920964231648,0.2933529958346604,-1.3154506776786925,-0.23473841775113088,2.570301243188536,0.43235248911782553
-0.09940411241516887,1.2141471769971237,0.29596870551808324,-1.338292246242807,-0.23571355337216032,2.562409485844333,0.4317960985478179
-0.10325681326084177,1.1872185343772,0.298625063508949,-1.359911456933026,-0.2366955638376603,2.554749140109442,0.43118431099783533
-0.10689514528562559,1.1608408142865654,0.3012366679689439,-1.3803462320725643,-0.23781388567986894,2.547119685758704,0.4303911481679802
-0.11042188920560844,1.1349599208012455,0.303894777847147,-1.3998475476568666,-0.23834693059638704,2.5400667532915073,0.4301302469791439
-0.11383777236493538,1.1095820296394119,0.3065906344889462,-1.4183423365124674,-0.2389734807249976,2.5332332133994715,0.4297597012885411
-0.11722274495953502,1.0846871388421038,0.3094094829633917,-1.4358600235464933,-0.23961953984607676,2.5265012730400693,0.4293322460247318
-0.12048781519536597,1.0602257218214455,0.31221998121976524,-1.4525142299404226,-0.24011215508185668,2.520117434008816,0.4290308992764747
-0.12369433793356105,1.036180128348447,0.3150889974153611,-1.468292239415473,-0.24062544316514786,2.5138439080455286,0.4286838459413762
-0.12675556377283326,1.0125294388485935,0.3178925802013748,-1.4833064703764973,-0.24099668469752392,2.508073937139823,0.4284682856298559
-0.12970408951098356,0.9892580746944974,0.3206735014532963,-1.4974508899518928,-0.24156634696147125,2.502234336379823,0.428028770463496
-0.1325551119621141,0.9663575732513531,0.3234363847952368,-1.5108287909909,-0.2420872430156971,2.4966190448275043,0.4276189399770192
-0.13531318608126225,0.9438174913135987,0.32617507143184055,-1.5234638689009652,-0.2425612016061563,2.4912248313115524,0.42723885134844247
-0.13798065526646705,0.9216301794189156,0.32888420504640026,-1.5353764003754389,-0.24298962810904923,2.4860498207530304,0.42688878313872275
-0.14056009464987854,0.8997898500760468,0.33155924402665443,-1.5465845411330696,-0.24337363026362618,2.4810932645136425,0.42656915244427795
-0.1430553734267723,0.878292598014737,0.33419759232742485,-1.5571048332297663,-0.2437132316811277,2.4763562067860048,0.42628127662438964
-0.14542868298715236,0.857115965588312,0.3367459355609858,-1.5669762903261848,-0.24392905425733255,2.471897788693221,0.42610910374973426
-0.1477388558811877,0.8362856228750308,0.33925641515985366,-1.576235071579134,-0.24403066914999888,2.4678424247787696,0.4260351976948084
-0.1500167090031382,0.8157884742386545,0.3417718696343825,-1.5848484956849287,-0.24414630475173316,2.463967084386958,0.4259389333118825
-0.15215723463805367,0.7956334748696534,0.3441763854270477,-1.592765997385149,-0.24424455917279234,2.4601554737152336,0.42585930435795505
-0.1542746687901771,0.7758266503533187,0.3465842700287339,-1.6000739053389719,-0.24437785034470313,2.456643522681157,0.42573902128025454
-0.1563265940238796,0.7563593054112874,0.34893819321556796,-1.6067830045309954,-0.2445024495767585,2.4534013427798835,0.42562416951732407
-0.15831119620532305,0.7372451328097065,0.3512449043083175,-1.6128371045024277,-0.24462761979710684,2.450256971338432,0.4255030394785234
-0.1601894592631754,0.7184892034700112,0.3534509322441249,-1.6182495434102149,-0.24466795483541717,2.4472667868282953,0.42546054385050974
-0.16203084872196366,0.7000779121381543,0.3556366783983881,-1.6230720439981507,-0.24476341628204681,2.444478401659038,0.42535480222583477
-0.16381233505044193,0.6820242137833519,0.3577584970839828,-1.6272924969812088,-0.2447934029833472,2.4418837440332815,0.42530889467675626
-0.1655403637182293,0.6643569837703179,0.3598350734533609,-1.6309046166683565,-0.24480831613848983,2.4395351306319366,0.42527643430441914
-0.16711764493454542,0.6470331566394439,0.36173348161961144,-1.6339430373854993,-0.24479448093653564,2.4374617359292166,0.42527098088118254
-0.1686968844321318,0.6301047758967332,0.3636498062963433,-1.6363927909928282,-0.2448023624397454,2.43557787780143,0.4252409560255583
-0.1702249829469413,0.6135613844922123,0.36550662626003977,-1.6382579541651725,-0.2448034380010552,2.433923930100368,0.42521739376790385
-0.050330537922243276,1.2760515644918748,0.3325125855067633,-1.2773233609271195,-0.2568534315251301,2.6046417329573237,0.41754030287865246
-0.055199488755204265,1.2481603450270664,0.33545389721375013,-1.3013757299274884,-0.25812610293571653,2.597018957670716,0.41686245424313445
-0.059876631032426506,1.2209648961265198,0.33847808918371874,-1.3240435415402552,-0.25944699623249506,2.589532257407688,0.4160839699251892
-0.06424651936816139,1.1943202369618213,0.3413681023552171,-1.345522486948565,-0.26075471501280784,2.58232428506008,0.41529169636745816
-0.06864394013320463,1.1682841889993487,0.3445378321692526,-1.366012224021839,-0.26163256197682394,2.575813724085305,0.41485162424548855
-0.07279676944084933,1.1427805838846525,0.34764125019598735,-1.3853001023081493,-0.2625907438639652,2.5692356936616814,0.41431278756159445
-0.07692429527287079,1.1177842838355723,0.3509077333449213,-1.4036588700051353,-0.2633399214555295,2.563064018893672,0.41393585644835557
-0.08083052527423466,1.0932394301480841,0.35409368411792136,-1.4210047266211108,-0.2640534764524823,2.5569889628470563,0.4135601330437011
-0.08454416227344816,1.0691060678346942,0.35719512101246653,-1.4374415629296216,-0.2647993665451264,2.551150847693833,0.4131246147969666
-0.08821829156095493,1.0454143595876515,0.3604016515802805,-1.4530369724223173,-0.265396702615143,2.5456114366313427,0.41281681340822557
-0.09177639270036864,1.0221197492265366,0.36360245424656074,-1.4677735089619879,-0.26595218337101867,2.5401918136157486,0.41250496826508143
-0.09514213621786692,0.999200907030292,0.36669557014162035,-1.4817230143529063,-0.266398226933473,2.5351415264521013,0.4122827229419541
-0.09844043933307423,0.9766584713832903,0.369814526240207,-1.4948990921671632,-0.2667582979141557,2.530279769314091,0.4121256230650258
-0.10163211232711342,0.9544788832042134,0.372907805327655,-1.5073196345772197,-0.26708073110547514,2.525632416684116,0.41198632897316617
-0.10472210505721381,0.9326639612873378,0.37597870785247794,-1.5189817211543537,-0.26734805007473256,2.521143634344377,0.41188248456571175
-0.107689243379785,0.9111880896242199,0.3789880513263043,-1.529890477183796,-0.26774372217046544,2.5167509230446004,0.41164383149495726
-0.11057255643872999,0.8900616663045359,0.38196262456229896,-1.5401290331154933,-0.2681470225566387,2.5125893082578643,0.4113730638156781
-0.11337901614040102,0.869295222171592,0.38492341640078276,-1.5496551295115122,-0.268524488225112,2.5086277992250055,0.41111781015724774
-0.11606553724861486,0.8488479502428035,0.38779614755075864,-1.558556291297724,-0.26879314434549195,2.504989619721452,0.4109655728648005
-0.11865253241112572,0.8287469351426817,0.3906027125709432,-1.5667744349921158,-0.2690492656479796,2.5015112325576463,0.41081001466507205
-0.1212017872008883,0.8090006998593593,0.39341895525722487,-1.5743422194716503,-0.26924807921480837,2.4982150691847216,0.4107019119920966
-0.12363826646526044,0.7895969253791134,0.3961361817426465,-1.581279697475785,-0.2693881918723733,2.4952031702110657,0.4106414060916496
-0.12600183953001565,0.7705369069988295,0.3988062267215154,-1.587596034902933,-0.26954251970986226,2.49242918570627,0.41055371754554293
-0.12826189404422214,0.7518236592076447,0.4013876731923254,-1.5932677507990496,-0.26965762481832234,2.4897818853671714,0.41049398828382067
-0.13048107771318757,0.7334782253043954,0.4039571670823568,-1.5982977200525716,-0.26976257355890226,2.4872799627510997,0.4104360921570022
-0.1326384057788,0.7155094032026523,0.4064814609340249,-1.6027088217511332,-0.26984536497173994,2.485010757675321,0.4103963282264124
-0.13465533198315105,0.6978854103723617,0.40885466940123866,-1.6065359059522841,-0.2699101869218677,2.4830366606522842,0.41037179337425467
-0.13662400678729483,0.6806401169159499,0.41119252384356986,-1.6097322133225034,-0.2699758514395627,2.481190433354868,0.410337181896074
-0.13854497318354864,0.6637777088401686,0.4134900362539268,-1.612336761320666,-0.27002176114772275,2.4795642926032175,0.4103170080766628
-0.14031180562413526,0.6472875780033164,0.4156233421598125,-1.614337978333685,-0.2700843272375876,2.478187777338534,0.41028039956358914
-0.0010912578460323496,1.324264669855092,0.37247537182188206,-1.2172988075799303,-0.27942814360724705,2.646302829012127,0.4022605189284151
-0.00686751062861641,1.2955789709498118,0.37536389146625604,-1.243434951884187,-0.281565854077212,2.6389550949970344,0.40105988190377245
-0.012709580695760404,1.2678431215168742,0.3788207925181766,-1.2681341941546815,-0.2825750419251518,2.632469735054989,0.40086926621282803
-0.018020136051636867,1.240709001036555,0.3819472417469333,-1.2913756278268225,-0.2839238769510565,2.626049675041097,0.4002523147281271
-0.023325394966351817,1.2143275411063468,0.38542458920329703,-1.3133071803977414,-0.2851380023203107,2.6199323561422476,0.39973994583432626
-0.028261856202609823,1.1884853515555112,0.3887263940732193,-1.3340457661473322,-0.2861541466510478,2.6141380998389194,0.3993620720012467
-0.03311582799009772,1.1632319573782535,0.39220620804323897,-1.3536541062016891,-0.2869472783052749,2.6085453651645127,0.39915455815928924
-0.0378340033584962,1.1385204119009442,0.39575985985892753,-1.3721842336151373,-0.2878012850220234,2.6031852799313526,0.3988569179529496
-0.04233171507103261,1.1142687834900364,0.39925176647035143,-1.3896942373745607,-0.28878365204646184,2.597986974853926,0.3983966181276577
-0.04663027209788131,1.090467279080383,0.4027026315668921,-1.406204892089224,-0.2896858851344651,2.592875228125701,0.3979786247737298
-0.05075530529334913,1.0671025658301365,0.4061294623332719,-1.4217718057322621,-0.2906249895983328,2.5878867492015787,0.39747883424541486
-0.05481318832065064,1.044162055137392,0.409637434726231,-1.4364927712966091,-0.29141795843102025,2.583157591155008,0.397097795111606
-0.05868641306742915,1.0216022964017957,0.4130656494766973,-1.4503954186332153,-0.29210116977697215,2.5786941121565623,0.3967968774894062
-0.06247954647774242,0.9994508164199521,0.4165240410960468,-1.4635246791241907,-0.2926262805722586,2.5745877256695637,0.39662054589193996
-0.06615183016963025,0.9776738099275194,0.419964174419625,-1.475854262969377,-0.2931819755447489,2.570639510833356,0.39639239041646573
-0.06977640268688866,0.9563000341176002,0.42346290527976477,-1.487434839779328,-0.29357717058383836,2.56696413049763,0.3962973124637822
-0.07320748025638499,0.9352491273410934,0.4268207354526122,-1.4982835383991233,-0.2939036342566918,2.5635044971619685,0.39624221128835974
-0.07653791696100488,0.9145721727640042,0.4301664214588184,-1.5083602399791358,-0.29427945611119494,2.5600805301781384,0.39612291997779175
-0.07972751784144921,0.8942341189950916,0.43342379517265756,-1.5177276214020117,-0.2946791495445297,2.5568929972472043,0.39596974627261905
-0.0828954335153321,0.8742830665569792,0.4367339890052247,-1.526401853515444,-0.2950583571684947,2.5539088027891865,0.39582240697964544
-0.08593043180549174,0.85466377713096,0.439951835942955,-1.5344209421959871,-0.2952968626445102,2.551173450510505,0.3957972346916058
-0.08870637185207066,0.8353538161099833,0.44292090802660805,-1.5417319427602252,-0.29554373561781805,2.5485625998580765,0.39573889022524333
-0.09150180467166015,0.816444382571662,0.44598762640173434,-1.5483501038175662,-0.2959045428540796,2.546027310239642,0.3955480802404144
-0.09422909691863784,0.7978984035804574,0.4490220210707949,-1.5543068607373052,-0.2961576097440272,2.543705410027125,0.39544291517348923
-0.09683515109890624,0.7796957073570662,0.4519546955206502,-1.5596825766640592,-0.2963435144547066,2.5417248811290327,0.39540274995658864
-0.09930680240703307,0.7618533096236164,0.45477113255328155,-1.564397866065004,-0.29651453919096704,2.539925628130502,0.39537243088513213
-0.10171840885222302,0.7443934464508533,0.4575615169490018,-1.5684526019909433,-0.2966972738994149,2.5382460687150883,0.39531267962477845
-0.1039822262778455,0.7272925006150421,0.4602078725326754,-1.5718836075983267,-0.2968625459392067,2.536782573154554,0.3952630852319758
-0.10623273873529676,0.7105910145363658,0.46287496462355937,-1.5747063267054597,-0.2969848833916669,2.535526461153141,0.3952443294456934
-0.10834252752892767,0.6942799812203815,0.4654158008651106,-1.5768733406798539,-0.2971069016474907,2.5344492968669416,0.3952243261835797
0.036934183441090444,1.397914904865582,0.4452346534723212,-1.1216553947842212,-0.292219827288186,2.6644191592118345,0.3960155260047025
0.029194725646428415,1.3680841900562652,0.4482502830679585,-1.1511332633607172,-0.29450210035060204,2.6569110607441604,0.3949319070127331
0.02167187573694868,1.3394253823659379,0.45177615120697995,-1.1786512179416355,-0.2963356351629435,2.6499997444250645,0.39421067935416126
0.014646084808215115,1.311649523500176,0.4552802721766093,-1.204325981740201,-0.2979631816748247,2.6432826704551684,0.3935823286312502
0.008199206119737228,1.2845953490023434,0.4585433155123794,-1.2282935915310327,-0.2999447909702412,2.6366183974171005,0.3925447871510263
0.0017794646852626172,1.2583910290363076,0.46229213726401747,-1.2508990813810221,-0.3014601911570202,2.630525593609769,0.3918773450085034
-0.004359967270003792,1.232874727374338,0.4661205244026202,-1.2720740177772618,-0.3030906275064416,2.6244873082544515,0.3910398344969958
-0.01034973786497586,1.2079890118922587,0.4701385615556985,-1.29212933345835,-0.30398810439895013,2.6190464971778544,0.39084445693497527
-0.01599748786819915,1.1836584115452118,0.4740640630280266,-1.3108700347042779,-0.3053344021686576,2.6134967853213507,0.39015169979890696
-0.021442473546582963,1.159816281521984,0.47801180364234963,-1.3286386465666133,-0.30634320661058867,2.6084498606915103,0.38973861816890376
-0.026648177248617372,1.1364639467401425,0.4819414004770783,-1.3453394471070237,-0.30728699302612006,2.6035569560100744,0.38936070614398727
-0.03175120068159791,1.1136328068938335,0.48600819349567015,-1.361040364970395,-0.3080641705798744,2.5988904651119187,0.38910178062463185
-0.0365639725872703,1.0911574138550288,0.48991051614524533,-1.3758573052590863,-0.3088470859730476,2.5944978925332545,0.38881642138714817
-0.04138778385121117,1.0692074984779585,0.49404830693905155,-1.3897902560881277,-0.3096297532246839,2.5904537690993137,0.3885021000506779
-0.04594266699473985,1.0476140846507112,0.49803845300647226,-1.4028164450115295,-0.3103334811815368,2.586450222069717,0.38822727614925306
-0.0503457545530806,1.0264012092126629,0.5020049185749051,-1.4150649277691825,-0.31094599972598386,2.582785363783941,0.3880179154009068
-0.05458155016197402,1.0055700922253472,0.5059311309442152,-1.426472320796978,-0.3115102630879586,2.579230328741776,0.38782364277455433
-0.05868729542700721,0.9851201935395469,0.5098360946259157,-1.4371188809955289,-0.31204119186119683,2.575958547593279,0.38763512005704714
-0.06262514445717107,0.9650258806367158,0.5136725851864683,-1.4469842239511355,-0.3125565132623336,2.5728104601789727,0.38744768436188604
-0.0664807280987808,0.9453183034904846,0.5175337749577327,-1.4561276265441907,-0.3129930708687866,2.5699353179139335,0.3873092266774136
-0.0702061350913662,0.9259716302039405,0.5213533138622799,-1.4645295508998757,-0.3133840666302945,2.5672023307982994,0.3871970131071841
-0.07375025766837989,0.9069690407737718,0.5250579339838785,-1.4721970840146417,-0.3137456062075039,2.5646153429228913,0.3870982066210641
-0.07716737834448753,0.8883277147216401,0.5287079758682954,-1.479146416207571,-0.31413428182138503,2.5621803018378544,0.38695862761939975
-0.08050191046284112,0.8700555136619091,0.5323408851448366,-1.4854483191779622,-0.31447384188708105,2.5600440632373154,0.3868418410251846
-0.08375718112651048,0.8521878908922584,0.5359837880438345,-1.4910161875388208,-0.3147608232117666,2.5580059814135083,0.3867407700305555
-0.08682575129681495,0.8346205763067697,0.5394528408072382,-1.495985521006244,-0.3149593648298526,2.5562708376751755,0.38673017101113444
-0.08972664013576187,0.817422024881117,0.5427900539161636,-1.5002891169433568,-0.31514888245956274,2.554826149922672,0.3867145594556043
-0.09259474770754897,0.8006423144498626,0.5461750192317294,-1.5038974844793294,-0.31536816664993694,2.5534503560162065,0.38665183454975915
-0.09534204324380381,0.784240273259334,0.5494815390598435,-1.5068549384659546,-0.31556356240449335,2.552279182942945,0.38660143104364847
-0.0980154543569509,0.7682406092380164,0.5527660425415205,-1.5091696598039832,-0.3157244508850969,2.551315046952824,0.3865853980404641
0.10552378657770442,1.4889603579190736,0.4982860713763084,-0.9855585779209018,-0.3068412803035278,2.7007279207495025,0.3804935908569016
0.09432016216979713,1.4561302360787503,0.501607658174651,-1.0224924960193156,-0.31011125532512857,2.6932688954925443,0.3790875110451605
0.08440930786501642,1.4248599276461564,0.5045428035097334,-1.05602566531577,-0.3129975384697381,2.6861308200275444,0.3778273553293037
0.0750840948147194,1.3951393643232868,0.5079722133377329,-1.0867880164142858,-0.3154603163099152,2.6794746650029633,0.37686410729490266
0.06644892461817978,1.366599233978871,0.5114592417986044,-1.1151710066324296,-0.3175886661471314,2.6731318563412874,0.37609478295292476
